assets/luts/chill.cube
TITLE "Aftermovie Chill"
LUT_3D_SIZE 5
DOMAIN_MIN 0.0 0.0 0.0
DOMAIN_MAX 1.0 1.0 1.0
0.063414 0.040563 0.022126
0.248367 0.053209 0.034602
0.471490 0.066008 0.047185
0.699898 0.078986 0.059908
0.895254 0.092165 0.072798
0.089280 0.237358 0.046984
0.280774 0.253396 0.059705
0.507513 0.269686 0.072592
0.732856 0.286219 0.085670
0.921600 0.302983 0.098960
0.116000 0.479148 0.072385
0.314105 0.497306 0.085460
0.543501 0.515467 0.098747
0.764853 0.533609 0.112263
0.947159 0.551711 0.126024
0.143692 0.725433 0.098534
0.348252 0.741797 0.112046
0.579281 0.757911 0.125803
0.795817 0.773765 0.139816
0.972122 0.789352 0.154094
0.172433 0.930162 0.125583
0.383085 0.943011 0.139592
0.614686 0.955699 0.153865
0.825708 0.968256 0.168410
0.996738 0.980712 0.183229
0.068430 0.045471 0.191694
0.254650 0.058173 0.206944
0.478554 0.071038 0.222467
0.706438 0.084092 0.238257
0.900494 0.097356 0.254309
0.094452 0.243572 0.222218
0.287246 0.259709 0.238004
0.514584 0.276096 0.254052
0.739214 0.292720 0.270353
0.926673 0.309571 0.286896
0.121355 0.486216 0.253795
0.320746 0.504378 0.270091
0.550544 0.522534 0.286631
0.771013 0.540664 0.303400
0.952098 0.558743 0.320387
0.149249 0.731834 0.286366
0.355038 0.748102 0.303132
0.586264 0.764115 0.320115
0.801769 0.779866 0.337300
0.976972 0.795348 0.354671
0.178200 0.935186 0.319843
0.389990 0.947969 0.337025
0.621576 0.960603 0.354393
0.831447 0.973116 0.371930
1.000000 0.985542 0.389616
0.073474 0.050399 0.399633
0.260971 0.063161 0.417515
0.485622 0.076098 0.435496
0.712943 0.089231 0.453556
0.905699 0.102582 0.471671
0.099658 0.249825 0.435210
0.293752 0.266061 0.453268
0.521652 0.282541 0.471383
0.745534 0.299256 0.489533
0.931717 0.316190 0.507695
0.126748 0.493287 0.471095
0.327417 0.511450 0.489244
0.557579 0.529598 0.507406
0.777133 0.547711 0.525560
0.957016 0.565765 0.543682
0.154846 0.738198 0.507118
0.361850 0.754368 0.525271
0.593231 0.770280 0.543394
0.807679 0.785927 0.561465
0.981810 0.801303 0.579461
0.184009 0.940183 0.543106
0.396914 0.952905 0.561178
0.628445 0.965488 0.579175
0.837144 0.977963 0.597077
1.000000 0.990366 0.614864
0.078548 0.055349 0.624819
0.267330 0.068177 0.642384
0.492693 0.081187 0.659785
0.719414 0.094403 0.677002
0.910870 0.107843 0.694021
0.104899 0.256117 0.659510
0.300293 0.272450 0.676730
0.528716 0.289023 0.693752
0.751816 0.305824 0.710559
0.936732 0.322840 0.727138
0.132180 0.500360 0.693483
0.334118 0.518519 0.710293
0.564602 0.536656 0.726876
0.783212 0.554749 0.743218
0.961914 0.572775 0.759309
0.160484 0.744524 0.726614
0.368686 0.760595 0.742960
0.600181 0.776404 0.759055
0.813547 0.791947 0.774890
0.986639 0.807216 0.790459
0.189860 0.945155 0.758801
0.403857 0.957819 0.774641
0.635291 0.970356 0.790213
0.842799 0.982799 0.805514
1.000000 0.995184 0.820539
0.083652 0.060324 0.828877
0.273726 0.073220 0.843472
0.499765 0.086308 0.857796
0.725849 0.099609 0.871853
0.916008 0.113140 0.885652
0.110177 0.262448 0.857570
0.306867 0.278875 0.871631
0.535775 0.295538 0.885435
0.758059 0.312425 0.898992
0.941722 0.329521 0.912316
0.137652 0.507432 0.885217
0.340848 0.525585 0.898778
0.571614 0.543708 0.912106
0.789250 0.561777 0.925218
0.966794 0.579771 0.938136
0.166163 0.750812 0.911895
0.375545 0.766782 0.925011
0.607114 0.782488 0.937932
0.819373 0.797925 0.950681
0.991461 0.813088 0.963286
0.195752 0.950103 0.937728
0.410818 0.962714 0.950479
0.642114 0.975210 0.963086
0.848413 0.987626 0.975579
1.000000 1.000000 0.987993
