assets/luts/chill.cube
TITLE "Aftermovie Chill"
LUT_3D_SIZE 17
DOMAIN_MIN 0.0 0.0 0.0
DOMAIN_MAX 1.0 1.0 1.0
0.063414 0.040563 0.022126
0.105740 0.043712 0.025237
0.150498 0.046868 0.028353
0.198023 0.050034 0.031474
0.248367 0.053209 0.034602
0.301340 0.056393 0.037736
0.356561 0.059587 0.040878
0.413492 0.062792 0.044028
0.471490 0.066008 0.047185
0.529844 0.069234 0.050352
0.587825 0.072473 0.053528
0.644724 0.075723 0.056713
0.699898 0.078986 0.059908
0.752816 0.082261 0.063114
0.803096 0.085549 0.066331
0.850556 0.088850 0.069558
0.895254 0.092165 0.072798
0.069809 0.085443 0.028303
0.112476 0.088744 0.031424
0.157647 0.092059 0.034552
0.205610 0.095387 0.037686
0.256377 0.098730 0.040828
0.309727 0.102087 0.043977
0.365249 0.105458 0.047135
0.422389 0.108845 0.050301
0.480489 0.112246 0.053477
0.538834 0.115663 0.056662
0.596693 0.119095 0.059857
0.653365 0.122543 0.063063
0.708223 0.126007 0.066279
0.760754 0.129486 0.069507
0.810605 0.132982 0.072746
0.857629 0.136495 0.075998
0.901923 0.140024 0.079261
0.076250 0.132870 0.034502
0.119272 0.136382 0.037637
0.164863 0.139910 0.040778
0.213264 0.143455 0.043927
0.264449 0.147016 0.047085
0.318165 0.150595 0.050251
0.373977 0.154190 0.053426
0.431310 0.157802 0.056611
0.489495 0.161431 0.059806
0.547812 0.165077 0.063012
0.605532 0.168741 0.066228
0.661963 0.172421 0.069456
0.716492 0.176119 0.072695
0.768627 0.179834 0.075946
0.818046 0.183566 0.079209
0.864636 0.187316 0.082485
0.908536 0.191083 0.085775
0.082739 0.183447 0.040728
0.126130 0.187196 0.043877
0.172146 0.190962 0.047035
0.220985 0.194745 0.050201
0.272582 0.198546 0.053376
0.326654 0.202363 0.056561
0.382741 0.206198 0.059755
0.440251 0.210050 0.062961
0.498504 0.213919 0.066177
0.556776 0.217805 0.069404
0.614341 0.221708 0.072643
0.670516 0.225627 0.075894
0.724703 0.229564 0.079157
0.776436 0.233516 0.082433
0.825420 0.237486 0.085722
0.871578 0.241471 0.089024
0.915094 0.245473 0.092340
0.089280 0.237358 0.046984
0.133051 0.241343 0.050150
0.179497 0.245345 0.053325
0.228772 0.249362 0.056510
0.280774 0.253396 0.059705
0.335191 0.257445 0.062910
0.391538 0.261510 0.066126
0.449209 0.265590 0.069353
0.507513 0.269686 0.072592
0.565723 0.273797 0.075842
0.623116 0.277923 0.079105
0.679021 0.282064 0.082381
0.732856 0.286219 0.085670
0.784179 0.290389 0.088972
0.832726 0.294573 0.092287
0.878457 0.298772 0.095616
0.921600 0.302983 0.098960
0.095875 0.294439 0.053275
0.140037 0.298637 0.056459
0.186916 0.302848 0.059654
0.236624 0.307073 0.062859
0.289024 0.311312 0.066074
0.343774 0.315563 0.069301
0.400368 0.319828 0.072540
0.458183 0.324105 0.075791
0.516520 0.328394 0.079053
0.574650 0.332696 0.082329
0.631856 0.337010 0.085617
0.687476 0.341335 0.088919
0.740949 0.345671 0.092234
0.791855 0.350019 0.095563
0.839964 0.354377 0.098907
0.885274 0.358746 0.102264
0.928057 0.363126 0.105637
0.102525 0.354238 0.059603
0.147088 0.358606 0.062808
0.194403 0.362985 0.066023
0.244541 0.367374 0.069250
0.297331 0.371773 0.072488
0.352401 0.376181 0.075739
0.409227 0.380598 0.079001
0.467169 0.385024 0.082277
0.525522 0.389458 0.085565
0.583556 0.393901 0.088866
0.640558 0.398351 0.092181
0.695880 0.402809 0.095510
0.748980 0.407275 0.098853
0.799464 0.411747 0.102211
0.847135 0.416226 0.105583
0.892030 0.420711 0.108970
0.934467 0.425202 0.112372
0.109233 0.416082 0.065972
0.154204 0.420567 0.069199
0.201957 0.425058 0.072437
0.252521 0.429554 0.075687
0.305692 0.434056 0.078949
0.361071 0.438563 0.082224
0.418112 0.443075 0.085512
0.476165 0.447590 0.088814
0.534517 0.452110 0.092129
0.592436 0.456634 0.095457
0.649219 0.461160 0.098800
0.704231 0.465690 0.102157
0.756948 0.470222 0.105529
0.807006 0.474757 0.108916
0.854239 0.479293 0.112318
0.898726 0.483831 0.115735
0.940834 0.488370 0.119167
0.116000 0.479148 0.072385
0.161388 0.483686 0.075635
0.209579 0.488225 0.078897
0.260564 0.492765 0.082172
0.314105 0.497306 0.085460
0.369780 0.501846 0.088761
0.427022 0.506387 0.092076
0.485168 0.510927 0.095404
0.543501 0.515467 0.098747
0.601290 0.520005 0.102104
0.657839 0.524542 0.105475
0.712527 0.529076 0.108862
0.764853 0.533609 0.112263
0.814480 0.538139 0.115680
0.861278 0.542666 0.119112
0.905366 0.547190 0.122560
0.947159 0.551711 0.126024
0.122828 0.542521 0.078845
0.168639 0.547045 0.082120
0.217268 0.551566 0.085408
0.268668 0.556082 0.088709
0.322570 0.560595 0.092023
0.378526 0.565102 0.095351
0.435953 0.569605 0.098694
0.494176 0.574103 0.102050
0.552472 0.578595 0.105422
0.610113 0.583081 0.108808
0.666413 0.587561 0.112209
0.720766 0.592034 0.115626
0.772693 0.596500 0.119058
0.821886 0.600959 0.122505
0.868251 0.605411 0.125969
0.911950 0.609855 0.129449
0.953447 0.614291 0.132945
0.129719 0.605269 0.085355
0.175957 0.609713 0.088656
0.225023 0.614149 0.091970
0.276832 0.618576 0.095298
0.331084 0.622995 0.098640
0.387308 0.627405 0.101997
0.444903 0.631805 0.105368
0.503185 0.636196 0.108754
0.561427 0.640577 0.112155
0.618905 0.644947 0.115571
0.674941 0.649307 0.119003
0.728947 0.653657 0.122451
0.780468 0.657995 0.125914
0.829225 0.662322 0.129393
0.875160 0.666637 0.132889
0.918481 0.670941 0.136401
0.959701 0.675232 0.139929
0.136673 0.666499 0.091917
0.183344 0.670803 0.095245
0.232844 0.675095 0.098587
0.285054 0.679374 0.101943
0.339645 0.683641 0.105314
0.396123 0.687895 0.108700
0.453870 0.692136 0.112101
0.512194 0.696364 0.115517
0.570364 0.700578 0.118948
0.627662 0.704778 0.122396
0.683421 0.708964 0.125859
0.737069 0.713136 0.129338
0.788176 0.717294 0.132833
0.836495 0.721437 0.136345
0.882007 0.725565 0.139873
0.924961 0.729679 0.143417
0.965925 0.733777 0.146979
0.143692 0.725433 0.098534
0.190798 0.729547 0.101890
0.240730 0.733646 0.105260
0.293334 0.737729 0.108646
0.348252 0.741797 0.112046
0.404968 0.745849 0.115462
0.462851 0.749886 0.118894
0.521198 0.753906 0.122341
0.579281 0.757911 0.125803
0.636383 0.761899 0.129282
0.691849 0.765870 0.132777
0.745129 0.769826 0.136289
0.795817 0.773765 0.139816
0.843698 0.777687 0.143361
0.888792 0.781592 0.146922
0.931394 0.785481 0.150500
0.972122 0.789352 0.154094
0.150777 0.781467 0.105207
0.198320 0.785356 0.108592
0.248680 0.789228 0.111992
0.301668 0.793084 0.115408
0.356901 0.796922 0.118839
0.413841 0.800743 0.122286
0.471842 0.804546 0.125748
0.530197 0.808333 0.129227
0.588173 0.812102 0.132722
0.645064 0.815855 0.136233
0.700226 0.819589 0.139760
0.753128 0.823307 0.143304
0.803392 0.827008 0.146865
0.850835 0.830691 0.150443
0.895517 0.834357 0.154037
0.937781 0.838006 0.157649
0.978298 0.841638 0.161277
0.157929 0.834240 0.111938
0.205909 0.837889 0.115353
0.256693 0.841521 0.118784
0.310057 0.845137 0.122231
0.365591 0.848735 0.125693
0.422739 0.852316 0.129171
0.480843 0.855881 0.132666
0.539186 0.859429 0.136177
0.597040 0.862960 0.139704
0.653703 0.866475 0.143248
0.708548 0.869974 0.146808
0.761064 0.873456 0.150386
0.810898 0.876922 0.153980
0.857905 0.880373 0.157591
0.902183 0.883807 0.161219
0.944125 0.887226 0.164864
0.984456 0.890630 0.168527
0.165147 0.883697 0.118730
0.213566 0.887117 0.122176
0.264767 0.890521 0.125638
0.318497 0.893910 0.129116
0.374320 0.897285 0.132610
0.431660 0.900644 0.136121
0.489848 0.903989 0.139648
0.548164 0.907320 0.143191
0.605879 0.910638 0.146752
0.662300 0.913941 0.150329
0.716815 0.917231 0.153923
0.768935 0.920508 0.157533
0.818337 0.923773 0.161161
0.864909 0.927025 0.164806
0.908794 0.930265 0.168468
0.950431 0.933494 0.172148
0.990601 0.936711 0.175844
0.172433 0.930162 0.125583
0.221289 0.933391 0.129061
0.272903 0.936608 0.132555
0.326988 0.939815 0.136065
0.383085 0.943011 0.139592
0.440602 0.946197 0.143135
0.498857 0.949374 0.146695
0.557127 0.952541 0.150272
0.614686 0.955699 0.153865
0.670850 0.958850 0.157476
0.725024 0.961992 0.161104
0.776741 0.965127 0.164748
0.825708 0.968256 0.168410
0.871849 0.971378 0.172089
0.915350 0.974494 0.175785
0.956701 0.977605 0.179499
0.996738 0.980712 0.183229
0.064665 0.041788 0.061508
0.107057 0.044940 0.064719
0.151896 0.048100 0.067941
0.199507 0.051269 0.071175
0.249934 0.054447 0.074420
0.302982 0.057636 0.077678
0.358263 0.060834 0.080948
0.415236 0.064043 0.084231
0.473255 0.067263 0.087527
0.531609 0.070494 0.090837
0.589567 0.073737 0.094160
0.646423 0.076992 0.097497
0.701536 0.080259 0.100849
0.754378 0.083540 0.104215
0.804575 0.086833 0.107596
0.851949 0.090140 0.110991
0.896567 0.093460 0.114403
0.071069 0.086727 0.067890
0.113805 0.090033 0.071123
0.159058 0.093353 0.074369
0.207107 0.096687 0.077626
0.257956 0.100035 0.080896
0.311379 0.103398 0.084179
0.366959 0.106775 0.087474
0.424138 0.110167 0.090784
0.482256 0.113575 0.094107
0.540597 0.116997 0.097444
0.598430 0.120436 0.100795
0.655056 0.123890 0.104161
0.709850 0.127360 0.107542
0.762304 0.130846 0.110937
0.812071 0.134348 0.114348
0.859009 0.137867 0.117774
0.903225 0.141402 0.121216
0.077520 0.134236 0.074317
0.120613 0.137754 0.077574
0.166287 0.141288 0.080844
0.214774 0.144840 0.084126
0.266041 0.148408 0.087422
0.319827 0.151993 0.090731
0.375694 0.155594 0.094054
0.433063 0.159213 0.097391
0.491263 0.162849 0.100742
0.549572 0.166502 0.104107
0.607264 0.170172 0.107488
0.663645 0.173859 0.110883
0.718108 0.177564 0.114294
0.770165 0.181285 0.117720
0.819499 0.185024 0.121161
0.866003 0.188781 0.124619
0.909827 0.192554 0.128092
0.084019 0.184904 0.080792
0.127484 0.188660 0.084074
0.173583 0.192433 0.087369
0.222508 0.196223 0.090678
0.274185 0.200030 0.094001
0.328326 0.203855 0.097338
0.384465 0.207696 0.100688
0.442007 0.211555 0.104054
0.500272 0.215430 0.107434
0.558533 0.219323 0.110829
0.616066 0.223232 0.114239
0.672189 0.227158 0.117665
0.726308 0.231101 0.121107
0.777961 0.235060 0.124564
0.826859 0.239036 0.128037
0.872933 0.243028 0.131526
0.916375 0.247036 0.135032
0.090570 0.238908 0.087317
0.134417 0.242899 0.090626
0.180948 0.246907 0.093948
0.230308 0.250931 0.097284
0.282389 0.254970 0.100635
0.336872 0.259026 0.104000
0.393269 0.263097 0.107380
0.450969 0.267183 0.110775
0.509281 0.271285 0.114185
0.567477 0.275402 0.117611
0.624834 0.279534 0.121052
0.680684 0.283680 0.124509
0.734449 0.287841 0.127981
0.785691 0.292017 0.131470
0.834152 0.296206 0.134976
0.879800 0.300410 0.138497
0.922871 0.304627 0.142036
0.097175 0.296072 0.093895
0.141415 0.300275 0.097231
0.188380 0.304492 0.100582
0.238173 0.308722 0.103947
0.290650 0.312966 0.107326
0.345464 0.317222 0.110721
0.402104 0.321492 0.114131
0.459945 0.325774 0.117556
0.518287 0.330068 0.120997
0.576400 0.334374 0.124454
0.633567 0.338692 0.127926
0.689130 0.343022 0.131415
0.742530 0.347363 0.134920
0.793354 0.351715 0.138441
0.841377 0.356077 0.141979
0.886604 0.360450 0.145534
0.929319 0.364834 0.149105
0.103837 0.355937 0.100528
0.148479 0.360310 0.103893
0.195880 0.364693 0.107272
0.246102 0.369086 0.110667
0.298967 0.373488 0.114076
0.354099 0.377900 0.117501
0.410968 0.382320 0.120942
0.468934 0.386749 0.124398
0.527288 0.391187 0.127871
0.585300 0.395633 0.131359
0.642261 0.400086 0.134864
0.697523 0.404547 0.138385
0.750549 0.409015 0.141923
0.800950 0.413490 0.145477
0.848534 0.417971 0.149048
0.893348 0.422459 0.152636
0.935720 0.426952 0.156241
0.110556 0.417828 0.107218
0.155609 0.422315 0.110613
0.203448 0.426808 0.114022
0.254095 0.431307 0.117447
0.307339 0.435811 0.120887
0.362777 0.440319 0.124343
0.419859 0.444832 0.127815
0.477931 0.449350 0.131304
0.536281 0.453871 0.134808
0.594176 0.458396 0.138329
0.650914 0.462924 0.141866
0.705863 0.467454 0.145420
0.758505 0.471987 0.148991
0.808478 0.476523 0.152579
0.855626 0.481060 0.156183
0.900034 0.485598 0.159805
0.942078 0.490138 0.163443
0.117335 0.480914 0.113968
0.162806 0.485453 0.117392
0.211083 0.489992 0.120832
0.262150 0.494533 0.124288
0.315763 0.499074 0.127760
0.371493 0.503614 0.131248
0.428773 0.508155 0.134752
0.486936 0.512695 0.138273
0.545262 0.517234 0.141810
0.603024 0.521772 0.145364
0.659525 0.526308 0.148934
0.714148 0.530842 0.152522
0.766397 0.535373 0.156126
0.815939 0.539902 0.159747
0.862651 0.544428 0.163385
0.906662 0.548951 0.167041
0.948396 0.553470 0.170713
0.124175 0.544283 0.120778
0.170070 0.548806 0.124233
0.218785 0.553325 0.127705
0.270265 0.557840 0.131192
0.324237 0.562350 0.134696
0.380247 0.566856 0.138217
0.437708 0.571357 0.141754
0.495944 0.575852 0.145307
0.554231 0.580342 0.148877
0.611841 0.584826 0.152464
0.668091 0.589303 0.156068
0.722376 0.593774 0.159689
0.774224 0.598237 0.163327
0.823332 0.602694 0.166982
0.869612 0.607142 0.170655
0.913236 0.611583 0.174344
0.954677 0.616016 0.178051
0.131078 0.607000 0.127649
0.177402 0.611441 0.131137
0.226553 0.615874 0.134641
0.278441 0.620298 0.138161
0.332761 0.624713 0.141697
0.389035 0.629119 0.145250
0.446662 0.633516 0.148820
0.504953 0.637903 0.152407
0.563183 0.642280 0.156011
0.620626 0.646646 0.159632
0.676609 0.651002 0.163269
0.730546 0.655347 0.166924
0.781986 0.659681 0.170596
0.830657 0.664004 0.174286
0.876509 0.668314 0.177992
0.919757 0.672613 0.181716
0.960925 0.676900 0.185457
0.138046 0.668176 0.134585
0.184801 0.672476 0.138104
0.234386 0.676763 0.141641
0.286675 0.681037 0.145194
0.341331 0.685299 0.148763
0.397856 0.689548 0.152350
0.455632 0.693784 0.155953
0.513961 0.698006 0.159574
0.572116 0.702215 0.163211
0.629377 0.706410 0.166866
0.685079 0.710590 0.170538
0.738655 0.714757 0.174227
0.789681 0.718909 0.177933
0.837914 0.723046 0.181656
0.883343 0.727169 0.185397
0.926227 0.731276 0.189155
0.967143 0.735369 0.192930
0.145078 0.727037 0.141584
0.192269 0.731145 0.145137
0.242285 0.735238 0.148707
0.294965 0.739315 0.152293
0.349946 0.743377 0.155896
0.406707 0.747423 0.159516
0.464615 0.751453 0.163153
0.522965 0.755467 0.166808
0.581028 0.759465 0.170479
0.638089 0.763447 0.174168
0.693498 0.767413 0.177874
0.746704 0.771362 0.181597
0.797309 0.775294 0.185337
0.845104 0.779209 0.189095
0.890116 0.783108 0.192870
0.932651 0.786990 0.196662
0.973336 0.790855 0.200471
0.152176 0.782984 0.148650
0.199804 0.786866 0.152236
0.250247 0.790732 0.155839
0.303310 0.794580 0.159458
0.358603 0.798411 0.163095
0.415585 0.802226 0.166749
0.473608 0.806023 0.170421
0.531962 0.809803 0.174109
0.589916 0.813565 0.177815
0.646763 0.817311 0.181538
0.701864 0.821039 0.185278
0.754691 0.824750 0.189035
0.804870 0.828444 0.192810
0.852227 0.832120 0.196602
0.896829 0.835780 0.200411
0.939029 0.839422 0.204237
0.979508 0.843047 0.208080
0.159340 0.835663 0.155781
0.207406 0.839305 0.159401
0.258272 0.842931 0.163037
0.311709 0.846540 0.166691
0.367301 0.850132 0.170362
0.424488 0.853706 0.174050
0.482610 0.857265 0.177756
0.540949 0.860806 0.181478
0.598777 0.864331 0.185218
0.655394 0.867839 0.188975
0.710175 0.871332 0.192750
0.762613 0.874808 0.196541
0.812363 0.878268 0.200350
0.859284 0.881712 0.204176
0.903485 0.885140 0.208019
0.945366 0.888553 0.211879
0.985663 0.891951 0.215756
0.166572 0.885031 0.162979
0.215076 0.888444 0.166633
0.266359 0.891843 0.170304
0.320160 0.895226 0.173992
0.376037 0.898595 0.177697
0.433413 0.901949 0.181419
0.491616 0.905288 0.185159
0.549924 0.908614 0.188915
0.607609 0.911926 0.192689
0.663981 0.915224 0.196481
0.718431 0.918509 0.200289
0.770472 0.921781 0.204115
0.819789 0.925041 0.207957
0.866276 0.928288 0.211817
0.910085 0.931524 0.215694
0.951664 0.934748 0.219587
0.991806 0.937961 0.223498
0.173871 0.931420 0.170245
0.222813 0.934645 0.173933
0.274506 0.937858 0.177638
0.328660 0.941061 0.181360
0.384809 0.944253 0.185099
0.442359 0.947435 0.188855
0.500625 0.950608 0.192629
0.558884 0.953772 0.196420
0.616410 0.956927 0.200228
0.672523 0.960074 0.204054
0.726628 0.963214 0.207896
0.778265 0.966346 0.211756
0.827146 0.969472 0.215632
0.873204 0.972592 0.219525
0.916631 0.975706 0.223436
0.957927 0.978815 0.227362
0.997942 0.981920 0.231306
0.065918 0.043014 0.102528
0.108377 0.046169 0.105901
0.153296 0.049333 0.109290
0.200993 0.052506 0.112693
0.251503 0.055688 0.116112
0.304626 0.058880 0.119546
0.359966 0.062082 0.122996
0.416981 0.065295 0.126462
0.475021 0.068520 0.129944
0.533374 0.071755 0.133442
0.591309 0.075003 0.136956
0.648121 0.078263 0.140487
0.703172 0.081535 0.144035
0.755939 0.084820 0.147599
0.806051 0.088119 0.151180
0.853340 0.091431 0.154778
0.897878 0.094757 0.158393
0.072331 0.088013 0.109236
0.115136 0.091324 0.112639
0.160471 0.094650 0.116057
0.208606 0.097989 0.119491
0.259538 0.101343 0.122941
0.313033 0.104711 0.126407
0.368671 0.108094 0.129888
0.425888 0.111492 0.133386
0.484024 0.114906 0.136900
0.542359 0.118334 0.140431
0.600166 0.121779 0.143978
0.656745 0.125239 0.147542
0.711475 0.128715 0.151123
0.763852 0.132208 0.154721
0.813534 0.135716 0.158335
0.860387 0.139241 0.161967
0.904525 0.142783 0.165616
0.078791 0.135604 0.116003
0.121957 0.139128 0.119437
0.167713 0.142669 0.122886
0.216287 0.146227 0.126351
0.267634 0.149802 0.129833
0.321491 0.153393 0.133330
0.377412 0.157001 0.136844
0.434817 0.160627 0.140375
0.493031 0.164269 0.143922
0.551332 0.167929 0.147485
0.608994 0.171606 0.151066
0.665326 0.175300 0.154663
0.719722 0.179011 0.158278
0.771700 0.182739 0.161909
0.820949 0.186485 0.165558
0.867368 0.190248 0.169223
0.911116 0.194028 0.172906
0.085301 0.186365 0.122831
0.128839 0.190127 0.126296
0.175023 0.193907 0.129777
0.224034 0.197703 0.133275
0.275791 0.201517 0.136788
0.329999 0.205348 0.140318
0.386190 0.209197 0.143865
0.443765 0.213062 0.147429
0.502040 0.216944 0.151009
0.560290 0.220843 0.154606
0.617789 0.224759 0.158220
0.673860 0.228691 0.161851
0.727910 0.232640 0.165499
0.779483 0.236606 0.169165
0.828296 0.240588 0.172847
0.874286 0.244586 0.176547
0.917654 0.248601 0.180264
0.091862 0.240460 0.129722
0.135786 0.244458 0.133219
0.182401 0.248472 0.136732
0.231846 0.252502 0.140262
0.284006 0.256548 0.143809
0.338554 0.260609 0.147372
0.395000 0.264686 0.150952
0.452730 0.268779 0.154549
0.511049 0.272886 0.158162
0.569229 0.277009 0.161793
0.626551 0.281147 0.165441
0.682346 0.285299 0.169106
0.736040 0.289466 0.172789
0.787200 0.293647 0.176488
0.835575 0.297842 0.180205
0.881140 0.302050 0.183939
0.924140 0.306273 0.187690
0.098478 0.297707 0.136676
0.142797 0.301915 0.140206
0.189846 0.306137 0.143752
0.239724 0.310373 0.147315
0.292278 0.314622 0.150895
0.347155 0.318883 0.154491
0.403842 0.323158 0.158105
0.461709 0.327444 0.161735
0.520054 0.331743 0.165383
0.578148 0.336054 0.169048
0.635276 0.340377 0.172730
0.690781 0.344711 0.176429
0.744108 0.349056 0.180146
0.794850 0.353412 0.183879
0.842787 0.357779 0.187630
0.887933 0.362156 0.191398
0.930579 0.366543 0.195184
0.105151 0.357639 0.143696
0.149873 0.362016 0.147258
0.197360 0.366402 0.150838
0.247666 0.370799 0.154434
0.300606 0.375205 0.158047
0.355799 0.379620 0.161678
0.412711 0.384044 0.165325
0.470699 0.388476 0.168989
0.529054 0.392917 0.172671
0.587044 0.397366 0.176370
0.643962 0.401822 0.180086
0.699164 0.406286 0.183820
0.752115 0.410757 0.187570
0.802433 0.415234 0.191338
0.849931 0.419718 0.195123
0.894665 0.424208 0.198926
0.936971 0.428703 0.202745
0.111881 0.419574 0.150781
0.157016 0.424064 0.154377
0.204941 0.428559 0.157990
0.255671 0.433060 0.161620
0.308988 0.437566 0.165267
0.364484 0.442076 0.168931
0.421607 0.446591 0.172613
0.479698 0.451110 0.176311
0.538044 0.455632 0.180027
0.595915 0.460158 0.183760
0.652608 0.464687 0.187511
0.707494 0.469219 0.191278
0.760058 0.473753 0.195063
0.809948 0.478289 0.198865
0.857010 0.482827 0.202684
0.901339 0.487366 0.206521
0.943321 0.491906 0.210374
0.118672 0.482681 0.157932
0.164226 0.487220 0.161562
0.212589 0.491760 0.165209
0.263738 0.496301 0.168873
0.317422 0.500842 0.172554
0.373208 0.505383 0.176252
0.430525 0.509923 0.179968
0.488703 0.514463 0.183701
0.547024 0.519001 0.187451
0.604757 0.523538 0.191218
0.661210 0.528073 0.195003
0.715767 0.532607 0.198805
0.767938 0.537137 0.202623
0.817395 0.541665 0.206459
0.864022 0.546190 0.210313
0.907957 0.550711 0.214183
0.949631 0.555228 0.218070
0.125525 0.546045 0.165151
0.171503 0.550566 0.168814
0.220304 0.555083 0.172495
0.271865 0.559597 0.176193
0.325906 0.564105 0.179909
0.381969 0.568609 0.183641
0.439464 0.573108 0.187391
0.497712 0.577601 0.191158
0.555989 0.582089 0.194942
0.613568 0.586570 0.198744
0.669766 0.591045 0.202563
0.723984 0.595513 0.206398
0.775752 0.599974 0.210251
0.824775 0.604427 0.214121
0.870971 0.608872 0.218008
0.914520 0.613310 0.221911
0.955905 0.617739 0.225832
0.132441 0.608730 0.172436
0.178848 0.613168 0.176134
0.228085 0.617597 0.179849
0.280052 0.622018 0.183582
0.334439 0.626430 0.187331
0.390764 0.630832 0.191098
0.448421 0.635225 0.194882
0.506721 0.639608 0.198683
0.564937 0.643981 0.202502
0.622347 0.648344 0.206337
0.678275 0.652695 0.210190
0.732142 0.657036 0.214059
0.783501 0.661366 0.217946
0.832086 0.665684 0.221849
0.877855 0.669990 0.225769
0.921031 0.674284 0.229706
0.962147 0.678566 0.233660
0.139420 0.669852 0.179790
0.186261 0.674146 0.183522
0.235931 0.678429 0.187272
0.288297 0.682698 0.191038
0.343018 0.686955 0.194822
0.399591 0.691199 0.198623
0.457394 0.695429 0.202441
0.515729 0.699647 0.206276
0.573867 0.703850 0.210128
0.631090 0.708039 0.213998
0.686735 0.712214 0.217884
0.740240 0.716375 0.221787
0.791183 0.720522 0.225707
0.839330 0.724653 0.229643
0.884677 0.728770 0.233597
0.927492 0.732872 0.237566
0.968360 0.736958 0.241552
0.146465 0.728638 0.187212
0.193742 0.732740 0.190978
0.243843 0.736827 0.194761
0.296599 0.740898 0.198562
0.351641 0.744954 0.202380
0.408447 0.748994 0.206215
0.466379 0.753018 0.210067
0.524731 0.757026 0.213936
0.582774 0.761018 0.217822
0.639795 0.764993 0.221725
0.695144 0.768952 0.225644
0.748276 0.772895 0.229581
0.798798 0.776821 0.233534
0.846507 0.780730 0.237503
0.891438 0.784622 0.241489
0.933906 0.788497 0.245491
0.974549 0.792355 0.249509
0.153576 0.784497 0.194701
0.201291 0.788373 0.198502
0.251817 0.792232 0.202319
0.304955 0.796074 0.206154
0.360307 0.799899 0.210006
0.417330 0.803706 0.213874
0.475374 0.807497 0.217760
0.533727 0.811270 0.221663
0.591657 0.815026 0.225582
0.648460 0.818765 0.229518
0.703499 0.822486 0.233471
0.756250 0.826190 0.237440
0.806346 0.829877 0.241425
0.853618 0.833547 0.245427
0.898140 0.837200 0.249445
0.940276 0.840836 0.253478
0.980717 0.844454 0.257528
0.160754 0.837083 0.202258
0.208906 0.840719 0.206093
0.259855 0.844338 0.209944
0.313364 0.847940 0.213813
0.369013 0.851526 0.217698
0.426238 0.855094 0.221600
0.484377 0.858645 0.225519
0.542712 0.862180 0.229455
0.600513 0.865699 0.233408
0.657083 0.869201 0.237376
0.711800 0.872687 0.241362
0.764161 0.876157 0.245363
0.813826 0.879611 0.249381
0.860662 0.883049 0.253414
0.904785 0.886471 0.257463
0.946605 0.889878 0.261528
0.986869 0.893270 0.265609
0.167999 0.886362 0.209883
0.216589 0.889769 0.213751
0.267953 0.893162 0.217636
0.321824 0.896539 0.221538
0.377756 0.899902 0.225457
0.435167 0.903251 0.229392
0.493384 0.906585 0.233345
0.551684 0.909905 0.237313
0.609339 0.913211 0.241298
0.665661 0.916505 0.245299
0.720044 0.919785 0.249317
0.772007 0.923052 0.253350
0.821238 0.926307 0.257399
0.867641 0.929550 0.261464
0.911374 0.932781 0.265544
0.952896 0.936000 0.269640
0.993011 0.939209 0.273750
0.175311 0.932677 0.217574
0.224339 0.935897 0.221476
0.276112 0.939106 0.225395
0.330334 0.942305 0.229330
0.386535 0.945493 0.233282
0.444116 0.948672 0.237250
0.502394 0.951841 0.241235
0.560641 0.955001 0.245235
0.618134 0.958153 0.249253
0.674194 0.961298 0.253286
0.728230 0.964434 0.257334
0.779787 0.967564 0.261399
0.828582 0.970687 0.265479
0.874556 0.973805 0.269574
0.917909 0.976917 0.273685
0.959153 0.980025 0.277811
0.999146 0.983128 0.281951
0.067173 0.044242 0.145813
0.109698 0.047400 0.149385
0.154699 0.050567 0.152975
0.202482 0.053744 0.156581
0.253075 0.056929 0.160204
0.306272 0.060125 0.163845
0.361672 0.063332 0.167503
0.418727 0.066549 0.171177
0.476787 0.069778 0.174869
0.535138 0.073018 0.178578
0.593049 0.076271 0.182305
0.649817 0.079535 0.186049
0.704806 0.082813 0.189809
0.757497 0.086103 0.193588
0.807525 0.089407 0.197383
0.854728 0.092724 0.201196
0.899187 0.096055 0.205025
0.073595 0.089301 0.152917
