assets/luts/chill.cube
TITLE "Aftermovie Chill"
LUT_3D_SIZE 9
DOMAIN_MIN 0.0 0.0 0.0
DOMAIN_MAX 1.0 1.0 1.0
0.063414 0.040563 0.022126
0.150498 0.046868 0.028353
0.248367 0.053209 0.034602
0.356561 0.059587 0.040878
0.471490 0.066008 0.047185
0.587825 0.072473 0.053528
0.699898 0.078986 0.059908
0.803096 0.085549 0.066331
0.895254 0.092165 0.072798
0.076250 0.132870 0.034502
0.164863 0.139910 0.040778
0.264449 0.147016 0.047085
0.373977 0.154190 0.053426
0.489495 0.161431 0.059806
0.605532 0.168741 0.066228
0.716492 0.176119 0.072695
0.818046 0.183566 0.079209
0.908536 0.191083 0.085775
0.089280 0.237358 0.046984
0.179497 0.245345 0.053325
0.280774 0.253396 0.059705
0.391538 0.261510 0.066126
0.507513 0.269686 0.072592
0.623116 0.277923 0.079105
0.732856 0.286219 0.085670
0.832726 0.294573 0.092287
0.921600 0.302983 0.098960
0.102525 0.354238 0.059603
0.194403 0.362985 0.066023
0.297331 0.371773 0.072488
0.409227 0.380598 0.079001
0.525522 0.389458 0.085565
0.640558 0.398351 0.092181
0.748980 0.407275 0.098853
0.847135 0.416226 0.105583
0.934467 0.425202 0.112372
0.116000 0.479148 0.072385
0.209579 0.488225 0.078897
0.314105 0.497306 0.085460
0.427022 0.506387 0.092076
0.543501 0.515467 0.098747
0.657839 0.524542 0.105475
0.764853 0.533609 0.112263
0.861278 0.542666 0.119112
0.947159 0.551711 0.126024
0.129719 0.605269 0.085355
0.225023 0.614149 0.091970
0.331084 0.622995 0.098640
0.444903 0.631805 0.105368
0.561427 0.640577 0.112155
0.674941 0.649307 0.119003
0.780468 0.657995 0.125914
0.875160 0.666637 0.132889
0.959701 0.675232 0.139929
0.143692 0.725433 0.098534
0.240730 0.733646 0.105260
0.348252 0.741797 0.112046
0.462851 0.749886 0.118894
0.579281 0.757911 0.125803
0.691849 0.765870 0.132777
0.795817 0.773765 0.139816
0.888792 0.781592 0.146922
0.972122 0.789352 0.154094
0.157929 0.834240 0.111938
0.256693 0.841521 0.118784
0.365591 0.848735 0.125693
0.480843 0.855881 0.132666
0.597040 0.862960 0.139704
0.708548 0.869974 0.146808
0.810898 0.876922 0.153980
0.902183 0.883807 0.161219
0.984456 0.890630 0.168527
0.172433 0.930162 0.125583
0.272903 0.936608 0.132555
0.383085 0.943011 0.139592
0.498857 0.949374 0.146695
0.614686 0.955699 0.153865
0.725024 0.961992 0.161104
0.825708 0.968256 0.168410
0.915350 0.974494 0.175785
0.996738 0.980712 0.183229
0.065918 0.043014 0.102528
0.153296 0.049333 0.109290
0.251503 0.055688 0.116112
0.359966 0.062082 0.122996
0.475021 0.068520 0.129944
0.591309 0.075003 0.136956
0.703172 0.081535 0.144035
0.806051 0.088119 0.151180
0.897878 0.094757 0.158393
0.078791 0.135604 0.116003
0.167713 0.142669 0.122886
0.267634 0.149802 0.129833
0.377412 0.157001 0.136844
0.493031 0.164269 0.143922
0.608994 0.171606 0.151066
0.719722 0.179011 0.158278
0.820949 0.186485 0.165558
0.911116 0.194028 0.172906
0.091862 0.240460 0.129722
0.182401 0.248472 0.136732
0.284006 0.256548 0.143809
0.395000 0.264686 0.150952
0.511049 0.272886 0.158162
0.626551 0.281147 0.165441
0.736040 0.289466 0.172789
0.835575 0.297842 0.180205
0.924140 0.306273 0.187690
0.105151 0.357639 0.143696
0.197360 0.366402 0.150838
0.300606 0.375205 0.158047
0.412711 0.384044 0.165325
0.529054 0.392917 0.172671
0.643962 0.401822 0.180086
0.752115 0.410757 0.187570
0.849931 0.419718 0.195123
0.936971 0.428703 0.202745
0.118672 0.482681 0.157932
0.212589 0.491760 0.165209
0.317422 0.500842 0.172554
0.430525 0.509923 0.179968
0.547024 0.519001 0.187451
0.661210 0.528073 0.195003
0.767938 0.537137 0.202623
0.864022 0.546190 0.210313
0.949631 0.555228 0.218070
0.132441 0.608730 0.172436
0.228085 0.617597 0.179849
0.334439 0.626430 0.187331
0.448421 0.635225 0.194882
0.564937 0.643981 0.202502
0.678275 0.652695 0.210190
0.783501 0.661366 0.217946
0.877855 0.669990 0.225769
0.962147 0.678566 0.233660
0.146465 0.728638 0.187212
0.243843 0.736827 0.194761
0.351641 0.744954 0.202380
0.466379 0.753018 0.210067
0.582774 0.761018 0.217822
0.695144 0.768952 0.225644
0.798798 0.776821 0.233534
0.891438 0.784622 0.241489
0.974549 0.792355 0.249509
0.160754 0.837083 0.202258
0.259855 0.844338 0.209944
0.369013 0.851526 0.217698
0.484377 0.858645 0.225519
0.600513 0.865699 0.233408
0.711800 0.872687 0.241362
0.813826 0.879611 0.249381
0.904785 0.886471 0.257463
0.986869 0.893270 0.265609
0.175311 0.932677 0.217574
0.276112 0.939106 0.225395
0.386535 0.945493 0.233282
0.502394 0.951841 0.241235
0.618134 0.958153 0.249253
0.728230 0.964434 0.257334
0.828582 0.970687 0.265479
0.917909 0.976917 0.273685
0.999146 0.983128 0.281951
0.068430 0.045471 0.191694
0.156104 0.051803 0.199285
0.254650 0.058173 0.206944
0.363378 0.064583 0.214672
0.478554 0.071038 0.222467
0.594789 0.077540 0.230329
0.706438 0.084092 0.238257
0.808996 0.090697 0.246251
0.900494 0.097356 0.254309
0.081340 0.138347 0.206822
0.170575 0.145439 0.214548
0.270829 0.152597 0.222342
0.380854 0.159823 0.230203
0.496567 0.167118 0.238131
0.612450 0.174481 0.246124
0.722943 0.181913 0.254181
0.823840 0.189414 0.262301
0.913688 0.196984 0.270483
0.094452 0.243572 0.222218
0.185315 0.251609 0.230078
0.287246 0.259709 0.238004
0.398467 0.267872 0.245996
0.514584 0.276096 0.254052
0.629980 0.284379 0.262171
0.739214 0.292720 0.270353
0.838413 0.301118 0.278595
0.926673 0.309571 0.286896
0.107785 0.361046 0.237878
0.200327 0.369825 0.245868
0.303890 0.378642 0.253923
0.416200 0.387495 0.262042
0.532584 0.396381 0.270222
0.647361 0.405298 0.278463
0.755240 0.414243 0.286763
0.852717 0.423214 0.295121
0.939468 0.432208 0.303534
0.121355 0.486216 0.253795
0.215609 0.495296 0.261912
0.320746 0.504378 0.270091
0.434031 0.513458 0.278331
0.550544 0.522534 0.286631
0.664574 0.531604 0.294987
0.771013 0.540664 0.303400
0.866757 0.549711 0.311867
0.952098 0.558743 0.320387
0.135173 0.612187 0.269961
0.231157 0.621041 0.278200
0.337801 0.629859 0.286498
0.451941 0.638640 0.294854
0.568445 0.647379 0.303266
0.681602 0.656077 0.311732
0.786524 0.664729 0.320251
0.880540 0.673335 0.328820
0.964589 0.681891 0.337437
0.149249 0.731834 0.286366
0.246965 0.739999 0.294721
0.355038 0.748102 0.303132
0.469908 0.756141 0.311597
0.586264 0.764115 0.320115
0.698430 0.772024 0.328683
0.801769 0.779866 0.337300
0.894076 0.787641 0.345963
0.976972 0.795348 0.354671
0.163590 0.839916 0.302998
0.263026 0.847145 0.311462
0.372440 0.854306 0.319979
0.487912 0.861400 0.328546
0.603981 0.868428 0.337162
0.715043 0.875390 0.345825
0.816743 0.882289 0.354532
0.907377 0.889126 0.363281
0.989281 0.895902 0.372070
0.178200 0.935186 0.319843
0.279330 0.941598 0.328410
0.389990 0.947969 0.337025
0.505930 0.954303 0.345687
0.621576 0.960603 0.354393
0.731427 0.966872 0.363141
0.831447 0.973116 0.371930
0.920460 0.979338 0.380755
1.000000 0.985542 0.389616
0.070949 0.047932 0.291329
0.158923 0.054279 0.299717
0.257806 0.060664 0.308161
0.366796 0.067091 0.316657
0.482088 0.073564 0.325205
0.598264 0.080086 0.333803
0.709695 0.086658 0.342447
0.811931 0.093283 0.351137
0.903101 0.099965 0.359870
0.083897 0.141100 0.308026
0.173446 0.148218 0.316522
0.274032 0.155403 0.325069
0.384300 0.162656 0.333666
0.500103 0.169977 0.342309
0.615901 0.177367 0.350999
0.726155 0.184825 0.359731
0.826722 0.192353 0.368504
0.916253 0.199950 0.377315
0.097051 0.246694 0.324933
0.188240 0.254756 0.333528
0.290495 0.262880 0.342172
0.401938 0.271067 0.350860
0.518119 0.279314 0.359592
0.633404 0.287620 0.368364
0.742379 0.295984 0.377175
0.841242 0.304403 0.386022
0.929198 0.312876 0.394903
0.110429 0.364460 0.342034
0.203305 0.373254 0.350722
0.307181 0.382085 0.359452
0.419692 0.390951 0.368224
0.536112 0.399850 0.377034
0.650753 0.408778 0.385881
0.758356 0.417733 0.394761
0.855493 0.426714 0.403673
0.941959 0.435716 0.412613
0.124047 0.489751 0.359313
0.218640 0.498833 0.368084
0.324078 0.507914 0.376894
0.437541 0.516993 0.385740
0.554063 0.526067 0.394620
0.667930 0.535133 0.403531
0.774078 0.544188 0.412470
0.869482 0.553230 0.421436
0.954559 0.562256 0.430426
0.137914 0.615639 0.376754
0.234239 0.624479 0.385599
0.341170 0.633283 0.394478
0.455463 0.642048 0.403389
0.571949 0.650771 0.412328
0.684921 0.659451 0.421294
0.789537 0.668086 0.430283
0.883216 0.676673 0.439293
0.967027 0.685210 0.448322
0.152042 0.735021 0.394337
0.250098 0.743162 0.403247
0.358441 0.751240 0.412186
0.473440 0.759254 0.421151
0.589749 0.767203 0.430140
0.701707 0.775086 0.439150
0.804729 0.782902 0.448178
0.896704 0.790650 0.457222
0.979392 0.798331 0.466279
0.166436 0.842739 0.412043
0.266207 0.849941 0.421008
0.375873 0.857076 0.429997
0.491447 0.864144 0.439006
0.607444 0.871147 0.448034
0.718276 0.878084 0.457078
0.819650 0.884959 0.466135
0.909962 0.891771 0.475202
0.991691 0.898524 0.484277
0.181099 0.937688 0.429853
0.282558 0.944084 0.438863
0.393450 0.950440 0.447891
0.509466 0.956760 0.456934
0.625014 0.963047 0.465991
0.734615 0.969306 0.475058
0.834300 0.975541 0.484133
0.923004 0.981755 0.493212
1.000000 0.987955 0.502294
0.073474 0.050399 0.399633
0.161752 0.056760 0.408560
0.260971 0.063161 0.417515
0.370220 0.069606 0.426495
0.485622 0.076098 0.435496
0.601735 0.082638 0.444518
0.712943 0.089231 0.453556
0.814855 0.095878 0.462608
0.905699 0.102582 0.471671
0.086461 0.143864 0.417372
0.176328 0.151008 0.426352
0.277245 0.158219 0.435353
0.387752 0.165498 0.444374
0.503639 0.172846 0.453412
0.619347 0.180263 0.462464
0.729358 0.187748 0.471527
0.829593 0.195303 0.480599
0.918809 0.202927 0.489677
0.099658 0.249825 0.435210
0.191175 0.257912 0.444230
0.293752 0.266061 0.453268
0.405414 0.274271 0.462320
0.521652 0.282541 0.471383
0.636821 0.290870 0.480455
0.745534 0.299256 0.489533
0.844060 0.307696 0.498614
0.931717 0.316190 0.507695
0.113083 0.367880 0.453124
0.206293 0.376689 0.462176
0.310481 0.385534 0.471239
0.423188 0.394413 0.480311
0.539639 0.403323 0.489388
0.654138 0.412262 0.498469
0.761462 0.421227 0.507551
0.858259 0.430216 0.516630
0.944444 0.439227 0.525704
0.126748 0.493287 0.471095
0.221680 0.502369 0.480166
0.327417 0.511450 0.489244
0.441053 0.520527 0.498325
0.557579 0.529598 0.507406
0.671280 0.538660 0.516486
0.777133 0.547711 0.525560
0.872197 0.556746 0.534626
0.957016 0.565765 0.543682
0.140666 0.619085 0.489099
0.237331 0.627911 0.498180
0.344546 0.636700 0.507262
0.458988 0.645449 0.516341
0.575449 0.654156 0.525416
0.688231 0.662819 0.534482
0.792540 0.671435 0.543538
0.885882 0.680003 0.552581
0.969460 0.688520 0.561608
0.154846 0.738198 0.507118
0.253240 0.746314 0.516197
0.361850 0.754368 0.525271
0.476972 0.762357 0.534338
0.593231 0.770280 0.543394
0.704977 0.778137 0.552437
0.807679 0.785927 0.561465
0.899324 0.793649 0.570473
0.981810 0.801303 0.579461
0.169292 0.845552 0.525127
0.269397 0.852727 0.534194
0.379312 0.859836 0.543250
0.494983 0.866879 0.552294
0.610903 0.873856 0.561321
0.721502 0.880769 0.570330
0.822547 0.887619 0.579318
0.912537 0.894408 0.588282
0.994100 0.901137 0.597219
0.184009 0.940183 0.543106
0.285794 0.946563 0.552150
0.396914 0.952905 0.561178
0.513001 0.959212 0.570187
0.628445 0.965488 0.579175
0.737794 0.971736 0.588139
0.837144 0.977963 0.597077
0.925540 0.984171 0.605986
1.000000 0.990366 0.614864
0.076008 0.052871 0.512518
0.164591 0.059248 0.521595
0.264146 0.065666 0.530665
0.373649 0.072128 0.539726
0.489157 0.078639 0.548775
0.605202 0.085199 0.557809
0.716183 0.091813 0.566825
0.817769 0.098482 0.575822
0.908289 0.105208 0.584795
0.089034 0.146638 0.530521
0.179220 0.153807 0.539582
0.280466 0.161045 0.548631
0.391208 0.168351 0.557665
0.507175 0.175726 0.566682
0.622788 0.183169 0.575679
0.732552 0.190682 0.584653
0.832453 0.198263 0.593601
0.921357 0.205913 0.602522
0.102275 0.252967 0.548487
0.194121 0.261078 0.557522
0.297018 0.269251 0.566539
0.408894 0.277484 0.575536
0.525185 0.285778 0.584510
0.640232 0.294129 0.593459
0.748680 0.302536 0.602380
0.846867 0.310997 0.611270
0.934228 0.319511 0.620128
0.115745 0.371305 0.566396
0.209292 0.380128 0.575393
0.313789 0.388987 0.584368
0.426688 0.397878 0.593317
0.543164 0.406800 0.602238
0.657516 0.415750 0.611129
0.764558 0.424725 0.619987
0.861015 0.433722 0.628810
0.946923 0.442740 0.637595
0.129459 0.496823 0.584225
0.224731 0.505905 0.593175
0.330764 0.514985 0.602097
0.444568 0.524060 0.610988
0.561092 0.533128 0.619847
0.674622 0.542186 0.628670
0.780177 0.551231 0.637456
0.874902 0.560260 0.646201
0.959467 0.569272 0.654904
0.143428 0.622526 0.601955
0.240433 0.631338 0.610847
0.347928 0.640112 0.619706
0.462514 0.648845 0.628530
0.578947 0.657535 0.637316
0.691534 0.666180 0.646062
0.795532 0.674777 0.654766
0.888538 0.683325 0.663426
0.971891 0.691822 0.672039
0.157660 0.741366 0.619566
0.256391 0.749458 0.628390
0.365265 0.757486 0.637177
0.480505 0.765450 0.645924
0.596708 0.773347 0.654628
0.708237 0.781178 0.663288
0.810618 0.788942 0.671902
0.901934 0.796638 0.680467
0.984226 0.804265 0.688981
0.172159 0.848354 0.637037
0.272597 0.855503 0.645785
0.382756 0.862586 0.654490
0.498520 0.869603 0.663151
0.614356 0.876555 0.671765
0.724718 0.883443 0.680331
0.825433 0.890269 0.688846
0.915105 0.897035 0.697309
0.996508 0.903742 0.705717
0.186929 0.942672 0.654352
0.289039 0.949037 0.663014
0.400383 0.955365 0.671629
0.516536 0.961659 0.680195
0.631871 0.967924 0.688711
0.740963 0.974163 0.697174
0.839976 0.980382 0.705583
0.928068 0.986584 0.713936
1.000000 0.992776 0.722232
0.078548 0.055349 0.624819
0.167441 0.061742 0.633621
0.267330 0.068177 0.642384
0.377084 0.074657 0.651106
0.492693 0.081187 0.659785
0.608663 0.087768 0.668418
0.719414 0.094403 0.677002
0.820672 0.101094 0.685537
0.910870 0.107843 0.694021
0.091615 0.149421 0.642245
0.182123 0.156618 0.650968
0.283697 0.163882 0.659647
0.394670 0.171214 0.668281
0.510711 0.178616 0.676866
0.626223 0.186086 0.685402
0.735736 0.193626 0.693886
0.835303 0.201234 0.702317
0.923898 0.208911 0.710691
0.104899 0.256117 0.659510
0.197077 0.264253 0.668144
0.300293 0.272450 0.676730
0.412378 0.280707 0.685267
0.528716 0.289023 0.693752
0.643638 0.297396 0.702183
0.751816 0.305824 0.710559
0.849665 0.314306 0.718877
0.936732 0.322840 0.727138
0.118417 0.374737 0.676594
0.212301 0.383574 0.685131
0.317105 0.392445 0.693617
0.430190 0.401349 0.702049
0.546687 0.410282 0.710426
0.660888 0.419242 0.718746
0.767644 0.428226 0.727007
0.863761 0.437232 0.735208
0.949395 0.446256 0.743347
0.132180 0.500360 0.693483
0.227792 0.509441 0.701916
0.334118 0.518519 0.710293
0.448085 0.527592 0.718614
0.564602 0.536656 0.726876
0.677957 0.545709 0.735078
0.783212 0.554749 0.743218
0.877598 0.563771 0.751296
0.961914 0.572775 0.759309
0.146200 0.625962 0.710160
0.243545 0.634759 0.718482
0.351317 0.643517 0.726745
0.466042 0.652234 0.734948
0.582441 0.660907 0.743089
0.694829 0.669533 0.751168
0.798514 0.678112 0.759182
0.891186 0.686640 0.767132
0.974317 0.695116 0.775015
0.160484 0.744524 0.726614
0.259552 0.752592 0.734818
0.368686 0.760595 0.742960
0.484039 0.768533 0.751040
0.600181 0.776404 0.759055
0.711490 0.784209 0.767006
0.813547 0.791947 0.774890
0.904537 0.799616 0.782708
0.986639 0.807216 0.790459
0.175036 0.851146 0.742831
0.275805 0.858269 0.750912
0.386205 0.865326 0.758928
0.502056 0.872318 0.766880
0.617805 0.879245 0.774766
0.727925 0.886109 0.782585
0.828308 0.892911 0.790336
0.917665 0.899654 0.798019
0.998916 0.906338 0.805634
0.189860 0.945155 0.758801
0.292293 0.951505 0.766754
0.403857 0.957819 0.774641
0.520070 0.964102 0.782461
0.635291 0.970356 0.790213
0.744122 0.976587 0.797898
0.842799 0.982799 0.805514
0.930590 0.988996 0.813061
1.000000 0.995184 0.820539
0.081096 0.057834 0.731501
0.170301 0.064242 0.739668
0.270523 0.070695 0.747773
0.380525 0.077194 0.755815
0.496229 0.083743 0.763792
0.612120 0.090345 0.771704
0.722636 0.097001 0.779549
0.823565 0.103715 0.787326
0.913443 0.110487 0.795036
0.094205 0.152215 0.747645
0.185037 0.159438 0.755688
0.286936 0.166729 0.763666
0.398136 0.174088 0.771578
0.514246 0.181517 0.779424
0.629653 0.189014 0.787203
0.738911 0.196580 0.794914
0.838143 0.204215 0.802557
0.926432 0.211918 0.810131
0.107533 0.259278 0.763539
0.200043 0.267437 0.771453
0.303576 0.275658 0.779300
0.415866 0.283938 0.787080
0.532247 0.292276 0.794792
0.647037 0.300671 0.802436
0.754942 0.309121 0.810011
0.852452 0.317623 0.817517
0.939230 0.326177 0.824955
0.121098 0.378173 0.779176
0.215320 0.387024 0.786957
0.320428 0.395909 0.794670
0.433696 0.404824 0.802315
0.550208 0.413768 0.809891
0.664253 0.422737 0.817399
0.770720 0.431730 0.824837
0.866497 0.440743 0.832206
0.951863 0.449775 0.839507
0.134911 0.503896 0.794548
0.230863 0.512976 0.802194
0.337479 0.522053 0.809771
0.451605 0.531123 0.817280
0.568110 0.540183 0.824719
0.681284 0.549231 0.832090
0.786236 0.558264 0.839392
0.880284 0.567280 0.846625
0.964356 0.576275 0.853791
0.148982 0.629392 0.809651
0.246667 0.638174 0.817161
0.354713 0.646917 0.824601
0.469571 0.655616 0.831973
0.585931 0.664271 0.839276
0.698116 0.672879 0.846511
0.801486 0.681439 0.853678
0.893824 0.689947 0.860777
0.976741 0.698402 0.867811
0.163318 0.747673 0.824484
0.262723 0.755716 0.831856
0.372113 0.763693 0.839160
0.487574 0.771606 0.846396
0.603650 0.779452 0.853564
0.714733 0.787230 0.860665
0.816465 0.794941 0.867700
0.907130 0.802583 0.874669
0.989051 0.810157 0.881575
0.177924 0.853927 0.839045
0.279023 0.861025 0.846282
0.389660 0.868056 0.853451
0.505592 0.875022 0.860553
0.621248 0.881925 0.867588
0.731123 0.888765 0.874559
0.831173 0.895543 0.881465
0.920217 0.902263 0.888309
1.000000 0.908926 0.895092
0.192801 0.947632 0.853337
0.295555 0.953968 0.860440
0.407335 0.960269 0.867477
0.523603 0.966540 0.874448
0.638706 0.972785 0.881356
0.747272 0.979008 0.888201
0.845611 0.985213 0.894985
0.933104 0.991407 0.901709
1.000000 0.997592 0.908376
0.083652 0.060324 0.828877
0.173171 0.066749 0.836209
0.273726 0.073220 0.843472
0.383971 0.079738 0.850668
0.499765 0.086308 0.857796
0.615572 0.092930 0.864857
0.725849 0.099609 0.871853
0.826447 0.106345 0.878784
0.916008 0.113140 0.885652
0.096803 0.155020 0.843357
0.187960 0.162269 0.850554
0.290184 0.169586 0.857683
0.401607 0.176973 0.864745
0.517781 0.184428 0.871742
0.633077 0.191952 0.878674
0.742077 0.199545 0.885544
0.840972 0.207207 0.892351
0.928958 0.214936 0.899098
0.110177 0.262448 0.857570
0.203020 0.270631 0.864634
0.306867 0.278875 0.871631
0.419358 0.287178 0.878565
0.535775 0.295538 0.885435
0.650429 0.303955 0.892243
0.758059 0.312425 0.898992
0.855229 0.320948 0.905682
0.941722 0.329521 0.912316
0.123789 0.381616 0.871521
0.218350 0.390480 0.878455
0.323759 0.399377 0.885326
0.437205 0.408303 0.892135
0.553727 0.417257 0.898885
0.667610 0.426236 0.905576
0.773786 0.435237 0.912211
0.869222 0.444258 0.918792
0.954325 0.453296 0.925322
0.137652 0.507432 0.885217
0.233944 0.516511 0.892028
0.340848 0.525585 0.898778
0.455127 0.534652 0.905470
0.571614 0.543708 0.912106
0.684604 0.552750 0.918688
0.789250 0.561777 0.925218
0.882960 0.570785 0.931700
0.966794 0.579771 0.938136
0.151775 0.632816 0.898671
0.249798 0.641583 0.905364
0.358115 0.650309 0.912001
0.473102 0.658992 0.918583
0.589417 0.667629 0.925115
0.701395 0.676218 0.931597
0.804447 0.684758 0.938034
0.896454 0.693246 0.944427
0.979161 0.701680 0.950782
0.166163 0.750812 0.911895
0.265903 0.758830 0.918479
0.375545 0.766782 0.925011
0.491110 0.774669 0.931494
0.607114 0.782488 0.937932
0.717968 0.790241 0.944326
0.819373 0.797925 0.950681
0.909715 0.805541 0.956999
0.991461 0.813088 0.963286
0.180822 0.856699 0.924908
0.282249 0.863771 0.931392
0.393119 0.870776 0.937830
0.509128 0.877718 0.944225
0.624686 0.884595 0.950580
0.734311 0.891411 0.956899
0.834028 0.898167 0.963186
0.922761 0.904864 0.969444
1.000000 0.911505 0.975678
0.195752 0.950103 0.937728
0.298826 0.956425 0.944123
0.410818 0.962714 0.950479
0.527135 0.968975 0.956799
0.642114 0.975210 0.963086
0.750413 0.981426 0.969345
0.848413 0.987626 0.975579
0.935612 0.993816 0.981794
1.000000 1.000000 0.987993
