assets/luts/cinematic.cube
TITLE "Aftermovie Cinematic"
LUT_3D_SIZE 9
DOMAIN_MIN 0.0 0.0 0.0
DOMAIN_MAX 1.0 1.0 1.0
0.013027 0.024241 0.042163
0.095194 0.024241 0.041233
0.206475 0.024241 0.040306
0.348955 0.024241 0.039382
0.509971 0.024241 0.038460
0.669719 0.024241 0.037541
0.808856 0.024241 0.036624
0.916109 0.024241 0.035710
0.995875 0.024241 0.034798
0.014734 0.108703 0.040340
0.097402 0.108703 0.039416
0.209454 0.108703 0.038494
0.352549 0.108703 0.037575
0.513773 0.108703 0.036658
0.673245 0.108703 0.035744
0.811725 0.108703 0.034832
0.918214 0.108703 0.033922
0.997567 0.108703 0.033015
0.016446 0.223059 0.038528
0.099626 0.223059 0.037609
0.212451 0.223059 0.036692
0.356154 0.223059 0.035777
0.517575 0.223059 0.034865
0.676761 0.223059 0.033955
0.814575 0.223059 0.033048
0.920304 0.223059 0.032143
0.999257 0.223059 0.031240
0.018163 0.366976 0.036725
0.101867 0.366976 0.035811
0.215464 0.366976 0.034899
0.359769 0.366976 0.033989
0.521375 0.366976 0.033081
0.680264 0.366976 0.032176
0.817408 0.366976 0.031273
0.922272 0.366976 0.030463
1.000000 0.366976 0.030463
0.019885 0.526984 0.034932
0.104125 0.526984 0.034022
0.218495 0.526984 0.033115
0.363393 0.526984 0.032210
0.525174 0.526984 0.031306
0.683641 0.526984 0.030463
0.818700 0.526984 0.030463
0.922272 0.526984 0.030463
1.000000 0.526984 0.030463
0.021613 0.683641 0.033148
0.106400 0.683641 0.032243
0.221543 0.683641 0.031340
0.366976 0.683641 0.030463
0.526984 0.683641 0.030463
0.683641 0.683641 0.030463
0.818700 0.683641 0.030463
0.922272 0.683641 0.030463
1.000000 0.683641 0.030463
0.023347 0.818700 0.031373
0.108692 0.818700 0.030472
0.223059 0.818700 0.030463
0.366976 0.818700 0.030463
0.526984 0.818700 0.030463
0.683641 0.818700 0.030463
0.818700 0.818700 0.030463
0.922272 0.818700 0.030463
1.000000 0.818700 0.030463
0.024241 0.922272 0.030463
0.108703 0.922272 0.030463
0.223059 0.922272 0.030463
0.366976 0.922272 0.030463
0.526984 0.922272 0.030463
0.683641 0.922272 0.030463
0.818700 0.922272 0.030463
0.922272 0.922272 0.030463
1.000000 0.922272 0.030463
0.024241 1.000000 0.030463
0.108703 1.000000 0.030463
0.223059 1.000000 0.030463
0.366976 1.000000 0.030463
0.526984 1.000000 0.030463
0.683641 1.000000 0.030463
0.818700 1.000000 0.030463
0.922272 1.000000 0.030463
1.000000 1.000000 0.030463
0.013355 0.024241 0.131185
0.095617 0.024241 0.129930
0.207046 0.024241 0.128679
0.349645 0.024241 0.127433
0.510702 0.024241 0.126192
0.670397 0.024241 0.124955
0.809409 0.024241 0.123723
0.916514 0.024241 0.122496
0.996200 0.024241 0.121273
0.015063 0.108703 0.128725
0.097828 0.108703 0.127479
0.210029 0.108703 0.126237
0.353241 0.108703 0.125001
0.514504 0.108703 0.123768
0.673922 0.108703 0.122541
0.812274 0.108703 0.121318
0.918617 0.108703 0.120100
0.997892 0.108703 0.118886
0.016776 0.223059 0.126283
0.100055 0.223059 0.125046
0.213028 0.223059 0.123814
0.356848 0.223059 0.122586
0.518305 0.223059 0.121363
0.677435 0.223059 0.120145
0.815121 0.223059 0.118931
0.920704 0.223059 0.117722
0.999582 0.223059 0.116517
0.018494 0.366976 0.123859
0.102299 0.366976 0.122631
0.216045 0.366976 0.121408
0.360465 0.366976 0.120189
0.522105 0.366976 0.118975
0.680936 0.366976 0.117766
0.817951 0.366976 0.116561
0.922272 0.366976 0.115935
1.000000 0.366976 0.115935
0.020217 0.526984 0.121453
0.104561 0.526984 0.120234
0.219079 0.526984 0.119020
0.364091 0.526984 0.117811
0.525904 0.526984 0.116606
0.683641 0.526984 0.115935
0.818700 0.526984 0.115935
0.922272 0.526984 0.115935
1.000000 0.526984 0.115935
0.021946 0.683641 0.119065
0.106839 0.683641 0.117855
0.222130 0.683641 0.116650
0.366976 0.683641 0.115935
0.526984 0.683641 0.115935
0.683641 0.683641 0.115935
0.818700 0.683641 0.115935
0.922272 0.683641 0.115935
1.000000 0.683641 0.115935
0.023681 0.818700 0.116694
0.108703 0.818700 0.115935
0.223059 0.818700 0.115935
0.366976 0.818700 0.115935
0.526984 0.818700 0.115935
0.683641 0.818700 0.115935
0.818700 0.818700 0.115935
0.922272 0.818700 0.115935
1.000000 0.818700 0.115935
0.024241 0.922272 0.115935
0.108703 0.922272 0.115935
0.223059 0.922272 0.115935
0.366976 0.922272 0.115935
0.526984 0.922272 0.115935
0.683641 0.922272 0.115935
0.818700 0.922272 0.115935
0.922272 0.922272 0.115935
1.000000 0.922272 0.115935
0.024241 1.000000 0.115935
0.108703 1.000000 0.115935
0.223059 1.000000 0.115935
0.366976 1.000000 0.115935
0.526984 1.000000 0.115935
0.683641 1.000000 0.115935
0.818700 1.000000 0.115935
0.922272 1.000000 0.115935
1.000000 1.000000 0.115935
0.013683 0.024241 0.250643
0.096041 0.024241 0.249010
0.207618 0.024241 0.247382
0.350335 0.024241 0.245758
0.511432 0.024241 0.244138
0.671076 0.024241 0.242523
0.809961 0.024241 0.240911
0.916920 0.024241 0.239304
0.996525 0.024241 0.237701
0.015392 0.108703 0.247442
0.098254 0.108703 0.245818
0.210604 0.108703 0.244198
0.353934 0.108703 0.242582
0.515235 0.108703 0.240970
0.674598 0.108703 0.239363
0.812823 0.108703 0.237759
0.919019 0.108703 0.236160
0.998217 0.108703 0.234566
0.017106 0.223059 0.244257
0.100485 0.223059 0.242641
0.213607 0.223059 0.241029
0.357542 0.223059 0.239422
0.519036 0.223059 0.237818
0.678109 0.223059 0.236219
0.815666 0.223059 0.234624
0.921103 0.223059 0.233034
0.999907 0.223059 0.231447
0.018825 0.366976 0.241089
0.102732 0.366976 0.239481
0.216627 0.366976 0.237877
0.361161 0.366976 0.236278
0.522835 0.366976 0.234683
0.681607 0.366976 0.233092
0.818492 0.366976 0.231505
0.922272 0.366976 0.231276
1.000000 0.366976 0.231276
0.020549 0.526984 0.237936
0.104997 0.526984 0.236337
0.219664 0.526984 0.234741
0.364789 0.526984 0.233150
0.526633 0.526984 0.231564
0.683641 0.526984 0.231276
0.818700 0.526984 0.231276
0.922272 0.526984 0.231276
1.000000 0.526984 0.231276
0.022279 0.683641 0.234800
0.107279 0.683641 0.233209
0.222719 0.683641 0.231622
0.366976 0.683641 0.231276
0.526984 0.683641 0.231276
0.683641 0.683641 0.231276
0.818700 0.683641 0.231276
0.922272 0.683641 0.231276
1.000000 0.683641 0.231276
0.024015 0.818700 0.231680
0.108703 0.818700 0.231276
0.223059 0.818700 0.231276
0.366976 0.818700 0.231276
0.526984 0.818700 0.231276
0.683641 0.818700 0.231276
0.818700 0.818700 0.231276
0.922272 0.818700 0.231276
1.000000 0.818700 0.231276
0.024241 0.922272 0.231276
0.108703 0.922272 0.231276
0.223059 0.922272 0.231276
0.366976 0.922272 0.231276
0.526984 0.922272 0.231276
0.683641 0.922272 0.231276
0.818700 0.922272 0.231276
0.922272 0.922272 0.231276
1.000000 0.922272 0.231276
0.024241 1.000000 0.231276
0.108703 1.000000 0.231276
0.223059 1.000000 0.231276
0.366976 1.000000 0.231276
0.526984 1.000000 0.231276
0.683641 1.000000 0.231276
0.818700 1.000000 0.231276
0.922272 1.000000 0.231276
1.000000 1.000000 0.231276
0.014011 0.024241 0.396930
0.096465 0.024241 0.395044
0.208191 0.024241 0.393160
0.351026 0.024241 0.391278
0.512163 0.024241 0.389397
0.671753 0.024241 0.387519
0.810512 0.024241 0.385643
0.917325 0.024241 0.383768
0.996850 0.024241 0.381896
0.015721 0.108703 0.393229
0.098682 0.108703 0.391347
0.211180 0.108703 0.389466
0.354627 0.108703 0.387588
0.515965 0.108703 0.385712
0.675274 0.108703 0.383837
0.813371 0.108703 0.381965
0.919421 0.108703 0.380095
0.998542 0.108703 0.378227
0.017436 0.223059 0.389535
0.100916 0.223059 0.387657
0.214186 0.223059 0.385781
0.358237 0.223059 0.383906
0.519766 0.223059 0.382034
0.678782 0.223059 0.380164
0.816211 0.223059 0.378295
0.921502 0.223059 0.376430
1.000000 0.223059 0.375068
0.019155 0.366976 0.385850
0.103166 0.366976 0.383975
0.217209 0.366976 0.382103
0.361857 0.366976 0.380232
0.523565 0.366976 0.378364
0.682278 0.366976 0.376498
0.818700 0.366976 0.375068
0.922272 0.366976 0.375068
1.000000 0.366976 0.375068
0.020881 0.526984 0.382171
0.105434 0.526984 0.380301
0.220250 0.526984 0.378433
0.365487 0.526984 0.376567
0.526984 0.526984 0.375068
0.683641 0.526984 0.375068
0.818700 0.526984 0.375068
0.922272 0.526984 0.375068
1.000000 0.526984 0.375068
0.022612 0.683641 0.378502
0.107720 0.683641 0.376635
0.223059 0.683641 0.375068
0.366976 0.683641 0.375068
0.526984 0.683641 0.375068
0.683641 0.683641 0.375068
0.818700 0.683641 0.375068
0.922272 0.683641 0.375068
1.000000 0.683641 0.375068
0.024241 0.818700 0.375068
0.108703 0.818700 0.375068
0.223059 0.818700 0.375068
0.366976 0.818700 0.375068
0.526984 0.818700 0.375068
0.683641 0.818700 0.375068
0.818700 0.818700 0.375068
0.922272 0.818700 0.375068
1.000000 0.818700 0.375068
0.024241 0.922272 0.375068
0.108703 0.922272 0.375068
0.223059 0.922272 0.375068
0.366976 0.922272 0.375068
0.526984 0.922272 0.375068
0.683641 0.922272 0.375068
0.818700 0.922272 0.375068
0.922272 0.922272 0.375068
1.000000 0.922272 0.375068
0.024241 1.000000 0.375068
0.108703 1.000000 0.375068
0.223059 1.000000 0.375068
0.366976 1.000000 0.375068
0.526984 1.000000 0.375068
0.683641 1.000000 0.375068
0.818700 1.000000 0.375068
0.922272 1.000000 0.375068
1.000000 1.000000 0.375068
0.014339 0.024241 0.555465
0.096890 0.024241 0.553541
0.208764 0.024241 0.551617
0.351717 0.024241 0.549692
0.512894 0.024241 0.547765
0.672431 0.024241 0.545838
0.811063 0.024241 0.543910
0.917729 0.024241 0.541981
0.997176 0.024241 0.540052
0.016050 0.108703 0.551688
0.099110 0.108703 0.549762
0.211756 0.108703 0.547836
0.355320 0.108703 0.545909
0.516696 0.108703 0.543981
0.675949 0.108703 0.542052
0.813918 0.108703 0.540123
0.919822 0.108703 0.538193
0.998866 0.108703 0.536262
0.017766 0.223059 0.547907
0.101347 0.223059 0.545980
0.214766 0.223059 0.544052
0.358932 0.223059 0.542123
0.520496 0.223059 0.540194
0.679455 0.223059 0.538264
0.816755 0.223059 0.536333
0.921900 0.223059 0.534401
1.000000 0.223059 0.533719
0.019487 0.366976 0.544123
0.103601 0.366976 0.542194
0.217792 0.366976 0.540265
0.362554 0.366976 0.538335
0.524295 0.366976 0.536404
0.682949 0.366976 0.534472
0.818700 0.366976 0.533719
0.922272 0.366976 0.533719
1.000000 0.366976 0.533719
0.021213 0.526984 0.540336
0.105872 0.526984 0.538406
0.220836 0.526984 0.536475
0.366185 0.526984 0.534543
0.526984 0.526984 0.533719
0.683641 0.526984 0.533719
0.818700 0.526984 0.533719
0.922272 0.526984 0.533719
1.000000 0.526984 0.533719
0.022945 0.683641 0.536546
0.108161 0.683641 0.534614
0.223059 0.683641 0.533719
0.366976 0.683641 0.533719
0.526984 0.683641 0.533719
0.683641 0.683641 0.533719
0.818700 0.683641 0.533719
0.922272 0.683641 0.533719
1.000000 0.683641 0.533719
0.024241 0.818700 0.533719
0.108703 0.818700 0.533719
0.223059 0.818700 0.533719
0.366976 0.818700 0.533719
0.526984 0.818700 0.533719
0.683641 0.818700 0.533719
0.818700 0.818700 0.533719
0.922272 0.818700 0.533719
1.000000 0.818700 0.533719
0.024241 0.922272 0.533719
0.108703 0.922272 0.533719
0.223059 0.922272 0.533719
0.366976 0.922272 0.533719
0.526984 0.922272 0.533719
0.683641 0.922272 0.533719
0.818700 0.922272 0.533719
0.922272 0.922272 0.533719
1.000000 0.922272 0.533719
0.024241 1.000000 0.533719
0.108703 1.000000 0.533719
0.223059 1.000000 0.533719
0.366976 1.000000 0.533719
0.526984 1.000000 0.533719
0.683641 1.000000 0.533719
0.818700 1.000000 0.533719
0.922272 1.000000 0.533719
1.000000 1.000000 0.533719
0.014668 0.024241 0.707333
0.097315 0.024241 0.705601
0.209337 0.024241 0.703866
0.352409 0.024241 0.702128
0.513625 0.024241 0.700386
0.673108 0.024241 0.698640
0.811613 0.024241 0.696891
0.918132 0.024241 0.695139
0.997501 0.024241 0.693383
0.016379 0.108703 0.703930
0.099538 0.108703 0.702192
0.212333 0.108703 0.700450
0.356013 0.108703 0.698704
0.517426 0.108703 0.696956
0.676623 0.108703 0.695203
0.814464 0.108703 0.693448
0.920223 0.108703 0.691689
0.999191 0.108703 0.689927
0.018096 0.223059 0.700514
0.101779 0.223059 0.698769
0.215346 0.223059 0.697020
0.359627 0.223059 0.695268
0.521227 0.223059 0.693512
0.680127 0.223059 0.691754
0.817298 0.223059 0.689992
0.922272 0.223059 0.688269
1.000000 0.223059 0.688269
0.019818 0.366976 0.697084
0.104036 0.366976 0.695332
0.218376 0.366976 0.693577
0.363251 0.366976 0.691818
0.525025 0.366976 0.690056
0.683619 0.366976 0.688291
0.818700 0.366976 0.688269
0.922272 0.366976 0.688269
1.000000 0.366976 0.688269
0.021545 0.526984 0.693642
0.106311 0.526984 0.691883
0.221423 0.526984 0.690121
0.366884 0.526984 0.688356
0.526984 0.526984 0.688269
0.683641 0.526984 0.688269
0.818700 0.526984 0.688269
0.922272 0.526984 0.688269
1.000000 0.526984 0.688269
0.023279 0.683641 0.690186
0.108602 0.683641 0.688421
0.223059 0.683641 0.688269
0.366976 0.683641 0.688269
0.526984 0.683641 0.688269
0.683641 0.683641 0.688269
0.818700 0.683641 0.688269
0.922272 0.683641 0.688269
1.000000 0.683641 0.688269
0.024241 0.818700 0.688269
0.108703 0.818700 0.688269
0.223059 0.818700 0.688269
0.366976 0.818700 0.688269
0.526984 0.818700 0.688269
0.683641 0.818700 0.688269
0.818700 0.818700 0.688269
0.922272 0.818700 0.688269
1.000000 0.818700 0.688269
0.024241 0.922272 0.688269
0.108703 0.922272 0.688269
0.223059 0.922272 0.688269
0.366976 0.922272 0.688269
0.526984 0.922272 0.688269
0.683641 0.922272 0.688269
0.818700 0.922272 0.688269
0.922272 0.922272 0.688269
1.000000 0.922272 0.688269
0.024241 1.000000 0.688269
0.108703 1.000000 0.688269
0.223059 1.000000 0.688269
0.366976 1.000000 0.688269
0.526984 1.000000 0.688269
0.683641 1.000000 0.688269
0.818700 1.000000 0.688269
0.922272 1.000000 0.688269
1.000000 1.000000 0.688269
0.014996 0.024241 0.835937
0.097741 0.024241 0.834558
0.209912 0.024241 0.833175
0.353101 0.024241 0.831787
0.514355 0.024241 0.830394
0.673784 0.024241 0.828997
0.812162 0.024241 0.827595
0.918535 0.024241 0.826188
0.997826 0.024241 0.824776
0.016709 0.108703 0.833226
0.099968 0.108703 0.831838
0.212911 0.108703 0.830446
0.356707 0.108703 0.829048
0.518157 0.108703 0.827646
0.677298 0.108703 0.826239
0.815010 0.108703 0.824828
0.920623 0.108703 0.823412
0.999516 0.108703 0.821991
0.018427 0.223059 0.830497
0.102211 0.223059 0.829100
0.215927 0.223059 0.827698
0.360323 0.223059 0.826291
0.521957 0.223059 0.824880
0.680799 0.223059 0.823464
0.817840 0.223059 0.822043
0.922272 0.223059 0.821191
1.000000 0.223059 0.821191
0.020149 0.366976 0.827750
0.104472 0.366976 0.826343
0.218960 0.366976 0.824932
0.363949 0.366976 0.823516
0.525755 0.366976 0.822095
0.683641 0.366976 0.821191
0.818700 0.366976 0.821191
0.922272 0.366976 0.821191
1.000000 0.366976 0.821191
0.021878 0.526984 0.824984
0.106750 0.526984 0.823568
0.222011 0.526984 0.822148
0.366976 0.526984 0.821191
0.526984 0.526984 0.821191
0.683641 0.526984 0.821191
0.818700 0.526984 0.821191
0.922272 0.526984 0.821191
1.000000 0.526984 0.821191
0.023613 0.683641 0.822200
0.108703 0.683641 0.821191
0.223059 0.683641 0.821191
0.366976 0.683641 0.821191
0.526984 0.683641 0.821191
0.683641 0.683641 0.821191
0.818700 0.683641 0.821191
0.922272 0.683641 0.821191
1.000000 0.683641 0.821191
0.024241 0.818700 0.821191
0.108703 0.818700 0.821191
0.223059 0.818700 0.821191
0.366976 0.818700 0.821191
0.526984 0.818700 0.821191
0.683641 0.818700 0.821191
0.818700 0.818700 0.821191
0.922272 0.818700 0.821191
1.000000 0.818700 0.821191
0.024241 0.922272 0.821191
0.108703 0.922272 0.821191
0.223059 0.922272 0.821191
0.366976 0.922272 0.821191
0.526984 0.922272 0.821191
0.683641 0.922272 0.821191
0.818700 0.922272 0.821191
0.922272 0.922272 0.821191
1.000000 0.922272 0.821191
0.024241 1.000000 0.821191
0.108703 1.000000 0.821191
0.223059 1.000000 0.821191
0.366976 1.000000 0.821191
0.526984 1.000000 0.821191
0.683641 1.000000 0.821191
0.818700 1.000000 0.821191
0.922272 1.000000 0.821191
1.000000 1.000000 0.821191
0.015325 0.024241 0.933642
0.098168 0.024241 0.932629
0.210487 0.024241 0.931613
0.353793 0.024241 0.930592
0.515086 0.024241 0.929568
0.674461 0.024241 0.928540
0.812711 0.024241 0.927508
0.918938 0.024241 0.926473
0.998151 0.024241 0.925434
0.017039 0.108703 0.931650
0.100398 0.108703 0.930630
0.213489 0.108703 0.929606
0.357401 0.108703 0.928578
0.518887 0.108703 0.927547
0.677972 0.108703 0.926511
0.815556 0.108703 0.925472
0.921022 0.108703 0.924429
0.999841 0.108703 0.923382
0.018757 0.223059 0.929644
0.102644 0.223059 0.928616
0.216509 0.223059 0.927585
0.361019 0.223059 0.926549
0.522687 0.223059 0.925510
0.681471 0.223059 0.924467
0.818382 0.223059 0.923420
0.922272 0.223059 0.923188
1.000000 0.223059 0.923188
0.020481 0.366976 0.927623
0.104908 0.366976 0.926587
0.219545 0.366976 0.925549
0.364647 0.366976 0.924506
0.526485 0.366976 0.923459
0.683641 0.366976 0.923188
0.818700 0.366976 0.923188
0.922272 0.366976 0.923188
1.000000 0.366976 0.923188
0.022211 0.526984 0.925587
0.107189 0.526984 0.924544
0.222599 0.526984 0.923497
0.366976 0.526984 0.923188
0.526984 0.526984 0.923188
0.683641 0.526984 0.923188
0.818700 0.526984 0.923188
0.922272 0.526984 0.923188
1.000000 0.526984 0.923188
0.023947 0.683641 0.923536
0.108703 0.683641 0.923188
0.223059 0.683641 0.923188
0.366976 0.683641 0.923188
0.526984 0.683641 0.923188
0.683641 0.683641 0.923188
0.818700 0.683641 0.923188
0.922272 0.683641 0.923188
1.000000 0.683641 0.923188
0.024241 0.818700 0.923188
0.108703 0.818700 0.923188
0.223059 0.818700 0.923188
0.366976 0.818700 0.923188
0.526984 0.818700 0.923188
0.683641 0.818700 0.923188
0.818700 0.818700 0.923188
0.922272 0.818700 0.923188
1.000000 0.818700 0.923188
0.024241 0.922272 0.923188
0.108703 0.922272 0.923188
0.223059 0.922272 0.923188
0.366976 0.922272 0.923188
0.526984 0.922272 0.923188
0.683641 0.922272 0.923188
0.818700 0.922272 0.923188
0.922272 0.922272 0.923188
1.000000 0.922272 0.923188
0.024241 1.000000 0.923188
0.108703 1.000000 0.923188
0.223059 1.000000 0.923188
0.366976 1.000000 0.923188
0.526984 1.000000 0.923188
0.683641 1.000000 0.923188
0.818700 1.000000 0.923188
0.922272 1.000000 0.923188
1.000000 1.000000 0.923188
0.015654 0.024241 1.000000
0.098595 0.024241 1.000000
0.211062 0.024241 1.000000
0.354486 0.024241 1.000000
0.515817 0.024241 1.000000
0.675136 0.024241 1.000000
0.813259 0.024241 1.000000
0.919339 0.024241 1.000000
0.998475 0.024241 1.000000
0.017369 0.108703 1.000000
0.100828 0.108703 1.000000
0.214068 0.108703 1.000000
0.358096 0.108703 1.000000
0.519617 0.108703 1.000000
0.678645 0.108703 1.000000
0.816100 0.108703 1.000000
0.921421 0.108703 1.000000
1.000000 0.108703 1.000000
0.019088 0.223059 1.000000
0.103078 0.223059 1.000000
0.217091 0.223059 1.000000
0.361716 0.223059 1.000000
0.523417 0.223059 1.000000
0.682142 0.223059 1.000000
0.818700 0.223059 1.000000
0.922272 0.223059 1.000000
1.000000 0.223059 1.000000
0.020813 0.366976 1.000000
0.105345 0.366976 1.000000
0.220131 0.366976 1.000000
0.365345 0.366976 1.000000
0.526984 0.366976 1.000000
0.683641 0.366976 1.000000
0.818700 0.366976 1.000000
0.922272 0.366976 1.000000
1.000000 0.366976 1.000000
0.022544 0.526984 1.000000
0.107630 0.526984 1.000000
0.223059 0.526984 1.000000
0.366976 0.526984 1.000000
0.526984 0.526984 1.000000
0.683641 0.526984 1.000000
0.818700 0.526984 1.000000
0.922272 0.526984 1.000000
1.000000 0.526984 1.000000
0.024241 0.683641 1.000000
0.108703 0.683641 1.000000
0.223059 0.683641 1.000000
0.366976 0.683641 1.000000
0.526984 0.683641 1.000000
0.683641 0.683641 1.000000
0.818700 0.683641 1.000000
0.922272 0.683641 1.000000
1.000000 0.683641 1.000000
0.024241 0.818700 1.000000
0.108703 0.818700 1.000000
0.223059 0.818700 1.000000
0.366976 0.818700 1.000000
0.526984 0.818700 1.000000
0.683641 0.818700 1.000000
0.818700 0.818700 1.000000
0.922272 0.818700 1.000000
1.000000 0.818700 1.000000
0.024241 0.922272 1.000000
0.108703 0.922272 1.000000
0.223059 0.922272 1.000000
0.366976 0.922272 1.000000
0.526984 0.922272 1.000000
0.683641 0.922272 1.000000
0.818700 0.922272 1.000000
0.922272 0.922272 1.000000
1.000000 0.922272 1.000000
0.024241 1.000000 1.000000
0.108703 1.000000 1.000000
0.223059 1.000000 1.000000
0.366976 1.000000 1.000000
0.526984 1.000000 1.000000
0.683641 1.000000 1.000000
0.818700 1.000000 1.000000
0.922272 1.000000 1.000000
1.000000 1.000000 1.000000
