assets/luts/cinematic.cube
TITLE "Aftermovie Cinematic"
LUT_3D_SIZE 17
DOMAIN_MIN 0.0 0.0 0.0
DOMAIN_MAX 1.0 1.0 1.0
0.013027 0.024241 0.042163
0.051386 0.024241 0.041698
0.095194 0.024241 0.041233
0.146631 0.024241 0.040769
0.206475 0.024241 0.040306
0.274350 0.024241 0.039844
0.348955 0.024241 0.039382
0.428305 0.024241 0.038921
0.509971 0.024241 0.038460
0.591312 0.024241 0.038000
0.669719 0.024241 0.037541
0.742847 0.024241 0.037082
0.808856 0.024241 0.036624
0.866649 0.024241 0.036167
0.916109 0.024241 0.035710
0.958332 0.024241 0.035254
0.995875 0.024241 0.034798
0.013880 0.063424 0.041250
0.052329 0.063424 0.040786
0.096296 0.063424 0.040323
0.147923 0.063424 0.039861
0.207962 0.063424 0.039399
0.276011 0.063424 0.038938
0.350751 0.063424 0.038477
0.430184 0.063424 0.038017
0.511872 0.063424 0.037558
0.593174 0.063424 0.037099
0.671484 0.063424 0.036641
0.744465 0.063424 0.036184
0.810293 0.063424 0.035727
0.867890 0.063424 0.035271
0.917163 0.063424 0.034815
0.959244 0.063424 0.034360
0.996721 0.063424 0.033905
0.014734 0.108703 0.040340
0.053276 0.108703 0.039878
0.097402 0.108703 0.039416
0.149220 0.108703 0.038955
0.209454 0.108703 0.038494
0.277676 0.108703 0.038034
0.352549 0.108703 0.037575
0.432064 0.108703 0.037116
0.513773 0.108703 0.036658
0.595035 0.108703 0.036200
0.673245 0.108703 0.035744
0.746079 0.108703 0.035287
0.811725 0.108703 0.034832
0.869126 0.108703 0.034377
0.918214 0.108703 0.033922
0.960152 0.108703 0.033468
0.997567 0.108703 0.033015
0.015590 0.161774 0.039433
0.054225 0.161774 0.038972
0.098512 0.161774 0.038511
0.150522 0.161774 0.038051
0.210950 0.161774 0.037592
0.279345 0.161774 0.037133
0.354351 0.161774 0.036675
0.433945 0.161774 0.036217
0.515674 0.161774 0.035760
0.596894 0.161774 0.035304
0.675004 0.161774 0.034848
0.747689 0.161774 0.034393
0.813152 0.161774 0.033939
0.870357 0.161774 0.033485
0.919261 0.161774 0.033031
0.961058 0.161774 0.032579
0.998412 0.161774 0.032126
0.016446 0.223059 0.038528
0.055178 0.223059 0.038068
0.099626 0.223059 0.037609
0.151829 0.223059 0.037150
0.212451 0.223059 0.036692
0.281017 0.223059 0.036234
0.356154 0.223059 0.035777
0.435827 0.223059 0.035321
0.517575 0.223059 0.034865
0.598751 0.223059 0.034410
0.676761 0.223059 0.033955
0.749296 0.223059 0.033502
0.814575 0.223059 0.033048
0.871583 0.223059 0.032595
0.920304 0.223059 0.032143
0.961962 0.223059 0.031691
0.999257 0.223059 0.031240
0.017304 0.291940 0.037625
0.056133 0.291940 0.037167
0.100744 0.291940 0.036708
0.153140 0.291940 0.036251
0.213955 0.291940 0.035794
0.282693 0.291940 0.035338
0.357960 0.291940 0.034882
0.437710 0.291940 0.034427
0.519475 0.291940 0.033972
0.600607 0.291940 0.033518
0.678514 0.291940 0.033065
0.750898 0.291940 0.032612
0.815994 0.291940 0.032160
0.872806 0.291940 0.031708
0.921343 0.291940 0.031257
0.962863 0.291940 0.030806
1.000000 0.291940 0.030463
0.018163 0.366976 0.036725
0.057092 0.366976 0.036268
0.101867 0.366976 0.035811
0.154455 0.366976 0.035354
0.215464 0.366976 0.034899
0.284372 0.366976 0.034444
0.359769 0.366976 0.033989
0.439594 0.366976 0.033535
0.521375 0.366976 0.033081
0.602461 0.366976 0.032629
0.680264 0.366976 0.032176
0.752497 0.366976 0.031725
0.817408 0.366976 0.031273
0.874023 0.366976 0.030823
0.922272 0.366976 0.030463
0.963212 0.366976 0.030463
1.000000 0.366976 0.030463
0.019024 0.446128 0.035828
0.058054 0.446128 0.035371
0.102993 0.446128 0.034915
0.155776 0.446128 0.034460
0.216977 0.446128 0.034006
0.286055 0.446128 0.033552
0.361580 0.446128 0.033098
0.441480 0.446128 0.032645
0.523275 0.446128 0.032193
0.604313 0.446128 0.031741
0.682011 0.446128 0.031290
0.754091 0.446128 0.030839
0.818700 0.446128 0.030463
0.874517 0.446128 0.030463
0.922272 0.446128 0.030463
0.963212 0.446128 0.030463
1.000000 0.446128 0.030463
0.019885 0.526984 0.034932
0.059020 0.526984 0.034477
0.104125 0.526984 0.034022
0.157100 0.526984 0.033568
0.218495 0.526984 0.033115
0.287741 0.526984 0.032662
0.363393 0.526984 0.032210
0.443366 0.526984 0.031758
0.525174 0.526984 0.031306
0.606163 0.526984 0.030856
0.683641 0.526984 0.030463
0.754768 0.526984 0.030463
0.818700 0.526984 0.030463
0.874517 0.526984 0.030463
0.922272 0.526984 0.030463
0.963212 0.526984 0.030463
1.000000 0.526984 0.030463
0.020748 0.606984 0.034039
0.059989 0.606984 0.033585
0.105260 0.606984 0.033131
0.158430 0.606984 0.032679
0.220017 0.606984 0.032226
0.289431 0.606984 0.031774
0.365209 0.606984 0.031323
0.445254 0.606984 0.030872
0.526984 0.606984 0.030463
0.606984 0.606984 0.030463
0.683641 0.606984 0.030463
0.754768 0.606984 0.030463
0.818700 0.606984 0.030463
0.874517 0.606984 0.030463
0.922272 0.606984 0.030463
0.963212 0.606984 0.030463
1.000000 0.606984 0.030463
0.021613 0.683641 0.033148
0.060961 0.683641 0.032695
0.106400 0.683641 0.032243
0.159764 0.683641 0.031791
0.221543 0.683641 0.031340
0.291124 0.683641 0.030889
0.366976 0.683641 0.030463
0.446128 0.683641 0.030463
0.526984 0.683641 0.030463
0.606984 0.683641 0.030463
0.683641 0.683641 0.030463
0.754768 0.683641 0.030463
0.818700 0.683641 0.030463
0.874517 0.683641 0.030463
0.922272 0.683641 0.030463
0.963212 0.683641 0.030463
1.000000 0.683641 0.030463
0.022479 0.754768 0.032259
0.061936 0.754768 0.031808
0.107544 0.754768 0.031356
0.161102 0.754768 0.030905
0.223059 0.754768 0.030463
0.291940 0.754768 0.030463
0.366976 0.754768 0.030463
0.446128 0.754768 0.030463
0.526984 0.754768 0.030463
0.606984 0.754768 0.030463
0.683641 0.754768 0.030463
0.754768 0.754768 0.030463
0.818700 0.754768 0.030463
0.874517 0.754768 0.030463
0.922272 0.754768 0.030463
0.963212 0.754768 0.030463
1.000000 0.754768 0.030463
0.023347 0.818700 0.031373
0.062915 0.818700 0.030922
0.108692 0.818700 0.030472
0.161774 0.818700 0.030463
0.223059 0.818700 0.030463
0.291940 0.818700 0.030463
0.366976 0.818700 0.030463
0.446128 0.818700 0.030463
0.526984 0.818700 0.030463
0.606984 0.818700 0.030463
0.683641 0.818700 0.030463
0.754768 0.818700 0.030463
0.818700 0.818700 0.030463
0.874517 0.818700 0.030463
0.922272 0.818700 0.030463
0.963212 0.818700 0.030463
1.000000 0.818700 0.030463
0.024216 0.874517 0.030488
0.063424 0.874517 0.030463
0.108703 0.874517 0.030463
0.161774 0.874517 0.030463
0.223059 0.874517 0.030463
0.291940 0.874517 0.030463
0.366976 0.874517 0.030463
0.446128 0.874517 0.030463
0.526984 0.874517 0.030463
0.606984 0.874517 0.030463
0.683641 0.874517 0.030463
0.754768 0.874517 0.030463
0.818700 0.874517 0.030463
0.874517 0.874517 0.030463
0.922272 0.874517 0.030463
0.963212 0.874517 0.030463
1.000000 0.874517 0.030463
0.024241 0.922272 0.030463
0.063424 0.922272 0.030463
0.108703 0.922272 0.030463
0.161774 0.922272 0.030463
0.223059 0.922272 0.030463
0.291940 0.922272 0.030463
0.366976 0.922272 0.030463
0.446128 0.922272 0.030463
0.526984 0.922272 0.030463
0.606984 0.922272 0.030463
0.683641 0.922272 0.030463
0.754768 0.922272 0.030463
0.818700 0.922272 0.030463
0.874517 0.922272 0.030463
0.922272 0.922272 0.030463
0.963212 0.922272 0.030463
1.000000 0.922272 0.030463
0.024241 0.963212 0.030463
0.063424 0.963212 0.030463
0.108703 0.963212 0.030463
0.161774 0.963212 0.030463
0.223059 0.963212 0.030463
0.291940 0.963212 0.030463
0.366976 0.963212 0.030463
0.446128 0.963212 0.030463
0.526984 0.963212 0.030463
0.606984 0.963212 0.030463
0.683641 0.963212 0.030463
0.754768 0.963212 0.030463
0.818700 0.963212 0.030463
0.874517 0.963212 0.030463
0.922272 0.963212 0.030463
0.963212 0.963212 0.030463
1.000000 0.963212 0.030463
0.024241 1.000000 0.030463
0.063424 1.000000 0.030463
0.108703 1.000000 0.030463
0.161774 1.000000 0.030463
0.223059 1.000000 0.030463
0.291940 1.000000 0.030463
0.366976 1.000000 0.030463
0.446128 1.000000 0.030463
0.526984 1.000000 0.030463
0.606984 1.000000 0.030463
0.683641 1.000000 0.030463
0.754768 1.000000 0.030463
0.818700 1.000000 0.030463
0.874517 1.000000 0.030463
0.922272 1.000000 0.030463
0.963212 1.000000 0.030463
1.000000 1.000000 0.030463
0.013191 0.024241 0.083255
0.051567 0.024241 0.082718
0.095406 0.024241 0.082183
0.146879 0.024241 0.081648
0.206761 0.024241 0.081115
0.274669 0.024241 0.080582
0.349300 0.024241 0.080051
0.428666 0.024241 0.079520
0.510336 0.024241 0.078991
0.591670 0.024241 0.078463
0.670058 0.024241 0.077935
0.743158 0.024241 0.077409
0.809133 0.024241 0.076883
0.866888 0.024241 0.076359
0.916312 0.024241 0.075835
0.958508 0.024241 0.075313
0.996038 0.024241 0.074791
0.014044 0.063424 0.082203
0.052511 0.063424 0.081668
0.096508 0.063424 0.081135
0.148172 0.063424 0.080602
0.208249 0.063424 0.080070
0.276331 0.063424 0.079540
0.351096 0.063424 0.079010
0.430545 0.063424 0.078482
0.512238 0.063424 0.077954
0.593532 0.063424 0.077428
0.671822 0.063424 0.076902
0.744775 0.063424 0.076378
0.810568 0.063424 0.075854
0.868128 0.063424 0.075332
0.917366 0.063424 0.074810
0.959418 0.063424 0.074289
0.996883 0.063424 0.073770
0.014899 0.108703 0.081154
0.053458 0.108703 0.080622
0.097615 0.108703 0.080090
0.149470 0.108703 0.079559
0.209741 0.108703 0.079030
0.277997 0.108703 0.078501
0.352895 0.108703 0.077974
0.432425 0.108703 0.077447
0.514139 0.108703 0.076922
0.595392 0.108703 0.076397
0.673584 0.108703 0.075874
0.746389 0.108703 0.075351
0.811999 0.108703 0.074829
0.869362 0.108703 0.074309
0.918416 0.108703 0.073789
0.960327 0.108703 0.073270
0.997729 0.108703 0.072752
0.015754 0.161774 0.080110
0.054408 0.161774 0.079579
0.098725 0.161774 0.079049
0.150773 0.161774 0.078521
0.211238 0.161774 0.077993
0.279666 0.161774 0.077467
0.354697 0.161774 0.076941
0.434306 0.161774 0.076416
0.516039 0.161774 0.075893
0.597251 0.161774 0.075370
0.675342 0.161774 0.074848
0.747998 0.161774 0.074328
0.813426 0.161774 0.073808
0.870593 0.161774 0.073289
0.919462 0.161774 0.072771
0.961232 0.161774 0.072255
0.998575 0.161774 0.071739
0.016611 0.223059 0.079069
0.055361 0.223059 0.078540
0.099840 0.223059 0.078013
0.152080 0.223059 0.077486
0.212739 0.223059 0.076960
0.281339 0.223059 0.076436
0.356501 0.223059 0.075912
0.436189 0.223059 0.075389
0.517940 0.223059 0.074868
0.599108 0.223059 0.074347
0.677098 0.223059 0.073827
0.749604 0.223059 0.073308
0.814848 0.223059 0.072791
0.871819 0.223059 0.072274
0.920504 0.223059 0.071758
0.962135 0.223059 0.071243
0.999420 0.223059 0.070729
0.017469 0.291940 0.078032
0.056317 0.291940 0.077505
0.100959 0.291940 0.076980
0.153392 0.291940 0.076455
0.214245 0.291940 0.075931
0.283015 0.291940 0.075409
0.358308 0.291940 0.074887
0.438072 0.291940 0.074366
0.519840 0.291940 0.073846
0.600963 0.291940 0.073327
0.678850 0.291940 0.072810
0.751206 0.291940 0.072293
0.816266 0.291940 0.071777
0.873040 0.291940 0.071262
0.921543 0.291940 0.070748
0.963036 0.291940 0.070235
1.000000 0.291940 0.070038
0.018328 0.366976 0.076999
0.057277 0.366976 0.076474
0.102083 0.366976 0.075951
0.154709 0.366976 0.075428
0.215755 0.366976 0.074906
0.284695 0.366976 0.074385
0.360117 0.366976 0.073865
0.439957 0.366976 0.073346
0.521740 0.366976 0.072829
0.602817 0.366976 0.072312
0.680600 0.366976 0.071796
0.752803 0.366976 0.071281
0.817679 0.366976 0.070767
0.874257 0.366976 0.070253
0.922272 0.366976 0.070038
0.963212 0.366976 0.070038
1.000000 0.366976 0.070038
0.019189 0.446128 0.075970
0.058240 0.446128 0.075447
0.103211 0.446128 0.074925
0.156030 0.446128 0.074404
0.217269 0.446128 0.073884
0.286378 0.446128 0.073366
0.361928 0.446128 0.072848
0.441842 0.446128 0.072331
0.523640 0.446128 0.071815
0.604668 0.446128 0.071300
0.682346 0.446128 0.070785
0.754397 0.446128 0.070272
0.818700 0.446128 0.070038
0.874517 0.446128 0.070038
0.922272 0.446128 0.070038
0.963212 0.446128 0.070038
1.000000 0.446128 0.070038
0.020051 0.526984 0.074944
0.059206 0.526984 0.074423
0.104343 0.526984 0.073904
0.157355 0.526984 0.073385
0.218787 0.526984 0.072867
0.288065 0.526984 0.072350
0.363742 0.526984 0.071834
0.443729 0.526984 0.071318
0.525539 0.526984 0.070804
0.606518 0.526984 0.070291
0.683641 0.526984 0.070038
0.754768 0.526984 0.070038
0.818700 0.526984 0.070038
0.874517 0.526984 0.070038
0.922272 0.526984 0.070038
0.963212 0.526984 0.070038
1.000000 0.526984 0.070038
0.020914 0.606984 0.073923
0.060175 0.606984 0.073404
0.105479 0.606984 0.072886
0.158686 0.606984 0.072369
0.220310 0.606984 0.071853
0.289756 0.606984 0.071337
0.365558 0.606984 0.070823
0.445617 0.606984 0.070310
0.526984 0.606984 0.070038
0.606984 0.606984 0.070038
0.683641 0.606984 0.070038
0.754768 0.606984 0.070038
0.818700 0.606984 0.070038
0.874517 0.606984 0.070038
0.922272 0.606984 0.070038
0.963212 0.606984 0.070038
1.000000 0.606984 0.070038
0.021779 0.683641 0.072905
0.061148 0.683641 0.072388
0.106619 0.683641 0.071872
0.160021 0.683641 0.071356
0.221837 0.683641 0.070842
0.291450 0.683641 0.070329
0.366976 0.683641 0.070038
0.446128 0.683641 0.070038
0.526984 0.683641 0.070038
0.606984 0.683641 0.070038
0.683641 0.683641 0.070038
0.754768 0.683641 0.070038
0.818700 0.683641 0.070038
0.874517 0.683641 0.070038
0.922272 0.683641 0.070038
0.963212 0.683641 0.070038
1.000000 0.683641 0.070038
0.022646 0.754768 0.071890
0.062124 0.754768 0.071375
0.107764 0.754768 0.070861
0.161360 0.754768 0.070348
0.223059 0.754768 0.070038
0.291940 0.754768 0.070038
0.366976 0.754768 0.070038
0.446128 0.754768 0.070038
0.526984 0.754768 0.070038
0.606984 0.754768 0.070038
0.683641 0.754768 0.070038
0.754768 0.754768 0.070038
0.818700 0.754768 0.070038
0.874517 0.754768 0.070038
0.922272 0.754768 0.070038
0.963212 0.754768 0.070038
1.000000 0.754768 0.070038
0.023514 0.818700 0.070880
0.063103 0.818700 0.070367
0.108703 0.818700 0.070038
0.161774 0.818700 0.070038
0.223059 0.818700 0.070038
0.291940 0.818700 0.070038
0.366976 0.818700 0.070038
0.446128 0.818700 0.070038
0.526984 0.818700 0.070038
0.606984 0.818700 0.070038
0.683641 0.818700 0.070038
0.754768 0.818700 0.070038
0.818700 0.818700 0.070038
0.874517 0.818700 0.070038
0.922272 0.818700 0.070038
0.963212 0.818700 0.070038
1.000000 0.818700 0.070038
0.024241 0.874517 0.070038
0.063424 0.874517 0.070038
0.108703 0.874517 0.070038
0.161774 0.874517 0.070038
0.223059 0.874517 0.070038
0.291940 0.874517 0.070038
0.366976 0.874517 0.070038
0.446128 0.874517 0.070038
0.526984 0.874517 0.070038
0.606984 0.874517 0.070038
0.683641 0.874517 0.070038
0.754768 0.874517 0.070038
0.818700 0.874517 0.070038
0.874517 0.874517 0.070038
0.922272 0.874517 0.070038
0.963212 0.874517 0.070038
1.000000 0.874517 0.070038
0.024241 0.922272 0.070038
0.063424 0.922272 0.070038
0.108703 0.922272 0.070038
0.161774 0.922272 0.070038
0.223059 0.922272 0.070038
0.291940 0.922272 0.070038
0.366976 0.922272 0.070038
0.446128 0.922272 0.070038
0.526984 0.922272 0.070038
0.606984 0.922272 0.070038
0.683641 0.922272 0.070038
0.754768 0.922272 0.070038
0.818700 0.922272 0.070038
0.874517 0.922272 0.070038
0.922272 0.922272 0.070038
0.963212 0.922272 0.070038
1.000000 0.922272 0.070038
0.024241 0.963212 0.070038
0.063424 0.963212 0.070038
0.108703 0.963212 0.070038
0.161774 0.963212 0.070038
0.223059 0.963212 0.070038
0.291940 0.963212 0.070038
0.366976 0.963212 0.070038
0.446128 0.963212 0.070038
0.526984 0.963212 0.070038
0.606984 0.963212 0.070038
0.683641 0.963212 0.070038
0.754768 0.963212 0.070038
0.818700 0.963212 0.070038
0.874517 0.963212 0.070038
0.922272 0.963212 0.070038
0.963212 0.963212 0.070038
1.000000 0.963212 0.070038
0.024241 1.000000 0.070038
0.063424 1.000000 0.070038
0.108703 1.000000 0.070038
0.161774 1.000000 0.070038
0.223059 1.000000 0.070038
0.291940 1.000000 0.070038
0.366976 1.000000 0.070038
0.446128 1.000000 0.070038
0.526984 1.000000 0.070038
0.606984 1.000000 0.070038
0.683641 1.000000 0.070038
0.754768 1.000000 0.070038
0.818700 1.000000 0.070038
0.874517 1.000000 0.070038
0.922272 1.000000 0.070038
0.963212 1.000000 0.070038
1.000000 1.000000 0.070038
0.013355 0.024241 0.131185
0.051748 0.024241 0.130557
0.095617 0.024241 0.129930
0.147127 0.024241 0.129304
0.207046 0.024241 0.128679
0.274988 0.024241 0.128056
0.349645 0.024241 0.127433
0.429027 0.024241 0.126812
0.510702 0.024241 0.126192
0.592028 0.024241 0.125573
0.670397 0.024241 0.124955
0.743469 0.024241 0.124339
0.809409 0.024241 0.123723
0.867127 0.024241 0.123109
0.916514 0.024241 0.122496
0.958683 0.024241 0.121884
0.996200 0.024241 0.121273
0.014208 0.063424 0.129953
0.052693 0.063424 0.129327
0.096720 0.063424 0.128702
0.148421 0.063424 0.128079
0.208535 0.063424 0.127456
0.276651 0.063424 0.126835
0.351442 0.063424 0.126215
0.430906 0.063424 0.125596
0.512603 0.063424 0.124978
0.593890 0.063424 0.124361
0.672161 0.063424 0.123746
0.745086 0.063424 0.123132
0.810844 0.063424 0.122518
0.868365 0.063424 0.121906
0.917568 0.063424 0.121296
0.959593 0.063424 0.120686
0.997046 0.063424 0.120078
0.015063 0.108703 0.128725
0.053640 0.108703 0.128101
0.097828 0.108703 0.127479
0.149720 0.108703 0.126858
0.210029 0.108703 0.126237
0.278317 0.108703 0.125618
0.353241 0.108703 0.125001
0.432786 0.108703 0.124384
0.514504 0.108703 0.123768
0.595750 0.108703 0.123154
0.673922 0.108703 0.122541
0.746698 0.108703 0.121929
0.812274 0.108703 0.121318
0.869599 0.108703 0.120708
0.918617 0.108703 0.120100
0.960501 0.108703 0.119492
0.997892 0.108703 0.118886
0.015919 0.161774 0.127502
0.054591 0.161774 0.126880
0.098939 0.161774 0.126260
0.151024 0.161774 0.125641
0.211526 0.161774 0.125023
0.279987 0.161774 0.124407
0.355044 0.161774 0.123791
0.434668 0.161774 0.123177
0.516405 0.161774 0.122563
0.597608 0.161774 0.121951
0.675680 0.161774 0.121341
0.748307 0.161774 0.120731
0.813700 0.161774 0.120122
0.870829 0.161774 0.119515
0.919663 0.161774 0.118909
0.961406 0.161774 0.118303
0.998737 0.161774 0.117700
0.016776 0.223059 0.126283
0.055545 0.223059 0.125664
0.100055 0.223059 0.125046
0.152332 0.223059 0.124429
0.213028 0.223059 0.123814
0.281661 0.223059 0.123199
0.356848 0.223059 0.122586
0.436551 0.223059 0.121974
0.518305 0.223059 0.121363
0.599465 0.223059 0.120753
0.677435 0.223059 0.120145
0.749912 0.223059 0.119537
0.815121 0.223059 0.118931
0.872054 0.223059 0.118326
0.920704 0.223059 0.117722
0.962309 0.223059 0.117119
0.999582 0.223059 0.116517
0.017634 0.291940 0.125069
0.056502 0.291940 0.124452
0.101175 0.291940 0.123836
0.153645 0.291940 0.123222
0.214535 0.291940 0.122609
0.283338 0.291940 0.121996
0.358655 0.291940 0.121385
0.438434 0.291940 0.120776
0.520205 0.291940 0.120167
0.601320 0.291940 0.119559
0.679187 0.291940 0.118953
0.751513 0.291940 0.118348
0.816538 0.291940 0.117744
0.873274 0.291940 0.117141
0.921742 0.291940 0.116539
0.963209 0.291940 0.115939
1.000000 0.291940 0.115935
0.018494 0.366976 0.123859
0.057462 0.366976 0.123244
0.102299 0.366976 0.122631
0.154962 0.366976 0.122019
0.216045 0.366976 0.121408
0.285018 0.366976 0.120798
0.360465 0.366976 0.120189
0.440319 0.366976 0.119582
0.522105 0.366976 0.118975
0.603173 0.366976 0.118370
0.680936 0.366976 0.117766
0.753110 0.366976 0.117163
0.817951 0.366976 0.116561
0.874490 0.366976 0.115961
0.922272 0.366976 0.115935
0.963212 0.366976 0.115935
1.000000 0.366976 0.115935
0.019355 0.446128 0.122654
0.058425 0.446128 0.122041
0.103428 0.446128 0.121430
0.156284 0.446128 0.120820
0.217560 0.446128 0.120212
0.286702 0.446128 0.119604
0.362276 0.446128 0.118998
0.442205 0.446128 0.118392
0.524005 0.446128 0.117788
0.605024 0.446128 0.117185
0.682682 0.446128 0.116584
0.754703 0.446128 0.115983
0.818700 0.446128 0.115935
0.874517 0.446128 0.115935
0.922272 0.446128 0.115935
0.963212 0.446128 0.115935
1.000000 0.446128 0.115935
0.020217 0.526984 0.121453
0.059392 0.526984 0.120843
0.104561 0.526984 0.120234
0.157611 0.526984 0.119626
0.219079 0.526984 0.119020
0.288390 0.526984 0.118415
0.364091 0.526984 0.117811
0.444092 0.526984 0.117208
0.525904 0.526984 0.116606
0.606874 0.526984 0.116005
0.683641 0.526984 0.115935
0.754768 0.526984 0.115935
0.818700 0.526984 0.115935
0.874517 0.526984 0.115935
0.922272 0.526984 0.115935
0.963212 0.526984 0.115935
1.000000 0.526984 0.115935
0.021081 0.606984 0.120256
0.060362 0.606984 0.119649
0.105698 0.606984 0.119042
0.158942 0.606984 0.118437
0.220603 0.606984 0.117833
0.290081 0.606984 0.117230
0.365907 0.606984 0.116628
0.445980 0.606984 0.116027
0.526984 0.606984 0.115935
0.606984 0.606984 0.115935
0.683641 0.606984 0.115935
0.754768 0.606984 0.115935
0.818700 0.606984 0.115935
0.874517 0.606984 0.115935
0.922272 0.606984 0.115935
0.963212 0.606984 0.115935
1.000000 0.606984 0.115935
0.021946 0.683641 0.119065
0.061335 0.683641 0.118459
0.106839 0.683641 0.117855
0.160278 0.683641 0.117252
0.222130 0.683641 0.116650
0.291775 0.683641 0.116049
0.366976 0.683641 0.115935
0.446128 0.683641 0.115935
0.526984 0.683641 0.115935
0.606984 0.683641 0.115935
0.683641 0.683641 0.115935
0.754768 0.683641 0.115935
0.818700 0.683641 0.115935
0.874517 0.683641 0.115935
0.922272 0.683641 0.115935
0.963212 0.683641 0.115935
1.000000 0.683641 0.115935
0.022812 0.754768 0.117877
0.062312 0.754768 0.117274
0.107985 0.754768 0.116672
0.161618 0.754768 0.116071
0.223059 0.754768 0.115935
0.291940 0.754768 0.115935
0.366976 0.754768 0.115935
0.446128 0.754768 0.115935
0.526984 0.754768 0.115935
0.606984 0.754768 0.115935
0.683641 0.754768 0.115935
0.754768 0.754768 0.115935
0.818700 0.754768 0.115935
0.874517 0.754768 0.115935
0.922272 0.754768 0.115935
0.963212 0.754768 0.115935
1.000000 0.754768 0.115935
0.023681 0.818700 0.116694
0.063292 0.818700 0.116093
0.108703 0.818700 0.115935
0.161774 0.818700 0.115935
0.223059 0.818700 0.115935
0.291940 0.818700 0.115935
0.366976 0.818700 0.115935
0.446128 0.818700 0.115935
0.526984 0.818700 0.115935
0.606984 0.818700 0.115935
0.683641 0.818700 0.115935
0.754768 0.818700 0.115935
0.818700 0.818700 0.115935
0.874517 0.818700 0.115935
0.922272 0.818700 0.115935
0.963212 0.818700 0.115935
1.000000 0.818700 0.115935
0.024241 0.874517 0.115935
0.063424 0.874517 0.115935
0.108703 0.874517 0.115935
0.161774 0.874517 0.115935
0.223059 0.874517 0.115935
0.291940 0.874517 0.115935
0.366976 0.874517 0.115935
0.446128 0.874517 0.115935
0.526984 0.874517 0.115935
0.606984 0.874517 0.115935
0.683641 0.874517 0.115935
0.754768 0.874517 0.115935
0.818700 0.874517 0.115935
0.874517 0.874517 0.115935
0.922272 0.874517 0.115935
0.963212 0.874517 0.115935
1.000000 0.874517 0.115935
0.024241 0.922272 0.115935
0.063424 0.922272 0.115935
0.108703 0.922272 0.115935
0.161774 0.922272 0.115935
0.223059 0.922272 0.115935
0.291940 0.922272 0.115935
0.366976 0.922272 0.115935
0.446128 0.922272 0.115935
0.526984 0.922272 0.115935
0.606984 0.922272 0.115935
0.683641 0.922272 0.115935
0.754768 0.922272 0.115935
0.818700 0.922272 0.115935
0.874517 0.922272 0.115935
0.922272 0.922272 0.115935
0.963212 0.922272 0.115935
1.000000 0.922272 0.115935
0.024241 0.963212 0.115935
0.063424 0.963212 0.115935
0.108703 0.963212 0.115935
0.161774 0.963212 0.115935
0.223059 0.963212 0.115935
0.291940 0.963212 0.115935
0.366976 0.963212 0.115935
0.446128 0.963212 0.115935
0.526984 0.963212 0.115935
0.606984 0.963212 0.115935
0.683641 0.963212 0.115935
0.754768 0.963212 0.115935
0.818700 0.963212 0.115935
0.874517 0.963212 0.115935
0.922272 0.963212 0.115935
0.963212 0.963212 0.115935
1.000000 0.963212 0.115935
0.024241 1.000000 0.115935
0.063424 1.000000 0.115935
0.108703 1.000000 0.115935
0.161774 1.000000 0.115935
0.223059 1.000000 0.115935
0.291940 1.000000 0.115935
0.366976 1.000000 0.115935
0.446128 1.000000 0.115935
0.526984 1.000000 0.115935
0.606984 1.000000 0.115935
0.683641 1.000000 0.115935
0.754768 1.000000 0.115935
0.818700 1.000000 0.115935
0.874517 1.000000 0.115935
0.922272 1.000000 0.115935
0.963212 1.000000 0.115935
1.000000 1.000000 0.115935
0.013519 0.024241 0.187000
0.051929 0.024241 0.186274
0.095829 0.024241 0.185550
0.147375 0.024241 0.184826
0.207332 0.024241 0.184104
0.275307 0.024241 0.183383
0.349990 0.024241 0.182663
0.429388 0.024241 0.181944
0.511067 0.024241 0.181227
0.592386 0.024241 0.180511
0.670737 0.024241 0.179795
0.743780 0.024241 0.179081
0.809685 0.024241 0.178369
0.867365 0.024241 0.177657
0.916717 0.024241 0.176946
0.958858 0.024241 0.176237
0.996363 0.024241 0.175529
0.014372 0.063424 0.185576
