assets/luts/cinematic.cube
TITLE "Aftermovie Cinematic"
LUT_3D_SIZE 5
DOMAIN_MIN 0.0 0.0 0.0
DOMAIN_MAX 1.0 1.0 1.0
0.013027 0.024241 0.042163
0.206475 0.024241 0.040306
0.509971 0.024241 0.038460
0.808856 0.024241 0.036624
0.995875 0.024241 0.034798
0.016446 0.223059 0.038528
0.212451 0.223059 0.036692
0.517575 0.223059 0.034865
0.814575 0.223059 0.033048
0.999257 0.223059 0.031240
0.019885 0.526984 0.034932
0.218495 0.526984 0.033115
0.525174 0.526984 0.031306
0.818700 0.526984 0.030463
1.000000 0.526984 0.030463
0.023347 0.818700 0.031373
0.223059 0.818700 0.030463
0.526984 0.818700 0.030463
0.818700 0.818700 0.030463
1.000000 0.818700 0.030463
0.024241 1.000000 0.030463
0.223059 1.000000 0.030463
0.526984 1.000000 0.030463
0.818700 1.000000 0.030463
1.000000 1.000000 0.030463
0.013683 0.024241 0.250643
0.207618 0.024241 0.247382
0.511432 0.024241 0.244138
0.809961 0.024241 0.240911
0.996525 0.024241 0.237701
0.017106 0.223059 0.244257
0.213607 0.223059 0.241029
0.519036 0.223059 0.237818
0.815666 0.223059 0.234624
0.999907 0.223059 0.231447
0.020549 0.526984 0.237936
0.219664 0.526984 0.234741
0.526633 0.526984 0.231564
0.818700 0.526984 0.231276
1.000000 0.526984 0.231276
0.024015 0.818700 0.231680
0.223059 0.818700 0.231276
0.526984 0.818700 0.231276
0.818700 0.818700 0.231276
1.000000 0.818700 0.231276
0.024241 1.000000 0.231276
0.223059 1.000000 0.231276
0.526984 1.000000 0.231276
0.818700 1.000000 0.231276
1.000000 1.000000 0.231276
0.014339 0.024241 0.555465
0.208764 0.024241 0.551617
0.512894 0.024241 0.547765
0.811063 0.024241 0.543910
0.997176 0.024241 0.540052
0.017766 0.223059 0.547907
0.214766 0.223059 0.544052
0.520496 0.223059 0.540194
0.816755 0.223059 0.536333
1.000000 0.223059 0.533719
0.021213 0.526984 0.540336
0.220836 0.526984 0.536475
0.526984 0.526984 0.533719
0.818700 0.526984 0.533719
1.000000 0.526984 0.533719
0.024241 0.818700 0.533719
0.223059 0.818700 0.533719
0.526984 0.818700 0.533719
0.818700 0.818700 0.533719
1.000000 0.818700 0.533719
0.024241 1.000000 0.533719
0.223059 1.000000 0.533719
0.526984 1.000000 0.533719
0.818700 1.000000 0.533719
1.000000 1.000000 0.533719
0.014996 0.024241 0.835937
0.209912 0.024241 0.833175
0.514355 0.024241 0.830394
0.812162 0.024241 0.827595
0.997826 0.024241 0.824776
0.018427 0.223059 0.830497
0.215927 0.223059 0.827698
0.521957 0.223059 0.824880
0.817840 0.223059 0.822043
1.000000 0.223059 0.821191
0.021878 0.526984 0.824984
0.222011 0.526984 0.822148
0.526984 0.526984 0.821191
0.818700 0.526984 0.821191
1.000000 0.526984 0.821191
0.024241 0.818700 0.821191
0.223059 0.818700 0.821191
0.526984 0.818700 0.821191
0.818700 0.818700 0.821191
1.000000 0.818700 0.821191
0.024241 1.000000 0.821191
0.223059 1.000000 0.821191
0.526984 1.000000 0.821191
0.818700 1.000000 0.821191
1.000000 1.000000 0.821191
0.015654 0.024241 1.000000
0.211062 0.024241 1.000000
0.515817 0.024241 1.000000
0.813259 0.024241 1.000000
0.998475 0.024241 1.000000
0.019088 0.223059 1.000000
0.217091 0.223059 1.000000
0.523417 0.223059 1.000000
0.818700 0.223059 1.000000
1.000000 0.223059 1.000000
0.022544 0.526984 1.000000
0.223059 0.526984 1.000000
0.526984 0.526984 1.000000
0.818700 0.526984 1.000000
1.000000 0.526984 1.000000
0.024241 0.818700 1.000000
0.223059 0.818700 1.000000
0.526984 0.818700 1.000000
0.818700 0.818700 1.000000
1.000000 0.818700 1.000000
0.024241 1.000000 1.000000
0.223059 1.000000 1.000000
0.526984 1.000000 1.000000
0.818700 1.000000 1.000000
1.000000 1.000000 1.000000
