assets/luts/nostalgic.cube
TITLE "Aftermovie Nostalgic"
LUT_3D_SIZE 17
DOMAIN_MIN 0.0 0.0 0.0
DOMAIN_MAX 1.0 1.0 1.0
0.079022 0.070222 0.061422
0.130540 0.072240 0.063440
0.182059 0.074259 0.065459
0.233577 0.076277 0.067477
0.285095 0.078295 0.069495
0.336613 0.080313 0.071513
0.388132 0.082332 0.073531
0.439650 0.084350 0.075550
0.491168 0.086368 0.077568
0.542686 0.088386 0.079586
0.594205 0.090404 0.081604
0.645723 0.092423 0.083623
0.677092 0.093652 0.084852
0.708003 0.094863 0.086063
0.738914 0.096074 0.087274
0.769824 0.097284 0.088484
0.800735 0.098495 0.089695
0.083028 0.124278 0.065428
0.134547 0.126297 0.067447
0.186065 0.128315 0.069465
0.237583 0.130333 0.071483
0.289101 0.132351 0.073501
0.340620 0.134370 0.075520
0.392138 0.136388 0.077538
0.443656 0.138406 0.079556
0.495174 0.140424 0.081574
0.546693 0.142443 0.083593
0.598211 0.144461 0.085611
0.649729 0.146479 0.087629
0.681098 0.147708 0.088858
0.712009 0.148919 0.090069
0.742920 0.150130 0.091280
0.773831 0.151341 0.092491
0.804742 0.152552 0.093702
0.087035 0.178335 0.069435
0.138553 0.180353 0.071453
0.190071 0.182371 0.073471
0.241589 0.184389 0.075489
0.293108 0.186408 0.077508
0.344626 0.188426 0.079526
0.396144 0.190444 0.081544
0.447662 0.192462 0.083562
0.499181 0.194481 0.085581
0.550699 0.196499 0.087599
0.602217 0.198517 0.089617
0.653735 0.200535 0.091635
0.685104 0.201764 0.092864
0.716015 0.202975 0.094075
0.746926 0.204186 0.095286
0.777837 0.205397 0.096497
0.808748 0.206608 0.097708
0.091041 0.232391 0.073441
0.142559 0.234409 0.075459
0.194077 0.236427 0.077477
0.245596 0.238446 0.079496
0.297114 0.240464 0.081514
0.348632 0.242482 0.083532
0.400150 0.244500 0.085550
0.451669 0.246519 0.087569
0.503187 0.248537 0.089587
0.554705 0.250555 0.091605
0.606223 0.252573 0.093623
0.657742 0.254592 0.095642
0.689110 0.255820 0.096870
0.720021 0.257031 0.098081
0.750932 0.258242 0.099292
0.781843 0.259453 0.100503
0.812754 0.260664 0.101714
0.095047 0.286447 0.077447
0.146565 0.288465 0.079465
0.198084 0.290484 0.081484
0.249602 0.292502 0.083502
0.301120 0.294520 0.085520
0.352638 0.296538 0.087538
0.404157 0.298557 0.089557
0.455675 0.300575 0.091575
0.507193 0.302593 0.093593
0.558711 0.304611 0.095611
0.610230 0.306630 0.097630
0.661748 0.308648 0.099648
0.693117 0.309877 0.100877
0.724028 0.311088 0.102088
0.754939 0.312299 0.103299
0.785850 0.313510 0.104510
0.816761 0.314721 0.105721
0.099053 0.340503 0.081453
0.150572 0.342522 0.083472
0.202090 0.344540 0.085490
0.253608 0.346558 0.087508
0.305126 0.348576 0.089526
0.356645 0.350595 0.091545
0.408163 0.352613 0.093563
0.459681 0.354631 0.095581
0.511199 0.356649 0.097599
0.562718 0.358668 0.099618
0.614236 0.360686 0.101636
0.665754 0.362704 0.103654
0.697123 0.363933 0.104883
0.728034 0.365144 0.106094
0.758945 0.366355 0.107305
0.789856 0.367566 0.108516
0.820767 0.368777 0.109727
0.103060 0.394560 0.085460
0.154578 0.396578 0.087478
0.206096 0.398596 0.089496
0.257614 0.400614 0.091514
0.309133 0.402633 0.093533
0.360651 0.404651 0.095551
0.412169 0.406669 0.097569
0.463687 0.408687 0.099587
0.515206 0.410706 0.101606
0.566724 0.412724 0.103624
0.618242 0.414742 0.105642
0.669760 0.416760 0.107660
0.701129 0.417989 0.108889
0.732040 0.419200 0.110100
0.762951 0.420411 0.111311
0.793862 0.421622 0.112522
0.825115 0.423079 0.113323
0.107066 0.448616 0.089466
0.158584 0.450634 0.091484
0.210102 0.452652 0.093502
0.261621 0.454671 0.095521
0.313139 0.456689 0.097539
0.364657 0.458707 0.099557
0.416175 0.460725 0.101575
0.467694 0.462744 0.103594
0.519212 0.464762 0.105612
0.570730 0.466780 0.107630
0.622248 0.468798 0.109648
0.673767 0.470817 0.111667
0.705171 0.472071 0.112854
0.736526 0.473601 0.113532
0.767881 0.475132 0.114210
0.799236 0.476663 0.114888
0.830590 0.478193 0.115566
0.111072 0.502672 0.093472
0.162590 0.504690 0.095490
0.214109 0.506709 0.097509
0.265627 0.508727 0.099527
0.317145 0.510745 0.101545
0.368663 0.512763 0.103563
0.420182 0.514782 0.105582
0.471700 0.516800 0.107600
0.523218 0.518818 0.109618
0.574736 0.520836 0.111636
0.626568 0.523080 0.113279
0.678826 0.525631 0.114409
0.710646 0.527185 0.115097
0.742001 0.528715 0.115775
0.773356 0.530246 0.116453
0.804711 0.531777 0.117131
0.836066 0.533307 0.117810
0.115078 0.556728 0.097478
0.166597 0.558747 0.099497
0.218115 0.560765 0.101515
0.269633 0.562783 0.103533
0.321151 0.564801 0.105551
0.372670 0.566820 0.107570
0.424188 0.568838 0.109588
0.475706 0.570856 0.111606
0.527527 0.573092 0.113262
0.579785 0.575643 0.114392
0.632043 0.578194 0.115522
0.684302 0.580745 0.116652
0.716121 0.582299 0.117341
0.747476 0.583829 0.118019
0.778831 0.585360 0.118697
0.810186 0.586891 0.119375
0.841541 0.588421 0.120053
0.119085 0.610785 0.101485
0.170603 0.612803 0.103503
0.222121 0.614821 0.105521
0.273640 0.616839 0.107540
0.325158 0.618858 0.109558
0.376676 0.620876 0.111576
0.428485 0.623104 0.113245
0.480744 0.625655 0.114375
0.533002 0.628206 0.115505
0.585260 0.630757 0.116635
0.637519 0.633308 0.117766
0.689777 0.635859 0.118896
0.721596 0.637413 0.119584
0.752951 0.638943 0.120262
0.784306 0.640474 0.120940
0.815661 0.642005 0.121618
0.847016 0.643535 0.122297
0.123091 0.664841 0.105491
0.174609 0.666859 0.107509
0.226128 0.668878 0.109528
0.277646 0.670896 0.111546
0.329444 0.673116 0.113228
0.381702 0.675667 0.114358
0.433961 0.678218 0.115488
0.486219 0.680769 0.116619
0.538477 0.683320 0.117749
0.590736 0.685871 0.118879
0.642994 0.688422 0.120009
0.695252 0.690973 0.121139
0.727072 0.692527 0.121828
0.758427 0.694057 0.122506
0.789782 0.695588 0.123184
0.821136 0.697118 0.123862
0.852491 0.698649 0.124540
0.125618 0.698938 0.108018
0.177136 0.700956 0.110036
0.228655 0.702975 0.112055
0.280640 0.705329 0.113513
0.332898 0.707880 0.114643
0.385156 0.710431 0.115773
0.437414 0.712982 0.116903
0.489673 0.715533 0.118034
0.541931 0.718084 0.119164
0.594189 0.720635 0.120294
0.646447 0.723186 0.121424
0.698706 0.725737 0.122555
0.730525 0.727291 0.123243
0.761880 0.728821 0.123921
0.793235 0.730352 0.124599
0.824590 0.731883 0.125277
0.855945 0.733413 0.125955
0.128022 0.731372 0.110422
0.179540 0.733390 0.112440
0.231666 0.735846 0.113729
0.283925 0.738397 0.114859
0.336183 0.740948 0.115989
0.388441 0.743499 0.117119
0.440699 0.746050 0.118250
0.492958 0.748601 0.119380
0.545216 0.751153 0.120510
0.597474 0.753704 0.121640
0.649733 0.756255 0.122770
0.701991 0.758806 0.123901
0.733810 0.760359 0.124589
0.765165 0.761890 0.125267
0.796520 0.763420 0.125945
0.827875 0.764951 0.126623
0.859230 0.766482 0.127301
0.130435 0.763812 0.112814
0.182693 0.766363 0.113945
0.234952 0.768914 0.115075
0.287210 0.771466 0.116205
0.339468 0.774017 0.117335
0.391726 0.776568 0.118465
0.443985 0.779119 0.119596
0.496243 0.781670 0.120726
0.548501 0.784221 0.121856
0.600759 0.786772 0.122986
0.653018 0.789323 0.124117
0.705276 0.791874 0.125247
0.737095 0.793427 0.125935
0.768450 0.794958 0.126613
0.799805 0.796489 0.127291
0.831160 0.798019 0.127969
0.862515 0.799550 0.128647
0.133720 0.796881 0.114160
0.185978 0.799432 0.115291
0.238237 0.801983 0.116421
0.290495 0.804534 0.117551
0.342753 0.807085 0.118681
0.395011 0.809636 0.119812
0.447270 0.812187 0.120942
0.499528 0.814738 0.122072
0.551786 0.817289 0.123202
0.604045 0.819840 0.124332
0.656303 0.822391 0.125463
0.708561 0.824942 0.126593
0.740381 0.826496 0.127281
0.771736 0.828026 0.127959
0.803091 0.829557 0.128637
0.834446 0.831088 0.129315
0.865800 0.832618 0.129994
0.137005 0.829949 0.115507
0.189264 0.832500 0.116637
0.241522 0.835051 0.117767
0.293780 0.837602 0.118897
0.346038 0.840153 0.120027
0.398297 0.842704 0.121158
0.450555 0.845255 0.122288
0.502813 0.847807 0.123418
0.555071 0.850358 0.124548
0.607330 0.852909 0.125679
0.659588 0.855460 0.126809
0.711846 0.858011 0.127939
0.743666 0.859564 0.128627
0.775021 0.861095 0.129305
0.806376 0.862625 0.129983
0.837731 0.864156 0.130662
0.869086 0.865687 0.131340
0.079809 0.071009 0.112809
0.131327 0.073027 0.114827
0.182845 0.075045 0.116845
0.234363 0.077063 0.118863
0.285882 0.079082 0.120882
0.337400 0.081100 0.122900
0.388918 0.083118 0.124918
0.440436 0.085136 0.126936
0.491955 0.087155 0.128955
0.543473 0.089173 0.130973
0.594991 0.091191 0.132991
0.646509 0.093209 0.135009
0.677878 0.094438 0.136238
0.708789 0.095649 0.137449
0.739700 0.096860 0.138660
0.770611 0.098071 0.139871
0.801522 0.099282 0.141082
0.083815 0.125065 0.116815
0.135333 0.127083 0.118833
0.186851 0.129101 0.120851
0.238370 0.131120 0.122870
0.289888 0.133138 0.124888
0.341406 0.135156 0.126906
0.392924 0.137174 0.128924
0.444443 0.139193 0.130943
0.495961 0.141211 0.132961
0.547479 0.143229 0.134979
0.598997 0.145247 0.136997
0.650516 0.147266 0.139016
0.681885 0.148495 0.140245
0.712795 0.149705 0.141455
0.743706 0.150916 0.142666
0.774617 0.152127 0.143877
0.805528 0.153338 0.145088
0.087821 0.179121 0.120821
0.139339 0.181139 0.122839
0.190858 0.183158 0.124858
0.242376 0.185176 0.126876
0.293894 0.187194 0.128894
0.345412 0.189212 0.130912
0.396931 0.191231 0.132931
0.448449 0.193249 0.134949
0.499967 0.195267 0.136967
0.551485 0.197285 0.138985
0.603004 0.199304 0.141004
0.654522 0.201322 0.143022
0.685891 0.202551 0.144251
0.716802 0.203762 0.145462
0.747713 0.204973 0.146673
0.778624 0.206184 0.147884
0.809535 0.207395 0.149095
0.091827 0.233177 0.124827
0.143346 0.235196 0.126846
0.194864 0.237214 0.128864
0.246382 0.239232 0.130882
0.297900 0.241250 0.132900
0.349419 0.243269 0.134919
0.400937 0.245287 0.136937
0.452455 0.247305 0.138955
0.503973 0.249323 0.140973
0.555492 0.251342 0.142992
0.607010 0.253360 0.145010
0.658528 0.255378 0.147028
0.689897 0.256607 0.148257
0.720808 0.257818 0.149468
0.751719 0.259029 0.150679
0.782630 0.260240 0.151890
0.813541 0.261451 0.153101
0.095834 0.287234 0.128834
0.147352 0.289252 0.130852
0.198870 0.291270 0.132870
0.250388 0.293288 0.134888
0.301907 0.295307 0.136907
0.353425 0.297325 0.138925
0.404943 0.299343 0.140943
0.456461 0.301361 0.142961
0.507980 0.303380 0.144980
0.559498 0.305398 0.146998
0.611016 0.307416 0.149016
0.662534 0.309434 0.151034
0.693903 0.310663 0.152263
0.724814 0.311874 0.153474
0.755725 0.313085 0.154685
0.786636 0.314296 0.155896
0.817547 0.315507 0.157107
0.099840 0.341290 0.132840
0.151358 0.343308 0.134858
0.202876 0.345326 0.136876
0.254395 0.347345 0.138895
0.305913 0.349363 0.140913
0.357431 0.351381 0.142931
0.408949 0.353399 0.144949
0.460468 0.355418 0.146968
0.511986 0.357436 0.148986
0.563504 0.359454 0.151004
0.615022 0.361472 0.153022
0.666541 0.363491 0.155041
0.697910 0.364720 0.156270
0.728821 0.365931 0.157481
0.759732 0.367142 0.158692
0.790642 0.368352 0.159902
0.821553 0.369563 0.161113
0.103846 0.395346 0.136846
0.155365 0.397365 0.138865
0.206883 0.399383 0.140883
0.258401 0.401401 0.142901
0.309919 0.403419 0.144919
0.361438 0.405438 0.146937
0.412956 0.407456 0.148956
0.464474 0.409474 0.150974
0.515992 0.411492 0.152992
0.567510 0.413511 0.155010
0.619029 0.415529 0.157029
0.670547 0.417547 0.159047
0.701916 0.418776 0.160276
0.732827 0.419987 0.161487
0.763738 0.421198 0.162698
0.794835 0.422543 0.163685
0.826190 0.424074 0.164363
0.107853 0.449403 0.140853
0.159371 0.451421 0.142871
0.210889 0.453439 0.144889
0.262407 0.455457 0.146907
0.313926 0.457476 0.148926
0.365444 0.459494 0.150944
0.416962 0.461512 0.152962
0.468480 0.463530 0.154980
0.519999 0.465549 0.156999
0.571517 0.467567 0.159017
0.623035 0.469585 0.161035
0.674553 0.471603 0.163053
0.706246 0.473065 0.163894
0.737601 0.474596 0.164572
0.768956 0.476126 0.165250
0.800311 0.477657 0.165928
0.831665 0.479188 0.166607
0.111859 0.503459 0.144859
0.163377 0.505477 0.146877
0.214895 0.507495 0.148895
0.266414 0.509514 0.150914
0.317932 0.511532 0.152932
0.369450 0.513550 0.154950
0.420968 0.515568 0.156968
0.472487 0.517587 0.158987
0.524005 0.519605 0.161005
0.575523 0.521623 0.163023
0.627643 0.524075 0.164319
0.679901 0.526626 0.165449
0.711721 0.528179 0.166138
0.743076 0.529710 0.166816
0.774431 0.531240 0.167494
0.805786 0.532771 0.168172
0.837141 0.534302 0.168850
0.115865 0.557515 0.148865
0.167383 0.559533 0.150883
0.218902 0.561552 0.152902
0.270420 0.563570 0.154920
0.321938 0.565588 0.156938
0.373456 0.567606 0.158956
0.424975 0.569625 0.160975
0.476493 0.571643 0.162993
0.528602 0.574086 0.164302
0.580860 0.576637 0.165432
0.633118 0.579189 0.166563
0.685377 0.581740 0.167693
0.717196 0.583293 0.168381
0.748551 0.584824 0.169059
0.779906 0.586354 0.169737
0.811261 0.587885 0.170415
0.842616 0.589415 0.171094
0.119871 0.611571 0.152871
0.171390 0.613590 0.154890
0.222908 0.615608 0.156908
0.274426 0.617626 0.158926
0.325944 0.619644 0.160944
0.377463 0.621663 0.162963
0.429560 0.624098 0.164285
0.481819 0.626649 0.165415
0.534077 0.629200 0.166546
0.586335 0.631751 0.167676
0.638594 0.634302 0.168806
0.690852 0.636854 0.169936
0.722671 0.638407 0.170625
0.754026 0.639937 0.171303
0.785381 0.641468 0.171981
0.816736 0.642999 0.172659
0.848091 0.644529 0.173337
0.123878 0.665628 0.156878
0.175396 0.667646 0.158896
0.226914 0.669664 0.160914
0.278432 0.671682 0.162932
0.330519 0.674110 0.164268
0.382777 0.676661 0.165399
0.435036 0.679212 0.166529
0.487294 0.681763 0.167659
0.539552 0.684314 0.168789
0.591811 0.686865 0.169919
0.644069 0.689416 0.171050
0.696327 0.691967 0.172180
0.728147 0.693521 0.172868
0.759502 0.695051 0.173546
0.790857 0.696582 0.174224
0.822211 0.698113 0.174902
0.853566 0.699643 0.175581
0.126405 0.699725 0.159405
0.177923 0.701743 0.161423
0.229456 0.703772 0.163423
0.281715 0.706323 0.164553
0.333973 0.708874 0.165683
0.386231 0.711425 0.166814
0.438489 0.713976 0.167944
0.490748 0.716527 0.169074
0.543006 0.719078 0.170204
0.595264 0.721630 0.171335
0.647522 0.724181 0.172465
0.699781 0.726732 0.173595
0.731600 0.728285 0.174283
0.762955 0.729816 0.174961
0.794310 0.731346 0.175639
0.825665 0.732877 0.176318
0.857020 0.734408 0.176996
0.128808 0.732158 0.161808
0.180483 0.734289 0.163639
0.232741 0.736840 0.164769
0.285000 0.739391 0.165899
0.337258 0.741943 0.167030
0.389516 0.744494 0.168160
0.441774 0.747045 0.169290
0.494033 0.749596 0.170420
0.546291 0.752147 0.171550
0.598549 0.754698 0.172681
0.650808 0.757249 0.173811
0.703066 0.759800 0.174941
0.734885 0.761353 0.175629
0.766240 0.762884 0.176307
0.797595 0.764415 0.176986
0.828950 0.765945 0.177664
0.860305 0.767476 0.178342
0.131510 0.764807 0.163855
0.183768 0.767358 0.164985
0.236027 0.769909 0.166115
0.288285 0.772460 0.167245
0.340543 0.775011 0.168376
0.392801 0.777562 0.169506
0.445060 0.780113 0.170636
0.497318 0.782664 0.171766
0.549576 0.785215 0.172897
0.601834 0.787766 0.174027
0.654093 0.790317 0.175157
0.706351 0.792868 0.176287
0.738171 0.794422 0.176975
0.769525 0.795952 0.177654
0.800880 0.797483 0.178332
0.832235 0.799014 0.179010
0.863590 0.800544 0.179688
0.134795 0.797875 0.165201
0.187053 0.800426 0.166331
0.239312 0.802977 0.167461
0.291570 0.805528 0.168592
0.343828 0.808079 0.169722
0.396087 0.810630 0.170852
0.448345 0.813181 0.171982
0.500603 0.815732 0.173112
0.552861 0.818284 0.174243
0.605120 0.820835 0.175373
0.657378 0.823386 0.176503
0.709636 0.825937 0.177633
0.741456 0.827490 0.178322
0.772811 0.829021 0.179000
0.804166 0.830551 0.179678
0.835521 0.832082 0.180356
0.866876 0.833613 0.181034
0.138080 0.830943 0.166547
0.190339 0.833494 0.167677
0.242597 0.836045 0.168807
0.294855 0.838597 0.169938
0.347113 0.841148 0.171068
0.399372 0.843699 0.172198
0.451630 0.846250 0.173328
0.503888 0.848801 0.174459
0.556146 0.851352 0.175589
0.608405 0.853903 0.176719
0.660663 0.856454 0.177849
0.712921 0.859005 0.178979
0.744741 0.860558 0.179668
0.776096 0.862089 0.180346
0.807451 0.863620 0.181024
0.838806 0.865150 0.181702
0.870161 0.866681 0.182380
0.080595 0.071795 0.164195
0.132113 0.073813 0.166213
0.183632 0.075832 0.168232
0.235150 0.077850 0.170250
0.286668 0.079868 0.172268
0.338186 0.081886 0.174286
0.389705 0.083905 0.176305
0.441223 0.085923 0.178323
0.492741 0.087941 0.180341
0.544259 0.089959 0.182359
0.595778 0.091978 0.184378
0.647296 0.093996 0.186396
0.678665 0.095225 0.187625
0.709576 0.096436 0.188836
0.740487 0.097647 0.190047
0.771398 0.098858 0.191258
0.802309 0.100069 0.192469
0.084601 0.125851 0.168201
0.136120 0.127870 0.170220
0.187638 0.129888 0.172238
0.239156 0.131906 0.174256
0.290674 0.133924 0.176274
0.342193 0.135943 0.178293
0.393711 0.137961 0.180311
0.445229 0.139979 0.182329
0.496747 0.141997 0.184347
0.548266 0.144016 0.186366
0.599784 0.146034 0.188384
0.651302 0.148052 0.190402
0.682671 0.149281 0.191631
0.713582 0.150492 0.192842
0.744493 0.151703 0.194053
0.775404 0.152914 0.195264
0.806315 0.154125 0.196475
0.088608 0.179908 0.172208
0.140126 0.181926 0.174226
0.191644 0.183944 0.176244
0.243163 0.185963 0.178262
0.294681 0.187981 0.180281
0.346199 0.189999 0.182299
0.397717 0.192017 0.184317
0.449236 0.194036 0.186335
0.500754 0.196054 0.188354
0.552272 0.198072 0.190372
0.603790 0.200090 0.192390
0.655309 0.202109 0.194408
0.686677 0.203337 0.195637
0.717588 0.204548 0.196848
0.748499 0.205759 0.198059
0.779410 0.206970 0.199270
0.810321 0.208181 0.200481
0.092614 0.233964 0.176214
0.144132 0.235982 0.178232
0.195651 0.238001 0.180251
0.247169 0.240019 0.182269
0.298687 0.242037 0.184287
0.350205 0.244055 0.186305
0.401724 0.246074 0.188324
0.453242 0.248092 0.190342
0.504760 0.250110 0.192360
0.556278 0.252128 0.194378
0.607797 0.254147 0.196397
0.659315 0.256165 0.198415
0.690684 0.257394 0.199644
0.721595 0.258605 0.200855
0.752506 0.259816 0.202066
0.783417 0.261027 0.203277
0.814327 0.262237 0.204487
0.096620 0.288020 0.180220
0.148139 0.290039 0.182239
0.199657 0.292057 0.184257
0.251175 0.294075 0.186275
0.302693 0.296093 0.188293
0.354212 0.298112 0.190312
0.405730 0.300130 0.192330
0.457248 0.302148 0.194348
0.508766 0.304166 0.196366
0.560285 0.306185 0.198385
0.611803 0.308203 0.200403
0.663321 0.310221 0.202421
0.694690 0.311450 0.203650
0.725601 0.312661 0.204861
0.756512 0.313872 0.206072
0.787423 0.315083 0.207283
0.818334 0.316294 0.208494
0.100627 0.342077 0.184227
0.152145 0.344095 0.186245
0.203663 0.346113 0.188263
0.255181 0.348131 0.190281
0.306700 0.350150 0.192300
0.358218 0.352168 0.194318
0.409736 0.354186 0.196336
0.461254 0.356204 0.198354
0.512773 0.358223 0.200373
0.564291 0.360241 0.202391
0.615809 0.362259 0.204409
0.667327 0.364277 0.206427
0.698696 0.365506 0.207656
0.729607 0.366717 0.208867
0.760518 0.367928 0.210078
0.791429 0.369139 0.211289
0.822340 0.370350 0.212500
0.104633 0.396133 0.188233
0.156151 0.398151 0.190251
0.207669 0.400169 0.192269
0.259188 0.402188 0.194288
0.310706 0.404206 0.196306
0.362224 0.406224 0.198324
0.413742 0.408242 0.200342
0.465261 0.410261 0.202361
0.516779 0.412279 0.204379
0.568297 0.414297 0.206397
0.619815 0.416315 0.208415
0.671334 0.418334 0.210434
0.702702 0.419562 0.211662
0.733613 0.420773 0.212873
0.764555 0.422007 0.214047
0.795910 0.423537 0.214725
0.827265 0.425068 0.215404
0.108639 0.450189 0.192239
0.160157 0.452207 0.194257
0.211676 0.454226 0.196276
0.263194 0.456244 0.198294
0.314712 0.458262 0.200312
0.366230 0.460280 0.202330
0.417749 0.462299 0.204349
0.469267 0.464317 0.206367
0.520785 0.466335 0.208385
0.572303 0.468353 0.210403
0.623822 0.470372 0.212422
0.675501 0.472506 0.214246
0.707321 0.474059 0.214935
0.738676 0.475590 0.215613
0.770031 0.477121 0.216291
0.801386 0.478651 0.216969
0.832741 0.480182 0.217647
0.112645 0.504245 0.196245
0.164164 0.506264 0.198264
0.215682 0.508282 0.200282
0.267200 0.510300 0.202300
0.318718 0.512318 0.204318
0.370237 0.514337 0.206337
0.421755 0.516355 0.208355
0.473273 0.518373 0.210373
0.524791 0.520391 0.212391
0.576460 0.522518 0.214229
0.628718 0.525069 0.215360
0.680976 0.527620 0.216490
0.712796 0.529173 0.217178
0.744151 0.530704 0.217856
0.775506 0.532235 0.218534
0.806861 0.533765 0.219212
0.838216 0.535296 0.219891
0.116652 0.558302 0.200252
0.168170 0.560320 0.202270
0.219688 0.562338 0.204288
0.271206 0.564356 0.206306
0.322725 0.566375 0.208325
0.374243 0.568393 0.210343
0.425761 0.570411 0.212361
0.477419 0.572530 0.214212
0.529677 0.575081 0.215343
0.581935 0.577632 0.216473
0.634193 0.580183 0.217603
0.686452 0.582734 0.218733
0.718271 0.584287 0.219422
0.749626 0.585818 0.220100
0.780981 0.587348 0.220778
0.812336 0.588879 0.221456
0.843691 0.590410 0.222134
0.120658 0.612358 0.204258
0.172176 0.614376 0.206276
0.223694 0.616394 0.208294
0.275213 0.618413 0.210313
0.326731 0.620431 0.212331
0.378377 0.622541 0.214196
0.430636 0.625092 0.215326
0.482894 0.627644 0.216456
0.535152 0.630195 0.217586
0.587410 0.632746 0.218716
0.639669 0.635297 0.219847
0.691927 0.637848 0.220977
0.723746 0.639401 0.221665
0.755101 0.640932 0.222343
0.786456 0.642462 0.223021
0.817811 0.643993 0.223699
0.849166 0.645524 0.224378
0.124664 0.666414 0.208264
0.176182 0.668432 0.210282
0.227701 0.670451 0.212301
0.279336 0.672553 0.214179
0.331594 0.675104 0.215309
0.383852 0.677655 0.216439
0.436111 0.680206 0.217569
0.488369 0.682757 0.218700
0.540627 0.685309 0.219830
0.592886 0.687860 0.220960
0.645144 0.690411 0.222090
0.697402 0.692962 0.223220
0.729222 0.694515 0.223909
0.760577 0.696046 0.224587
0.791932 0.697576 0.225265
0.823287 0.699107 0.225943
0.854641 0.700638 0.226621
0.127191 0.700511 0.210791
0.178710 0.702530 0.212810
0.230531 0.704766 0.214464
0.282790 0.707317 0.215594
0.335048 0.709868 0.216724
0.387306 0.712419 0.217854
0.439564 0.714971 0.218984
0.491823 0.717522 0.220115
0.544081 0.720073 0.221245
0.596339 0.722624 0.222375
0.648597 0.725175 0.223505
0.700856 0.727726 0.224636
0.732675 0.729279 0.225324
0.764030 0.730810 0.226002
0.795385 0.732340 0.226680
0.826740 0.733871 0.227358
0.858095 0.735402 0.228036
0.129595 0.732945 0.213195
0.181558 0.735284 0.214679
0.233816 0.737835 0.215810
0.286075 0.740386 0.216940
0.338333 0.742937 0.218070
0.390591 0.745488 0.219200
0.442850 0.748039 0.220331
0.495108 0.750590 0.221461
0.547366 0.753141 0.222591
0.599624 0.755692 0.223721
0.651883 0.758243 0.224851
0.704141 0.760794 0.225982
0.735960 0.762348 0.226670
0.767315 0.763878 0.227348
0.798670 0.765409 0.228026
0.830025 0.766939 0.228704
0.861380 0.768470 0.229382
0.132585 0.765801 0.214895
0.184843 0.768352 0.216026
0.237102 0.770903 0.217156
0.289360 0.773454 0.218286
0.341618 0.776005 0.219416
0.393876 0.778556 0.220546
0.446135 0.781107 0.221677
0.498393 0.783658 0.222807
0.550651 0.786209 0.223937
0.602909 0.788760 0.225067
0.655168 0.791312 0.226198
0.707426 0.793863 0.227328
0.739246 0.795416 0.228016
0.770600 0.796947 0.228694
0.801955 0.798477 0.229372
0.833310 0.800008 0.230050
0.864665 0.801538 0.230728
0.135870 0.798869 0.216241
0.188128 0.801420 0.217372
0.240387 0.803971 0.218502
0.292645 0.806522 0.219632
0.344903 0.809074 0.220762
0.397162 0.811625 0.221893
0.449420 0.814176 0.223023
0.501678 0.816727 0.224153
0.553936 0.819278 0.225283
0.606195 0.821829 0.226413
0.658453 0.824380 0.227544
0.710711 0.826931 0.228674
0.742531 0.828484 0.229362
0.773886 0.830015 0.230040
0.805241 0.831546 0.230718
0.836596 0.833076 0.231396
0.867951 0.834607 0.232075
0.139155 0.831938 0.217588
0.191414 0.834489 0.218718
0.243672 0.837040 0.219848
0.295930 0.839591 0.220978
0.348188 0.842142 0.222108
0.400447 0.844693 0.223239
0.452705 0.847244 0.224369
0.504963 0.849795 0.225499
0.557222 0.852346 0.226629
0.609480 0.854897 0.227760
0.661738 0.857448 0.228890
0.713996 0.859999 0.230020
0.745816 0.861553 0.230708
0.777171 0.863083 0.231386
0.808526 0.864614 0.232064
0.839881 0.866145 0.232743
0.871236 0.867675 0.233421
0.081382 0.072582 0.215582
0.132900 0.074600 0.217600
0.184418 0.076618 0.219618
0.235937 0.078637 0.221637
0.287455 0.080655 0.223655
0.338973 0.082673 0.225673
0.390491 0.084691 0.227691
0.442010 0.086710 0.229710
0.493528 0.088728 0.231728
0.545046 0.090746 0.233746
0.596564 0.092764 0.235764
0.648083 0.094783 0.237783
0.679451 0.096011 0.239011
0.710362 0.097222 0.240222
0.741273 0.098433 0.241433
0.772184 0.099644 0.242644
0.803095 0.100855 0.243855
0.085388 0.126638 0.219588
