assets/luts/nostalgic.cube
TITLE "Aftermovie Nostalgic"
LUT_3D_SIZE 5
DOMAIN_MIN 0.0 0.0 0.0
DOMAIN_MAX 1.0 1.0 1.0
0.079022 0.070222 0.061422
0.285095 0.078295 0.069495
0.491168 0.086368 0.077568
0.677092 0.093652 0.084852
0.800735 0.098495 0.089695
0.095047 0.286447 0.077447
0.301120 0.294520 0.085520
0.507193 0.302593 0.093593
0.693117 0.309877 0.100877
0.816761 0.314721 0.105721
0.111072 0.502672 0.093472
0.317145 0.510745 0.101545
0.523218 0.518818 0.109618
0.710646 0.527185 0.115097
0.836066 0.533307 0.117810
0.125618 0.698938 0.108018
0.332898 0.707880 0.114643
0.541931 0.718084 0.119164
0.730525 0.727291 0.123243
0.855945 0.733413 0.125955
0.137005 0.829949 0.115507
0.346038 0.840153 0.120027
0.555071 0.850358 0.124548
0.743666 0.859564 0.128627
0.869086 0.865687 0.131340
0.082168 0.073368 0.266968
0.288241 0.081441 0.275041
0.494314 0.089514 0.283114
0.680238 0.096798 0.290398
0.803882 0.101642 0.295242
0.098193 0.289594 0.282994
0.304266 0.297667 0.291067
0.510340 0.305739 0.299140
0.696263 0.313023 0.306423
0.819907 0.317867 0.311267
0.114219 0.505819 0.299019
0.320292 0.513892 0.307092
0.526365 0.521965 0.315165
0.714946 0.531162 0.319259
0.840366 0.537284 0.321972
0.128764 0.702084 0.313564
0.337198 0.711857 0.318805
0.546231 0.722061 0.323326
0.734825 0.731268 0.327405
0.860245 0.737390 0.330117
0.141305 0.833926 0.319669
0.350338 0.844130 0.324189
0.559372 0.854335 0.328710
0.747966 0.863541 0.332789
0.873386 0.869664 0.335502
0.085315 0.076515 0.472515
0.291388 0.084588 0.480588
0.497461 0.092661 0.488661
0.683384 0.099944 0.495944
0.807028 0.104788 0.500788
0.101340 0.292740 0.488540
0.307413 0.300813 0.496613
0.513486 0.308886 0.504686
0.699410 0.316170 0.511970
0.823053 0.321013 0.516813
0.117365 0.508965 0.504565
0.323438 0.517038 0.512638
0.530652 0.525932 0.519342
0.719246 0.535139 0.523421
0.844666 0.541261 0.526134
0.132465 0.705630 0.518446
0.341498 0.715834 0.522967
0.550531 0.726038 0.527488
0.739125 0.735245 0.531567
0.864545 0.741367 0.534279
0.145605 0.837903 0.523831
0.354639 0.848107 0.528351
0.563672 0.858312 0.532872
0.752266 0.867518 0.536951
0.877686 0.873641 0.539664
0.088188 0.079388 0.660188
0.294261 0.087461 0.668261
0.500334 0.095534 0.676334
0.686257 0.102817 0.683617
0.809901 0.107661 0.688461
0.104213 0.295613 0.676213
0.310286 0.303686 0.684286
0.516359 0.311759 0.692359
0.702282 0.319042 0.699642
0.826691 0.324437 0.703568
0.120238 0.511838 0.692238
0.326311 0.519911 0.700311
0.534578 0.529564 0.705751
0.723172 0.538770 0.709830
0.848592 0.544893 0.712542
0.136391 0.709261 0.704855
0.345424 0.719465 0.709376
0.554457 0.729669 0.713897
0.743052 0.738876 0.717975
0.868471 0.744999 0.720688
0.149532 0.841534 0.710239
0.358565 0.851739 0.714760
0.567598 0.861943 0.719281
0.756192 0.871149 0.723360
0.881612 0.877272 0.726072
0.090075 0.081275 0.783515
0.296148 0.089348 0.791588
0.502221 0.097421 0.799661
0.688145 0.104705 0.806945
0.811789 0.109549 0.811789
0.106101 0.297501 0.799541
0.312174 0.305574 0.807614
0.518247 0.313647 0.815687
0.704170 0.320930 0.822970
0.829271 0.326823 0.826065
0.122126 0.513726 0.815566
0.328199 0.521799 0.823639
0.537158 0.531950 0.828248
0.725752 0.541156 0.832327
0.851172 0.547279 0.835039
0.138971 0.711647 0.827352
0.348004 0.721851 0.831873
0.557037 0.732056 0.836394
0.745632 0.741262 0.840473
0.871051 0.747385 0.843185
0.152112 0.843921 0.832736
0.361145 0.854125 0.837257
0.570178 0.864329 0.841778
0.758772 0.873536 0.845857
0.884192 0.879658 0.848570
