assets/luts/nostalgic.cube
TITLE "Aftermovie Nostalgic"
LUT_3D_SIZE 9
DOMAIN_MIN 0.0 0.0 0.0
DOMAIN_MAX 1.0 1.0 1.0
0.079022 0.070222 0.061422
0.182059 0.074259 0.065459
0.285095 0.078295 0.069495
0.388132 0.082332 0.073531
0.491168 0.086368 0.077568
0.594205 0.090404 0.081604
0.677092 0.093652 0.084852
0.738914 0.096074 0.087274
0.800735 0.098495 0.089695
0.087035 0.178335 0.069435
0.190071 0.182371 0.073471
0.293108 0.186408 0.077508
0.396144 0.190444 0.081544
0.499181 0.194481 0.085581
0.602217 0.198517 0.089617
0.685104 0.201764 0.092864
0.746926 0.204186 0.095286
0.808748 0.206608 0.097708
0.095047 0.286447 0.077447
0.198084 0.290484 0.081484
0.301120 0.294520 0.085520
0.404157 0.298557 0.089557
0.507193 0.302593 0.093593
0.610230 0.306630 0.097630
0.693117 0.309877 0.100877
0.754939 0.312299 0.103299
0.816761 0.314721 0.105721
0.103060 0.394560 0.085460
0.206096 0.398596 0.089496
0.309133 0.402633 0.093533
0.412169 0.406669 0.097569
0.515206 0.410706 0.101606
0.618242 0.414742 0.105642
0.701129 0.417989 0.108889
0.762951 0.420411 0.111311
0.825115 0.423079 0.113323
0.111072 0.502672 0.093472
0.214109 0.506709 0.097509
0.317145 0.510745 0.101545
0.420182 0.514782 0.105582
0.523218 0.518818 0.109618
0.626568 0.523080 0.113279
0.710646 0.527185 0.115097
0.773356 0.530246 0.116453
0.836066 0.533307 0.117810
0.119085 0.610785 0.101485
0.222121 0.614821 0.105521
0.325158 0.618858 0.109558
0.428485 0.623104 0.113245
0.533002 0.628206 0.115505
0.637519 0.633308 0.117766
0.721596 0.637413 0.119584
0.784306 0.640474 0.120940
0.847016 0.643535 0.122297
0.125618 0.698938 0.108018
0.228655 0.702975 0.112055
0.332898 0.707880 0.114643
0.437414 0.712982 0.116903
0.541931 0.718084 0.119164
0.646447 0.723186 0.121424
0.730525 0.727291 0.123243
0.793235 0.730352 0.124599
0.855945 0.733413 0.125955
0.130435 0.763812 0.112814
0.234952 0.768914 0.115075
0.339468 0.774017 0.117335
0.443985 0.779119 0.119596
0.548501 0.784221 0.121856
0.653018 0.789323 0.124117
0.737095 0.793427 0.125935
0.799805 0.796489 0.127291
0.862515 0.799550 0.128647
0.137005 0.829949 0.115507
0.241522 0.835051 0.117767
0.346038 0.840153 0.120027
0.450555 0.845255 0.122288
0.555071 0.850358 0.124548
0.659588 0.855460 0.126809
0.743666 0.859564 0.128627
0.806376 0.862625 0.129983
0.869086 0.865687 0.131340
0.080595 0.071795 0.164195
0.183632 0.075832 0.168232
0.286668 0.079868 0.172268
0.389705 0.083905 0.176305
0.492741 0.087941 0.180341
0.595778 0.091978 0.184378
0.678665 0.095225 0.187625
0.740487 0.097647 0.190047
0.802309 0.100069 0.192469
0.088608 0.179908 0.172208
0.191644 0.183944 0.176244
0.294681 0.187981 0.180281
0.397717 0.192017 0.184317
0.500754 0.196054 0.188354
0.603790 0.200090 0.192390
0.686677 0.203337 0.195637
0.748499 0.205759 0.198059
0.810321 0.208181 0.200481
0.096620 0.288020 0.180220
0.199657 0.292057 0.184257
0.302693 0.296093 0.188293
0.405730 0.300130 0.192330
0.508766 0.304166 0.196366
0.611803 0.308203 0.200403
0.694690 0.311450 0.203650
0.756512 0.313872 0.206072
0.818334 0.316294 0.208494
0.104633 0.396133 0.188233
0.207669 0.400169 0.192269
0.310706 0.404206 0.196306
0.413742 0.408242 0.200342
0.516779 0.412279 0.204379
0.619815 0.416315 0.208415
0.702702 0.419562 0.211662
0.764555 0.422007 0.214047
0.827265 0.425068 0.215404
0.112645 0.504245 0.196245
0.215682 0.508282 0.200282
0.318718 0.512318 0.204318
0.421755 0.516355 0.208355
0.524791 0.520391 0.212391
0.628718 0.525069 0.215360
0.712796 0.529173 0.217178
0.775506 0.532235 0.218534
0.838216 0.535296 0.219891
0.120658 0.612358 0.204258
0.223694 0.616394 0.208294
0.326731 0.620431 0.212331
0.430636 0.625092 0.215326
0.535152 0.630195 0.217586
0.639669 0.635297 0.219847
0.723746 0.639401 0.221665
0.786456 0.642462 0.223021
0.849166 0.645524 0.224378
0.127191 0.700511 0.210791
0.230531 0.704766 0.214464
0.335048 0.709868 0.216724
0.439564 0.714971 0.218984
0.544081 0.720073 0.221245
0.648597 0.725175 0.223505
0.732675 0.729279 0.225324
0.795385 0.732340 0.226680
0.858095 0.735402 0.228036
0.132585 0.765801 0.214895
0.237102 0.770903 0.217156
0.341618 0.776005 0.219416
0.446135 0.781107 0.221677
0.550651 0.786209 0.223937
0.655168 0.791312 0.226198
0.739246 0.795416 0.228016
0.801955 0.798477 0.229372
0.864665 0.801538 0.230728
0.139155 0.831938 0.217588
0.243672 0.837040 0.219848
0.348188 0.842142 0.222108
0.452705 0.847244 0.224369
0.557222 0.852346 0.226629
0.661738 0.857448 0.228890
0.745816 0.861553 0.230708
0.808526 0.864614 0.232064
0.871236 0.867675 0.233421
0.082168 0.073368 0.266968
0.185205 0.077405 0.271005
0.288241 0.081441 0.275041
0.391278 0.085478 0.279078
0.494314 0.089514 0.283114
0.597351 0.093551 0.287151
0.680238 0.096798 0.290398
0.742060 0.099220 0.292820
0.803882 0.101642 0.295242
0.090181 0.181481 0.274981
0.193217 0.185517 0.279017
0.296254 0.189554 0.283054
0.399290 0.193590 0.287090
0.502327 0.197627 0.291127
0.605363 0.201663 0.295163
0.688251 0.204911 0.298411
0.750072 0.207332 0.300832
0.811894 0.209754 0.303254
0.098193 0.289594 0.282994
0.201230 0.293630 0.287030
0.304266 0.297667 0.291067
0.407303 0.301703 0.295103
0.510340 0.305739 0.299140
0.613376 0.309776 0.303176
0.696263 0.313023 0.306423
0.758085 0.315445 0.308845
0.819907 0.317867 0.311267
0.106206 0.397706 0.291006
0.209243 0.401743 0.295043
0.312279 0.405779 0.299079
0.415316 0.409816 0.303116
0.518352 0.413852 0.307152
0.621389 0.417889 0.311189
0.704276 0.421136 0.314436
0.766705 0.423995 0.316128
0.829415 0.427056 0.317485
0.114219 0.505819 0.299019
0.217255 0.509855 0.303055
0.320292 0.513892 0.307092
0.423328 0.517928 0.311128
0.526365 0.521965 0.315165
0.630868 0.527057 0.317441
0.714946 0.531162 0.319259
0.777656 0.534223 0.320615
0.840366 0.537284 0.321972
0.122231 0.613931 0.307031
0.225268 0.617968 0.311068
0.328304 0.622004 0.315104
0.432786 0.627081 0.317407
0.537302 0.632183 0.319667
0.641819 0.637285 0.321928
0.725896 0.641390 0.323746
0.788606 0.644451 0.325102
0.851316 0.647512 0.326459
0.128764 0.702084 0.313564
0.232681 0.706755 0.316545
0.337198 0.711857 0.318805
0.441714 0.716959 0.321065
0.546231 0.722061 0.323326
0.650748 0.727163 0.325586
0.734825 0.731268 0.327405
0.797535 0.734329 0.328761
0.860245 0.737390 0.330117
0.134735 0.767789 0.316976
0.239252 0.772892 0.319237
0.343768 0.777994 0.321497
0.448285 0.783096 0.323758
0.552801 0.788198 0.326018
0.657318 0.793300 0.328279
0.741396 0.797404 0.330097
0.804105 0.800466 0.331453
0.866815 0.803527 0.332809
0.141305 0.833926 0.319669
0.245822 0.839028 0.321929
0.350338 0.844130 0.324189
0.454855 0.849233 0.326450
0.559372 0.854335 0.328710
0.663888 0.859437 0.330971
0.747966 0.863541 0.332789
0.810676 0.866602 0.334145
0.873386 0.869664 0.335502
0.083742 0.074942 0.369742
0.186778 0.078978 0.373778
0.289815 0.083015 0.377815
0.392851 0.087051 0.381851
0.495888 0.091088 0.385888
0.598924 0.095124 0.389924
0.681811 0.098371 0.393171
0.743633 0.100793 0.395593
0.805455 0.103215 0.398015
0.091754 0.183054 0.377754
0.194791 0.187091 0.381791
0.297827 0.191127 0.385827
0.400864 0.195164 0.389864
0.503900 0.199200 0.393900
0.606937 0.203237 0.397937
0.689824 0.206484 0.401184
0.751646 0.208906 0.403606
0.813468 0.211328 0.406028
0.099767 0.291167 0.385767
0.202803 0.295203 0.389803
0.305840 0.299240 0.393840
0.408876 0.303276 0.397876
0.511913 0.307313 0.401913
0.614949 0.311349 0.405949
0.697836 0.314596 0.409196
0.759658 0.317018 0.411618
0.821480 0.319440 0.414040
0.107779 0.399279 0.393779
0.210816 0.403316 0.397816
0.313852 0.407352 0.401852
0.416889 0.411389 0.405889
0.519925 0.415425 0.409925
0.622962 0.419462 0.413962
0.706145 0.422922 0.416853
0.768855 0.425984 0.418209
0.831565 0.429045 0.419566
0.115792 0.507392 0.401792
0.218828 0.511428 0.405828
0.321865 0.515465 0.409865
0.424901 0.519501 0.413901
0.528502 0.523944 0.417261
0.633018 0.529046 0.419522
0.717096 0.533150 0.421340
0.779806 0.536212 0.422696
0.842516 0.539273 0.424053
0.123804 0.615504 0.409804
0.226841 0.619541 0.413841
0.330419 0.623967 0.417227
0.434936 0.629070 0.419488
0.539452 0.634172 0.421748
0.643969 0.639274 0.424009
0.728046 0.643378 0.425827
0.790756 0.646439 0.427183
0.853466 0.649501 0.428540
0.130338 0.703658 0.416338
0.234831 0.708743 0.418626
0.339348 0.713845 0.420886
0.443864 0.718948 0.423146
0.548381 0.724050 0.425407
0.652898 0.729152 0.427667
0.736975 0.733256 0.429486
0.799685 0.736318 0.430842
0.862395 0.739379 0.432198
0.136885 0.769778 0.419057
0.241402 0.774880 0.421318
0.345918 0.779982 0.423578
0.450435 0.785084 0.425839
0.554951 0.790186 0.428099
0.659468 0.795289 0.430360
0.743546 0.799393 0.432178
0.806256 0.802454 0.433534
0.868965 0.805516 0.434890
0.143455 0.835915 0.421750
0.247972 0.841017 0.424010
0.352488 0.846119 0.426270
0.457005 0.851221 0.428531
0.561522 0.856323 0.430791
0.666038 0.861425 0.433052
0.750116 0.865530 0.434870
0.812826 0.868591 0.436226
0.875536 0.871652 0.437583
0.085315 0.076515 0.472515
0.188351 0.080551 0.476551
0.291388 0.084588 0.480588
0.394424 0.088624 0.484624
0.497461 0.092661 0.488661
0.600497 0.096697 0.492697
0.683384 0.099944 0.495944
0.745206 0.102366 0.498366
0.807028 0.104788 0.500788
0.093327 0.184627 0.480527
0.196364 0.188664 0.484564
0.299400 0.192700 0.488600
0.402437 0.196737 0.492637
0.505473 0.200773 0.496673
0.608510 0.204810 0.500710
0.691397 0.208057 0.503957
0.753219 0.210479 0.506379
0.815041 0.212901 0.508801
0.101340 0.292740 0.488540
0.204376 0.296776 0.492576
0.307413 0.300813 0.496613
0.410449 0.304849 0.500649
0.513486 0.308886 0.504686
0.616522 0.312922 0.508722
0.699410 0.316170 0.511970
0.761231 0.318591 0.514391
0.823053 0.321013 0.516813
0.109352 0.400852 0.496552
0.212389 0.404889 0.500589
0.315425 0.408925 0.504625
0.418462 0.412962 0.508662
0.521498 0.416998 0.512698
0.624535 0.421035 0.516735
0.708296 0.424911 0.518934
0.771005 0.427972 0.520290
0.833715 0.431034 0.521646
0.117365 0.508965 0.504565
0.220402 0.513001 0.508602
0.323438 0.517038 0.512638
0.426475 0.521074 0.516675
0.530652 0.525932 0.519342
0.635168 0.531034 0.521603
0.719246 0.535139 0.523421
0.781956 0.538200 0.524777
0.844666 0.541261 0.526134
0.125378 0.617078 0.512578
0.228414 0.621114 0.516614
0.332569 0.625956 0.519308
0.437086 0.631058 0.521569
0.541602 0.636160 0.523829
0.646119 0.641262 0.526090
0.730196 0.645367 0.527908
0.792906 0.648428 0.529264
0.855616 0.651489 0.530621
0.132465 0.705630 0.518446
0.236981 0.710732 0.520707
0.341498 0.715834 0.522967
0.446014 0.720936 0.525227
0.550531 0.726038 0.527488
0.655048 0.731140 0.529748
0.739125 0.735245 0.531567
0.801835 0.738306 0.532923
0.864545 0.741367 0.534279
0.139035 0.771766 0.521138
0.243552 0.776869 0.523399
0.348068 0.781971 0.525659
0.452585 0.787073 0.527920
0.557101 0.792175 0.530180
0.661618 0.797277 0.532440
0.745696 0.801382 0.534259
0.808406 0.804443 0.535615
0.871116 0.807504 0.536971
0.145605 0.837903 0.523831
0.250122 0.843005 0.526091
0.354639 0.848107 0.528351
0.459155 0.853210 0.530612
0.563672 0.858312 0.532872
0.668188 0.863414 0.535133
0.752266 0.867518 0.536951
0.814976 0.870580 0.538307
0.877686 0.873641 0.539664
0.086888 0.078088 0.575288
0.189924 0.082125 0.579325
0.292961 0.086161 0.583361
0.395998 0.090198 0.587398
0.499034 0.094234 0.591434
0.602070 0.098271 0.595471
0.684958 0.101518 0.598718
0.746780 0.103940 0.601140
0.808601 0.106361 0.603561
0.094901 0.186201 0.583301
0.197937 0.190237 0.587337
0.300974 0.194274 0.591374
0.404010 0.198310 0.595410
0.507047 0.202347 0.599447
0.610083 0.206383 0.603483
0.692970 0.209630 0.606730
0.754792 0.212052 0.609152
0.816614 0.214474 0.611574
0.102913 0.294313 0.591313
0.205950 0.298350 0.595350
0.308986 0.302386 0.599386
0.412023 0.306423 0.603423
0.515059 0.310459 0.607459
0.618096 0.314496 0.611496
0.700983 0.317743 0.614743
0.762805 0.320165 0.617165
0.824915 0.322794 0.619240
0.110926 0.402426 0.599326
0.213962 0.406462 0.603362
0.316999 0.410499 0.607399
0.420035 0.414535 0.611435
0.523072 0.418572 0.615472
0.626368 0.422795 0.619197
0.710446 0.426899 0.621015
0.773155 0.429961 0.622371
0.835865 0.433022 0.623727
0.118938 0.510538 0.607338
0.221975 0.514575 0.611375
0.325011 0.518611 0.615411
0.428285 0.522819 0.619163
0.532802 0.527921 0.621423
0.637318 0.533023 0.623684
0.721396 0.537127 0.625502
0.784106 0.540189 0.626858
0.846816 0.543250 0.628215
0.126951 0.618651 0.615351
0.230203 0.622842 0.619129
0.334719 0.627944 0.621389
0.439236 0.633047 0.623650
0.543752 0.638149 0.625910
0.648269 0.643251 0.628171
0.732347 0.647355 0.629989
0.795056 0.650416 0.631345
0.857766 0.653478 0.632702
0.134615 0.707618 0.620527
0.239131 0.712720 0.622788
0.343648 0.717823 0.625048
0.448165 0.722925 0.627308
0.552681 0.728027 0.629569
0.657198 0.733129 0.631829
0.741275 0.737233 0.633648
0.803985 0.740295 0.635004
0.866695 0.743356 0.636360
0.141185 0.773755 0.623219
0.245702 0.778857 0.625480
0.350218 0.783959 0.627740
0.454735 0.789061 0.630001
0.559251 0.794164 0.632261
0.663768 0.799266 0.634521
0.747846 0.803370 0.636340
0.810556 0.806431 0.637696
0.873266 0.809493 0.639052
0.147755 0.839892 0.625912
0.252272 0.844994 0.628172
0.356789 0.850096 0.630432
0.461305 0.855198 0.632693
0.565822 0.860300 0.634953
0.670338 0.865402 0.637214
0.754416 0.869507 0.639032
0.817126 0.872568 0.640388
0.879836 0.875629 0.641745
0.088188 0.079388 0.660188
0.191224 0.083424 0.664224
0.294261 0.087461 0.668261
0.397297 0.091497 0.672297
0.500334 0.095534 0.676334
0.603370 0.099570 0.680370
0.686257 0.102817 0.683617
0.748079 0.105239 0.686039
0.809901 0.107661 0.688461
0.096200 0.187500 0.668200
0.199237 0.191537 0.672237
0.302273 0.195573 0.676273
0.405310 0.199610 0.680310
0.508346 0.203646 0.684346
0.611383 0.207683 0.688383
0.694270 0.210930 0.691630
0.756092 0.213352 0.694052
0.817914 0.215774 0.696474
0.104213 0.295613 0.676213
0.207249 0.299649 0.680249
0.310286 0.303686 0.684286
0.413322 0.307722 0.688322
0.516359 0.311759 0.692359
0.619395 0.315795 0.696395
0.702282 0.319042 0.699642
0.764104 0.321464 0.702064
0.826691 0.324437 0.703568
0.112225 0.403725 0.684225
0.215262 0.407762 0.688262
0.318298 0.411798 0.692298
0.421335 0.415835 0.696335
0.524371 0.419871 0.700371
0.628144 0.424438 0.703524
0.712222 0.428542 0.705343
0.774932 0.431603 0.706699
0.837642 0.434665 0.708055
0.120238 0.511838 0.692238
0.223274 0.515874 0.696274
0.326311 0.519911 0.700311
0.430061 0.524461 0.703490
0.534578 0.529564 0.705751
0.639094 0.534666 0.708011
0.723172 0.538770 0.709830
0.785882 0.541831 0.711186
0.848592 0.544893 0.712542
0.128250 0.619950 0.700250
0.231979 0.624485 0.703457
0.336495 0.629587 0.705717
0.441012 0.634689 0.707978
0.545528 0.639791 0.710238
0.650045 0.644894 0.712498
0.734123 0.648998 0.714317
0.796833 0.652059 0.715673
0.859543 0.655120 0.717029
0.136391 0.709261 0.704855
0.240908 0.714363 0.707115
0.345424 0.719465 0.709376
0.449941 0.724567 0.711636
0.554457 0.729669 0.713897
0.658974 0.734772 0.716157
0.743052 0.738876 0.717975
0.805761 0.741937 0.719332
0.868471 0.744999 0.720688
0.142961 0.775398 0.707547
0.247478 0.780500 0.709808
0.351994 0.785602 0.712068
0.456511 0.790704 0.714328
0.561027 0.795806 0.716589
0.665544 0.800908 0.718849
0.749622 0.805013 0.720668
0.812332 0.808074 0.722024
0.875042 0.811135 0.723380
0.149532 0.841534 0.710239
0.254048 0.846637 0.712500
0.358565 0.851739 0.714760
0.463081 0.856841 0.717021
0.567598 0.861943 0.719281
0.672114 0.867045 0.721541
0.756192 0.871149 0.723360
0.818902 0.874211 0.724716
0.881612 0.877272 0.726072
0.089132 0.080332 0.721852
0.192168 0.084368 0.725888
0.295205 0.088405 0.729925
0.398241 0.092441 0.733961
0.501278 0.096478 0.737998
0.604314 0.100514 0.742034
0.687201 0.103761 0.745281
0.749023 0.106183 0.747703
0.810845 0.108605 0.750125
0.097144 0.188444 0.729864
0.200181 0.192481 0.733901
0.303217 0.196517 0.737937
0.406254 0.200554 0.741974
0.509290 0.204590 0.746010
0.612327 0.208627 0.750047
0.695214 0.211874 0.753294
0.757036 0.214296 0.755716
0.818858 0.216718 0.758138
0.105157 0.296557 0.737877
0.208193 0.300593 0.741913
0.311230 0.304630 0.745950
0.414266 0.308666 0.749986
0.517303 0.312703 0.754023
0.620339 0.316739 0.758059
0.703226 0.319986 0.761306
0.765271 0.322569 0.763461
0.827981 0.325630 0.764817
0.113169 0.404669 0.745889
0.216206 0.408706 0.749926
0.319242 0.412742 0.753962
0.422279 0.416779 0.757999
0.525315 0.420815 0.762035
0.629434 0.425631 0.764773
0.713512 0.429735 0.766591
0.776222 0.432797 0.767948
0.838932 0.435858 0.769304
0.121182 0.512782 0.753902
0.224218 0.516818 0.757938
0.327255 0.520855 0.761975
0.431351 0.525655 0.764739
0.535868 0.530757 0.767000
0.640384 0.535859 0.769260
0.724462 0.539963 0.771078
0.787172 0.543024 0.772435
0.849882 0.546086 0.773791
0.129194 0.620894 0.761914
0.233269 0.625678 0.764705
0.337785 0.630780 0.766966
0.442302 0.635882 0.769226
0.546818 0.640985 0.771487
0.651335 0.646087 0.773747
0.735413 0.650191 0.775565
0.798123 0.653252 0.776922
0.860833 0.656314 0.778278
0.137681 0.710454 0.766103
0.242198 0.715556 0.768364
0.346714 0.720658 0.770624
0.451231 0.725760 0.772885
0.555747 0.730863 0.775145
0.660264 0.735965 0.777406
0.744342 0.740069 0.779224
0.807051 0.743130 0.780580
0.869761 0.746192 0.781937
0.144251 0.776591 0.768796
0.248768 0.781693 0.771056
0.353284 0.786795 0.773317
0.457801 0.791897 0.775577
0.562318 0.796999 0.777837
0.666834 0.802101 0.780098
0.750912 0.806206 0.781916
0.813622 0.809267 0.783273
0.876332 0.812328 0.784629
0.150822 0.842727 0.771488
0.255338 0.847830 0.773748
0.359855 0.852932 0.776009
0.464371 0.858034 0.778269
0.568888 0.863136 0.780530
0.673404 0.868238 0.782790
0.757482 0.872343 0.784608
0.820192 0.875404 0.785965
0.882902 0.878465 0.787321
0.090075 0.081275 0.783515
0.193112 0.085312 0.787552
0.296148 0.089348 0.791588
0.399185 0.093385 0.795625
0.502221 0.097421 0.799661
0.605258 0.101458 0.803698
0.688145 0.104705 0.806945
0.749967 0.107127 0.809367
0.811789 0.109549 0.811789
0.098088 0.189388 0.791528
0.201124 0.193424 0.795564
0.304161 0.197461 0.799601
0.407197 0.201497 0.803637
0.510234 0.205534 0.807674
0.613270 0.209570 0.811710
0.696158 0.212818 0.814958
0.757980 0.215240 0.817380
0.819801 0.217661 0.819801
0.106101 0.297501 0.799541
0.209137 0.301537 0.803577
0.312174 0.305574 0.807614
0.415210 0.309610 0.811650
0.518247 0.313647 0.815687
0.621283 0.317683 0.819723
0.704170 0.320930 0.822970
0.766561 0.323762 0.824709
0.829271 0.326823 0.826065
0.114113 0.405613 0.807553
0.217150 0.409650 0.811590
0.320186 0.413686 0.815626
0.423223 0.417723 0.819663
0.526259 0.421759 0.823699
0.630724 0.426824 0.826022
0.714802 0.430928 0.827840
0.777512 0.433990 0.829196
0.840222 0.437051 0.830552
0.122126 0.513726 0.815566
0.225162 0.517762 0.819602
0.328199 0.521799 0.823639
0.432641 0.526848 0.825988
0.537158 0.531950 0.828248
0.641674 0.537052 0.830509
0.725752 0.541156 0.832327
0.788462 0.544218 0.833683
0.851172 0.547279 0.835039
0.130138 0.621838 0.823578
0.234559 0.626871 0.825954
0.339075 0.631973 0.828214
0.443592 0.637075 0.830475
0.548108 0.642178 0.832735
0.652625 0.647280 0.834996
0.736703 0.651384 0.836814
0.799413 0.654445 0.838170
0.862123 0.657507 0.839527
0.138971 0.711647 0.827352
0.243488 0.716749 0.829612
0.348004 0.721851 0.831873
0.452521 0.726954 0.834133
0.557037 0.732056 0.836394
0.661554 0.737158 0.838654
0.745632 0.741262 0.840473
0.808341 0.744324 0.841829
0.871051 0.747385 0.843185
0.145541 0.777784 0.830044
0.250058 0.782886 0.832305
0.354574 0.787988 0.834565
0.459091 0.793090 0.836826
0.563608 0.798192 0.839086
0.668124 0.803295 0.841346
0.752202 0.807399 0.843165
0.814912 0.810460 0.844521
0.877622 0.813522 0.845877
0.152112 0.843921 0.832736
0.256628 0.849023 0.834997
0.361145 0.854125 0.837257
0.465661 0.859227 0.839518
0.570178 0.864329 0.841778
0.674694 0.869431 0.844039
0.758772 0.873536 0.845857
0.821482 0.876597 0.847213
0.884192 0.879658 0.848570
