assets/luts/punchy.cube
TITLE "Aftermovie Punchy"
LUT_3D_SIZE 9
DOMAIN_MIN 0.0 0.0 0.0
DOMAIN_MAX 1.0 1.0 1.0
0.000000 0.000000 0.000000
0.039514 0.000000 0.000000
0.141226 0.000000 0.000000
0.318478 0.000000 0.000000
0.548730 0.000000 0.000000
0.786974 0.000000 0.000000
0.985103 0.000000 0.000000
1.000000 0.000000 0.000000
1.000000 0.000000 0.000000
0.000000 0.037094 0.000000
0.034580 0.034580 0.000000
0.136292 0.028111 0.000000
0.313544 0.016837 0.000000
0.543796 0.002193 0.000000
0.782040 0.000000 0.000000
0.980169 0.000000 0.000000
1.000000 0.000000 0.000000
1.000000 0.000000 0.000000
0.000000 0.132574 0.000000
0.021880 0.130061 0.000000
0.123591 0.123591 0.000000
0.300844 0.112318 0.000000
0.531096 0.097673 0.000000
0.769339 0.082520 0.000000
0.967469 0.069918 0.000000
1.000000 0.061893 0.000000
1.000000 0.058202 0.000000
0.000000 0.298967 0.000000
0.000000 0.296454 0.000000
0.101459 0.289985 0.000000
0.278711 0.278711 0.000000
0.508963 0.264066 0.000000
0.747207 0.248913 0.000000
0.945336 0.236311 0.000000
1.000000 0.228286 0.000000
1.000000 0.224595 0.000000
0.000000 0.515113 0.000000
0.000000 0.512600 0.000000
0.072708 0.506130 0.000000
0.249960 0.494857 0.000000
0.480212 0.480212 0.000000
0.718456 0.465059 0.000000
0.916585 0.452457 0.000000
1.000000 0.444432 0.000000
1.000000 0.440741 0.000000
0.000000 0.738761 0.000000
0.000000 0.736248 0.000000
0.042959 0.729779 0.000000
0.220211 0.718505 0.000000
0.450463 0.703860 0.000000
0.688707 0.688707 0.000000
0.886836 0.676105 0.000000
1.000000 0.668080 0.000000
1.000000 0.664389 0.000000
0.000000 0.924753 0.000000
0.000000 0.922239 0.000000
0.018219 0.915770 0.000000
0.195471 0.904496 0.000000
0.425723 0.889851 0.000000
0.663967 0.874698 0.000000
0.862097 0.862097 0.000000
0.988274 0.854071 0.000000
1.000000 0.850381 0.000000
0.000000 1.000000 0.000000
0.000000 1.000000 0.000000
0.002464 1.000000 0.000000
0.179716 1.000000 0.000000
0.409968 1.000000 0.000000
0.648212 0.993146 0.000000
0.846341 0.980544 0.000000
0.972519 0.972519 0.000000
1.000000 0.968828 0.000000
0.000000 1.000000 0.000000
0.000000 1.000000 0.000000
0.000000 1.000000 0.000000
0.172471 1.000000 0.000000
0.402722 1.000000 0.000000
0.640966 1.000000 0.000000
0.839096 1.000000 0.000000
0.965273 1.000000 0.000000
1.000000 1.000000 0.000000
0.000000 0.000000 0.041069
0.038556 0.000000 0.038556
0.140268 0.000000 0.032087
0.317520 0.000000 0.020813
0.547772 0.000000 0.006168
0.786016 0.000000 0.000000
0.984145 0.000000 0.000000
1.000000 0.000000 0.000000
1.000000 0.000000 0.000000
0.000000 0.036135 0.036135
0.033622 0.033622 0.033622
0.135334 0.027153 0.027153
0.312586 0.015879 0.015879
0.542838 0.001234 0.001234
0.781082 0.000000 0.000000
0.979211 0.000000 0.000000
1.000000 0.000000 0.000000
1.000000 0.000000 0.000000
0.000000 0.131616 0.023435
0.020922 0.129102 0.020922
0.122633 0.122633 0.014453
0.299886 0.111359 0.003179
0.530137 0.096715 0.000000
0.768381 0.081561 0.000000
0.966511 0.068960 0.000000
1.000000 0.060934 0.000000
1.000000 0.057244 0.000000
0.000000 0.298009 0.001302
0.000000 0.295496 0.000000
0.100500 0.289026 0.000000
0.277753 0.277753 0.000000
0.508004 0.263108 0.000000
0.746248 0.247955 0.000000
0.944378 0.235353 0.000000
1.000000 0.227328 0.000000
1.000000 0.223637 0.000000
0.000000 0.514155 0.000000
0.000000 0.511641 0.000000
0.071749 0.505172 0.000000
0.249002 0.493898 0.000000
0.479254 0.479254 0.000000
0.717497 0.464100 0.000000
0.915627 0.451499 0.000000
1.000000 0.443473 0.000000
1.000000 0.439783 0.000000
0.000000 0.737803 0.000000
0.000000 0.735290 0.000000
0.042001 0.728820 0.000000
0.219253 0.717547 0.000000
0.449505 0.702902 0.000000
0.687749 0.687749 0.000000
0.885878 0.675147 0.000000
1.000000 0.667122 0.000000
1.000000 0.663431 0.000000
0.000000 0.923794 0.000000
0.000000 0.921281 0.000000
0.017261 0.914812 0.000000
0.194513 0.903538 0.000000
0.424765 0.888893 0.000000
0.663009 0.873740 0.000000
0.861138 0.861138 0.000000
0.987316 0.853113 0.000000
1.000000 0.849422 0.000000
0.000000 1.000000 0.000000
0.000000 1.000000 0.000000
0.001505 1.000000 0.000000
0.178758 1.000000 0.000000
0.409009 1.000000 0.000000
0.647253 0.992188 0.000000
0.845383 0.979586 0.000000
0.971560 0.971560 0.000000
1.000000 0.967870 0.000000
0.000000 1.000000 0.000000
0.000000 1.000000 0.000000
0.000000 1.000000 0.000000
0.171512 1.000000 0.000000
0.401764 1.000000 0.000000
0.640008 1.000000 0.000000
0.838138 1.000000 0.000000
0.964315 1.000000 0.000000
1.000000 1.000000 0.000000
0.000000 0.000000 0.146784
0.036090 0.000000 0.144270
0.137801 0.000000 0.137801
0.315053 0.000000 0.126527
0.545305 0.000000 0.111883
0.783549 0.000000 0.096729
0.981679 0.000000 0.084128
1.000000 0.000000 0.076102
1.000000 0.000000 0.072412
0.000000 0.033669 0.141850
0.031156 0.031156 0.139336
0.132867 0.024686 0.132867
0.310119 0.013413 0.121593
0.540371 0.000000 0.106948
0.778615 0.000000 0.091795
0.976745 0.000000 0.079194
1.000000 0.000000 0.071168
1.000000 0.000000 0.067478
0.000000 0.129149 0.129149
0.018455 0.126636 0.126636
0.120167 0.120167 0.120167
0.297419 0.108893 0.108893
0.527671 0.094248 0.094248
0.765915 0.079095 0.079095
0.964044 0.066493 0.066493
1.000000 0.058468 0.058468
1.000000 0.054777 0.054777
0.000000 0.295542 0.107016
0.000000 0.293029 0.104503
0.098034 0.286560 0.098034
0.275286 0.275286 0.086760
0.505538 0.260641 0.072115
0.743782 0.245488 0.056962
0.941911 0.232886 0.044360
1.000000 0.224861 0.036335
1.000000 0.221170 0.032644
0.000000 0.511688 0.078265
0.000000 0.509175 0.075752
0.069283 0.502706 0.069283
0.246535 0.491432 0.058009
0.476787 0.476787 0.043364
0.715031 0.461634 0.028211
0.913160 0.449032 0.015609
1.000000 0.441007 0.007584
1.000000 0.437316 0.003893
0.000000 0.735336 0.048517
0.000000 0.732823 0.046003
0.039534 0.726354 0.039534
0.216786 0.715080 0.028260
0.447038 0.700435 0.013615
0.685282 0.685282 0.000000
0.883412 0.672680 0.000000
1.000000 0.664655 0.000000
1.000000 0.660964 0.000000
0.000000 0.921328 0.023777
0.000000 0.918815 0.021263
0.014794 0.912345 0.014794
0.192047 0.901071 0.003520
0.422298 0.886427 0.000000
0.660542 0.871273 0.000000
0.858672 0.858672 0.000000
0.984849 0.850646 0.000000
1.000000 0.846956 0.000000
0.000000 1.000000 0.008021
0.000000 1.000000 0.005508
0.000000 1.000000 0.000000
0.176291 1.000000 0.000000
0.406543 1.000000 0.000000
0.644787 0.989721 0.000000
0.842916 0.977119 0.000000
0.969094 0.969094 0.000000
1.000000 0.965403 0.000000
0.000000 1.000000 0.000776
0.000000 1.000000 0.000000
0.000000 1.000000 0.000000
0.169046 1.000000 0.000000
0.399298 1.000000 0.000000
0.637541 1.000000 0.000000
0.835671 1.000000 0.000000
0.961849 1.000000 0.000000
1.000000 1.000000 0.000000
0.000000 0.000000 0.331011
0.031791 0.000000 0.328498
0.133503 0.000000 0.322029
0.310755 0.000000 0.310755
0.541007 0.000000 0.296110
0.779251 0.000000 0.280957
0.977380 0.000000 0.268355
1.000000 0.000000 0.260330
1.000000 0.000000 0.256640
0.000000 0.029371 0.326077
0.026857 0.026857 0.323564
0.128569 0.020388 0.317095
0.305821 0.009114 0.305821
0.536073 0.000000 0.291176
0.774317 0.000000 0.276023
0.972446 0.000000 0.263421
1.000000 0.000000 0.255396
1.000000 0.000000 0.251705
0.000000 0.124851 0.313377
0.014157 0.122338 0.310864
0.115868 0.115868 0.304394
0.293121 0.104594 0.293121
0.523372 0.089950 0.278476
0.761616 0.074797 0.263323
0.959746 0.062195 0.250721
1.000000 0.054169 0.242696
1.000000 0.050479 0.239005
0.000000 0.291244 0.291244
0.000000 0.288731 0.288731
0.093735 0.282262 0.282262
0.270988 0.270988 0.270988
0.501239 0.256343 0.256343
0.739483 0.241190 0.241190
0.937613 0.228588 0.228588
1.000000 0.220563 0.220563
1.000000 0.216872 0.216872
0.000000 0.507390 0.262493
0.000000 0.504877 0.259980
0.064985 0.498407 0.253511
0.242237 0.487133 0.242237
0.472489 0.472489 0.227592
0.710732 0.457335 0.212439
0.908862 0.444734 0.199837
1.000000 0.436708 0.191812
1.000000 0.433018 0.188121
0.000000 0.731038 0.232744
0.000000 0.728525 0.230231
0.035236 0.722056 0.223762
0.212488 0.710782 0.212488
0.442740 0.696137 0.197843
0.680984 0.680984 0.182690
0.879113 0.668382 0.170088
1.000000 0.660357 0.162063
1.000000 0.656666 0.158372
0.000000 0.917029 0.208004
0.000000 0.914516 0.205491
0.010496 0.908047 0.199022
0.187748 0.896773 0.187748
0.418000 0.882128 0.173103
0.656244 0.866975 0.157950
0.854373 0.854373 0.145348
0.980551 0.846348 0.137323
1.000000 0.842657 0.133633
0.000000 1.000000 0.192249
0.000000 1.000000 0.189736
0.000000 1.000000 0.183267
0.171993 1.000000 0.171993
0.402245 1.000000 0.157348
0.640488 0.985423 0.142195
0.838618 0.972821 0.129593
0.964796 0.964796 0.121568
1.000000 0.961105 0.117877
0.000000 1.000000 0.185004
0.000000 1.000000 0.182490
0.000000 1.000000 0.176021
0.164747 1.000000 0.164747
0.394999 1.000000 0.150103
0.633243 1.000000 0.134949
0.831373 1.000000 0.122348
0.957550 1.000000 0.114322
1.000000 1.000000 0.110632
0.000000 0.000000 0.570324
0.026208 0.000000 0.567811
0.127919 0.000000 0.561342
0.305171 0.000000 0.550068
0.535423 0.000000 0.535423
0.773667 0.000000 0.520270
0.971797 0.000000 0.507668
1.000000 0.000000 0.499643
1.000000 0.000000 0.495953
0.000000 0.023787 0.565390
0.021274 0.021274 0.562877
0.122985 0.014804 0.556408
0.300237 0.003531 0.545134
0.530489 0.000000 0.530489
0.768733 0.000000 0.515336
0.966863 0.000000 0.502734
1.000000 0.000000 0.494709
1.000000 0.000000 0.491018
0.000000 0.119267 0.552690
0.008573 0.116754 0.550177
0.110285 0.110285 0.543708
0.287537 0.099011 0.532434
0.517789 0.084366 0.517789
0.756033 0.069213 0.502636
0.954162 0.056611 0.490034
1.000000 0.048586 0.482009
1.000000 0.044895 0.478318
0.000000 0.285660 0.530557
0.000000 0.283147 0.528044
0.088152 0.276678 0.521575
0.265404 0.265404 0.510301
0.495656 0.250759 0.495656
0.733900 0.235606 0.480503
0.932029 0.223004 0.467901
1.000000 0.214979 0.459876
1.000000 0.211288 0.456185
0.000000 0.501806 0.501806
0.000000 0.499293 0.499293
0.059401 0.492824 0.492824
0.236653 0.481550 0.481550
0.466905 0.466905 0.466905
0.705149 0.451752 0.451752
0.903278 0.439150 0.439150
1.000000 0.431125 0.431125
1.000000 0.427434 0.427434
0.000000 0.725454 0.472057
0.000000 0.722941 0.469544
0.029652 0.716472 0.463075
0.206904 0.705198 0.451801
0.437156 0.690553 0.437156
0.675400 0.675400 0.422003
0.873530 0.662798 0.409401
0.999707 0.654773 0.401376
1.000000 0.651082 0.397685
0.000000 0.911446 0.447317
0.000000 0.908932 0.444804
0.004912 0.902463 0.438335
0.182164 0.891189 0.427061
0.412416 0.876545 0.412416
0.650660 0.861391 0.397263
0.848790 0.848790 0.384661
0.974967 0.840764 0.376636
1.000000 0.837074 0.372946
0.000000 1.000000 0.431562
0.000000 1.000000 0.429049
0.000000 1.000000 0.422580
0.166409 1.000000 0.411306
0.396661 0.994992 0.396661
0.634905 0.979839 0.381508
0.833034 0.967237 0.368906
0.959212 0.959212 0.360881
1.000000 0.955521 0.357190
0.000000 1.000000 0.424317
0.000000 1.000000 0.421803
0.000000 1.000000 0.415334
0.159164 1.000000 0.404060
0.389416 1.000000 0.389416
0.627659 1.000000 0.374262
0.825789 1.000000 0.361661
0.951967 1.000000 0.353635
1.000000 1.000000 0.349945
0.000000 0.000000 0.817944
0.020430 0.000000 0.815431
0.122142 0.000000 0.808962
0.299394 0.000000 0.797688
0.529646 0.000000 0.783043
0.767890 0.000000 0.767890
0.966019 0.000000 0.755288
1.000000 0.000000 0.747263
1.000000 0.000000 0.743572
0.000000 0.018009 0.813010
0.015496 0.015496 0.810497
0.117208 0.009027 0.804027
0.294460 0.000000 0.792754
0.524712 0.000000 0.778109
0.762956 0.000000 0.762956
0.961085 0.000000 0.750354
1.000000 0.000000 0.742329
1.000000 0.000000 0.738638
0.000000 0.113490 0.800310
0.002796 0.110976 0.797796
0.104507 0.104507 0.791327
0.281760 0.093233 0.780053
0.512011 0.078589 0.765408
0.750255 0.063435 0.750255
0.948385 0.050834 0.737654
1.000000 0.042808 0.729628
1.000000 0.039118 0.725938
0.000000 0.279883 0.778177
0.000000 0.277370 0.775663
0.082374 0.270900 0.769194
0.259627 0.259627 0.757920
0.489878 0.244982 0.743275
0.728122 0.229829 0.728122
0.926252 0.217227 0.715521
1.000000 0.209202 0.707495
1.000000 0.205511 0.703805
0.000000 0.496029 0.749426
0.000000 0.493515 0.746912
0.053623 0.487046 0.740443
0.230876 0.475772 0.729169
0.461128 0.461128 0.714525
0.699371 0.445974 0.699371
0.897501 0.433373 0.686770
1.000000 0.425347 0.678744
1.000000 0.421657 0.675054
0.000000 0.719677 0.719677
0.000000 0.717164 0.717164
0.023875 0.710694 0.710694
0.201127 0.699421 0.699421
0.431379 0.684776 0.684776
0.669623 0.669623 0.669623
0.867752 0.657021 0.657021
0.993930 0.648996 0.648996
1.000000 0.645305 0.645305
0.000000 0.905668 0.694937
0.000000 0.903155 0.692424
0.000000 0.896686 0.685955
0.176387 0.885412 0.674681
0.406639 0.870767 0.660036
0.644883 0.855614 0.644883
0.843012 0.843012 0.632281
0.969190 0.834987 0.624256
1.000000 0.831296 0.620565
0.000000 1.000000 0.679182
0.000000 1.000000 0.676668
0.000000 1.000000 0.670199
0.160632 1.000000 0.658925
0.390883 0.989215 0.644280
0.629127 0.974062 0.629127
0.827257 0.961460 0.616526
0.953434 0.953434 0.608500
1.000000 0.949744 0.604810
0.000000 1.000000 0.671936
0.000000 1.000000 0.669423
0.000000 1.000000 0.662954
0.153386 1.000000 0.651680
0.383638 1.000000 0.637035
0.621882 1.000000 0.621882
0.820012 1.000000 0.609280
0.946189 1.000000 0.601255
1.000000 1.000000 0.597564
0.000000 0.000000 1.000000
0.015626 0.000000 1.000000
0.117337 0.000000 1.000000
0.294589 0.000000 1.000000
0.524841 0.000000 0.988969
0.763085 0.000000 0.973816
0.961215 0.000000 0.961215
1.000000 0.000000 0.953189
1.000000 0.000000 0.949499
0.000000 0.013205 1.000000
0.010691 0.010691 1.000000
0.112403 0.004222 1.000000
0.289655 0.000000 0.998680
0.519907 0.000000 0.984035
0.758151 0.000000 0.968882
0.956281 0.000000 0.956281
1.000000 0.000000 0.948255
1.000000 0.000000 0.944565
0.000000 0.108685 1.000000
0.000000 0.106172 1.000000
0.099703 0.099703 0.997254
0.276955 0.088429 0.985980
0.507207 0.073784 0.971335
0.745451 0.058631 0.956182
0.943580 0.046029 0.943580
1.000000 0.038004 0.935555
1.000000 0.034313 0.931864
0.000000 0.275078 0.984103
0.000000 0.272565 0.981590
0.077570 0.266096 0.975121
0.254822 0.254822 0.963847
0.485074 0.240177 0.949202
0.723318 0.225024 0.934049
0.921447 0.212422 0.921447
1.000000 0.204397 0.913422
1.000000 0.200706 0.909731
0.000000 0.491224 0.955352
0.000000 0.488711 0.952839
0.048819 0.482242 0.946370
0.226071 0.470968 0.935096
0.456323 0.456323 0.920451
0.694567 0.441170 0.905298
0.892696 0.428568 0.892696
1.000000 0.420543 0.884671
1.000000 0.416852 0.880980
0.000000 0.714872 0.925603
0.000000 0.712359 0.923090
0.019070 0.705890 0.916621
0.196322 0.694616 0.905347
0.426574 0.679971 0.890702
0.664818 0.664818 0.875549
0.862947 0.652216 0.862947
0.989125 0.644191 0.854922
1.000000 0.640500 0.851232
0.000000 0.900864 0.900864
0.000000 0.898350 0.898350
0.000000 0.891881 0.891881
0.171582 0.880607 0.880607
0.401834 0.865962 0.865962
0.640078 0.850809 0.850809
0.838208 0.838208 0.838208
0.964385 0.830182 0.830182
1.000000 0.826492 0.826492
0.000000 1.000000 0.885108
0.000000 1.000000 0.882595
0.000000 1.000000 0.876126
0.155827 0.999055 0.864852
0.386079 0.984410 0.850207
0.624323 0.969257 0.835054
0.822452 0.956655 0.822452
0.948630 0.948630 0.814427
1.000000 0.944939 0.810736
0.000000 1.000000 0.877863
0.000000 1.000000 0.875350
0.000000 1.000000 0.868880
0.148582 1.000000 0.857607
0.378833 1.000000 0.842962
0.617077 1.000000 0.827809
0.815207 1.000000 0.815207
0.941384 1.000000 0.807182
0.999409 0.999409 0.803491
0.000000 0.000000 1.000000
0.012566 0.000000 1.000000
0.114277 0.000000 1.000000
0.291529 0.000000 1.000000
0.521781 0.000000 1.000000
0.760025 0.000000 1.000000
0.958155 0.000000 1.000000
1.000000 0.000000 1.000000
1.000000 0.000000 1.000000
0.000000 0.010145 1.000000
0.007632 0.007632 1.000000
0.109343 0.001162 1.000000
0.286595 0.000000 1.000000
0.516847 0.000000 1.000000
0.755091 0.000000 1.000000
0.953221 0.000000 1.000000
1.000000 0.000000 1.000000
1.000000 0.000000 1.000000
0.000000 0.105625 1.000000
0.000000 0.103112 1.000000
0.096643 0.096643 1.000000
0.273895 0.085369 1.000000
0.504147 0.070724 1.000000
0.742391 0.055571 1.000000
0.940520 0.042969 1.000000
1.000000 0.034944 1.000000
1.000000 0.031253 1.000000
0.000000 0.272018 1.000000
0.000000 0.269505 1.000000
0.074510 0.263036 1.000000
0.251762 0.251762 1.000000
0.482014 0.237117 1.000000
0.720258 0.221964 1.000000
0.918387 0.209362 1.000000
1.000000 0.201337 1.000000
1.000000 0.197646 1.000000
0.000000 0.488164 1.000000
0.000000 0.485651 1.000000
0.045759 0.479182 1.000000
0.223011 0.467908 1.000000
0.453263 0.453263 1.000000
0.691507 0.438110 1.000000
0.889636 0.425508 1.000000
1.000000 0.417483 1.000000
1.000000 0.413792 1.000000
0.000000 0.711812 1.000000
0.000000 0.709299 1.000000
0.016010 0.702830 1.000000
0.193262 0.691556 1.000000
0.423514 0.676911 1.000000
0.661758 0.661758 1.000000
0.859888 0.649156 0.994091
0.986065 0.641131 0.986065
1.000000 0.637440 0.982375
0.000000 0.897804 1.000000
0.000000 0.895291 1.000000
0.000000 0.888821 1.000000
0.168523 0.877547 1.000000
0.398774 0.862903 0.997106
0.637018 0.847750 0.981952
0.835148 0.835148 0.969351
0.961325 0.827122 0.961325
1.000000 0.823432 0.957635
0.000000 1.000000 1.000000
0.000000 1.000000 1.000000
0.000000 1.000000 1.000000
0.152767 0.995995 0.995995
0.383019 0.981350 0.981350
0.621263 0.966197 0.966197
0.819392 0.953595 0.953595
0.945570 0.945570 0.945570
1.000000 0.941879 0.941879
0.000000 1.000000 1.000000
0.000000 1.000000 1.000000
0.000000 1.000000 1.000000
0.145522 1.000000 0.988750
0.375774 1.000000 0.974105
0.614017 1.000000 0.958952
0.812147 1.000000 0.946350
0.938325 1.000000 0.938325
0.996349 0.996349 0.934634
0.000000 0.000000 1.000000
0.011159 0.000000 1.000000
0.112870 0.000000 1.000000
0.290122 0.000000 1.000000
0.520374 0.000000 1.000000
0.758618 0.000000 1.000000
0.956748 0.000000 1.000000
1.000000 0.000000 1.000000
1.000000 0.000000 1.000000
0.000000 0.008738 1.000000
0.006225 0.006225 1.000000
0.107936 0.000000 1.000000
0.285188 0.000000 1.000000
0.515440 0.000000 1.000000
0.753684 0.000000 1.000000
0.951814 0.000000 1.000000
1.000000 0.000000 1.000000
1.000000 0.000000 1.000000
0.000000 0.104218 1.000000
0.000000 0.101705 1.000000
0.095236 0.095236 1.000000
0.272488 0.083962 1.000000
0.502740 0.069317 1.000000
0.740984 0.054164 1.000000
0.939113 0.041562 1.000000
1.000000 0.033537 1.000000
1.000000 0.029846 1.000000
0.000000 0.270611 1.000000
0.000000 0.268098 1.000000
0.073103 0.261629 1.000000
0.250355 0.250355 1.000000
0.480607 0.235710 1.000000
0.718851 0.220557 1.000000
0.916980 0.207955 1.000000
1.000000 0.199930 1.000000
1.000000 0.196239 1.000000
0.000000 0.486757 1.000000
0.000000 0.484244 1.000000
0.044352 0.477775 1.000000
0.221604 0.466501 1.000000
0.451856 0.451856 1.000000
0.690100 0.436703 1.000000
0.888229 0.424101 1.000000
1.000000 0.416076 1.000000
1.000000 0.412385 1.000000
0.000000 0.710405 1.000000
0.000000 0.707892 1.000000
0.014603 0.701423 1.000000
0.191855 0.690149 1.000000
0.422107 0.675504 1.000000
0.660351 0.660351 1.000000
0.858481 0.647749 1.000000
0.984658 0.639724 1.000000
1.000000 0.636033 1.000000
0.000000 0.896397 1.000000
0.000000 0.893883 1.000000
0.000000 0.887414 1.000000
0.167115 0.876140 1.000000
0.397367 0.861496 1.000000
0.635611 0.846342 1.000000
0.833741 0.833741 1.000000
0.959918 0.825715 1.000000
1.000000 0.822025 1.000000
0.000000 1.000000 1.000000
0.000000 1.000000 1.000000
0.000000 1.000000 1.000000
0.151360 0.994588 1.000000
0.381612 0.979943 1.000000
0.619856 0.964790 1.000000
0.817985 0.952188 1.000000
0.944163 0.944163 1.000000
1.000000 0.940472 1.000000
0.000000 1.000000 1.000000
0.000000 1.000000 1.000000
0.000000 1.000000 1.000000
0.144115 1.000000 1.000000
0.374367 1.000000 1.000000
0.612610 1.000000 1.000000
0.810740 1.000000 1.000000
0.936918 0.998632 0.998632
0.994942 0.994942 0.994942
