assets/luts/punchy.cube
TITLE "Aftermovie Punchy"
LUT_3D_SIZE 5
DOMAIN_MIN 0.0 0.0 0.0
DOMAIN_MAX 1.0 1.0 1.0
0.000000 0.000000 0.000000
0.141226 0.000000 0.000000
0.548730 0.000000 0.000000
0.985103 0.000000 0.000000
1.000000 0.000000 0.000000
0.000000 0.132574 0.000000
0.123591 0.123591 0.000000
0.531096 0.097673 0.000000
0.967469 0.069918 0.000000
1.000000 0.058202 0.000000
0.000000 0.515113 0.000000
0.072708 0.506130 0.000000
0.480212 0.480212 0.000000
0.916585 0.452457 0.000000
1.000000 0.440741 0.000000
0.000000 0.924753 0.000000
0.018219 0.915770 0.000000
0.425723 0.889851 0.000000
0.862097 0.862097 0.000000
1.000000 0.850381 0.000000
0.000000 1.000000 0.000000
0.000000 1.000000 0.000000
0.402722 1.000000 0.000000
0.839096 1.000000 0.000000
1.000000 1.000000 0.000000
0.000000 0.000000 0.146784
0.137801 0.000000 0.137801
0.545305 0.000000 0.111883
0.981679 0.000000 0.084128
1.000000 0.000000 0.072412
0.000000 0.129149 0.129149
0.120167 0.120167 0.120167
0.527671 0.094248 0.094248
0.964044 0.066493 0.066493
1.000000 0.054777 0.054777
0.000000 0.511688 0.078265
0.069283 0.502706 0.069283
0.476787 0.476787 0.043364
0.913160 0.449032 0.015609
1.000000 0.437316 0.003893
0.000000 0.921328 0.023777
0.014794 0.912345 0.014794
0.422298 0.886427 0.000000
0.858672 0.858672 0.000000
1.000000 0.846956 0.000000
0.000000 1.000000 0.000776
0.000000 1.000000 0.000000
0.399298 1.000000 0.000000
0.835671 1.000000 0.000000
1.000000 1.000000 0.000000
0.000000 0.000000 0.570324
0.127919 0.000000 0.561342
0.535423 0.000000 0.535423
0.971797 0.000000 0.507668
1.000000 0.000000 0.495953
0.000000 0.119267 0.552690
0.110285 0.110285 0.543708
0.517789 0.084366 0.517789
0.954162 0.056611 0.490034
1.000000 0.044895 0.478318
0.000000 0.501806 0.501806
0.059401 0.492824 0.492824
0.466905 0.466905 0.466905
0.903278 0.439150 0.439150
1.000000 0.427434 0.427434
0.000000 0.911446 0.447317
0.004912 0.902463 0.438335
0.412416 0.876545 0.412416
0.848790 0.848790 0.384661
1.000000 0.837074 0.372946
0.000000 1.000000 0.424317
0.000000 1.000000 0.415334
0.389416 1.000000 0.389416
0.825789 1.000000 0.361661
1.000000 1.000000 0.349945
0.000000 0.000000 1.000000
0.117337 0.000000 1.000000
0.524841 0.000000 0.988969
0.961215 0.000000 0.961215
1.000000 0.000000 0.949499
0.000000 0.108685 1.000000
0.099703 0.099703 0.997254
0.507207 0.073784 0.971335
0.943580 0.046029 0.943580
1.000000 0.034313 0.931864
0.000000 0.491224 0.955352
0.048819 0.482242 0.946370
0.456323 0.456323 0.920451
0.892696 0.428568 0.892696
1.000000 0.416852 0.880980
0.000000 0.900864 0.900864
0.000000 0.891881 0.891881
0.401834 0.865962 0.865962
0.838208 0.838208 0.838208
1.000000 0.826492 0.826492
0.000000 1.000000 0.877863
0.000000 1.000000 0.868880
0.378833 1.000000 0.842962
0.815207 1.000000 0.815207
0.999409 0.999409 0.803491
0.000000 0.000000 1.000000
0.112870 0.000000 1.000000
0.520374 0.000000 1.000000
0.956748 0.000000 1.000000
1.000000 0.000000 1.000000
0.000000 0.104218 1.000000
0.095236 0.095236 1.000000
0.502740 0.069317 1.000000
0.939113 0.041562 1.000000
1.000000 0.029846 1.000000
0.000000 0.486757 1.000000
0.044352 0.477775 1.000000
0.451856 0.451856 1.000000
0.888229 0.424101 1.000000
1.000000 0.412385 1.000000
0.000000 0.896397 1.000000
0.000000 0.887414 1.000000
0.397367 0.861496 1.000000
0.833741 0.833741 1.000000
1.000000 0.822025 1.000000
0.000000 1.000000 1.000000
0.000000 1.000000 1.000000
0.374367 1.000000 1.000000
0.810740 1.000000 1.000000
0.994942 0.994942 0.994942
