assets/luts/punchy.cube
TITLE "Aftermovie Punchy"
LUT_3D_SIZE 17
DOMAIN_MIN 0.0 0.0 0.0
DOMAIN_MAX 1.0 1.0 1.0
0.000000 0.000000 0.000000
0.013121 0.000000 0.000000
0.039514 0.000000 0.000000
0.080926 0.000000 0.000000
0.141226 0.000000 0.000000
0.221065 0.000000 0.000000
0.318478 0.000000 0.000000
0.429493 0.000000 0.000000
0.548730 0.000000 0.000000
0.670014 0.000000 0.000000
0.786974 0.000000 0.000000
0.893651 0.000000 0.000000
0.985103 0.000000 0.000000
1.000000 0.000000 0.000000
1.000000 0.000000 0.000000
1.000000 0.000000 0.000000
1.000000 0.000000 0.000000
0.000000 0.012317 0.000000
0.011483 0.011483 0.000000
0.037876 0.009804 0.000000
0.079288 0.007170 0.000000
0.139588 0.003335 0.000000
0.219426 0.000000 0.000000
0.316840 0.000000 0.000000
0.427854 0.000000 0.000000
0.547092 0.000000 0.000000
0.668376 0.000000 0.000000
0.785336 0.000000 0.000000
0.892013 0.000000 0.000000
0.983465 0.000000 0.000000
1.000000 0.000000 0.000000
1.000000 0.000000 0.000000
1.000000 0.000000 0.000000
1.000000 0.000000 0.000000
0.000000 0.037094 0.000000
0.008187 0.036259 0.000000
0.034580 0.034580 0.000000
0.075992 0.031946 0.000000
0.136292 0.028111 0.000000
0.216131 0.023033 0.000000
0.313544 0.016837 0.000000
0.424559 0.009776 0.000000
0.543796 0.002193 0.000000
0.665080 0.000000 0.000000
0.782040 0.000000 0.000000
0.888717 0.000000 0.000000
0.980169 0.000000 0.000000
1.000000 0.000000 0.000000
1.000000 0.000000 0.000000
1.000000 0.000000 0.000000
1.000000 0.000000 0.000000
0.000000 0.075968 0.000000
0.003016 0.075134 0.000000
0.029409 0.073455 0.000000
0.070821 0.070821 0.000000
0.131121 0.066986 0.000000
0.210960 0.061908 0.000000
0.308373 0.055712 0.000000
0.419388 0.048651 0.000000
0.538625 0.041067 0.000000
0.659909 0.033353 0.000000
0.776869 0.025914 0.000000
0.883546 0.019129 0.000000
0.974999 0.013312 0.000000
1.000000 0.008675 0.000000
1.000000 0.005287 0.000000
1.000000 0.003037 0.000000
1.000000 0.001596 0.000000
0.000000 0.132574 0.000000
0.000000 0.131739 0.000000
0.021880 0.130061 0.000000
0.063291 0.127427 0.000000
0.123591 0.123591 0.000000
0.203430 0.118513 0.000000
0.300844 0.112318 0.000000
0.411858 0.105257 0.000000
0.531096 0.097673 0.000000
0.652380 0.089959 0.000000
0.769339 0.082520 0.000000
0.876017 0.075735 0.000000
0.967469 0.069918 0.000000
1.000000 0.065281 0.000000
1.000000 0.061893 0.000000
1.000000 0.059643 0.000000
1.000000 0.058202 0.000000
0.000000 0.207522 0.000000
0.000000 0.206687 0.000000
0.011911 0.205008 0.000000
0.053322 0.202374 0.000000
0.113622 0.198539 0.000000
0.193461 0.193461 0.000000
0.290875 0.187265 0.000000
0.401889 0.180204 0.000000
0.521126 0.172620 0.000000
0.642410 0.164906 0.000000
0.759370 0.157467 0.000000
0.866047 0.150682 0.000000
0.957500 0.144866 0.000000
1.000000 0.140228 0.000000
1.000000 0.136840 0.000000
1.000000 0.134590 0.000000
1.000000 0.133150 0.000000
0.000000 0.298967 0.000000
0.000000 0.298133 0.000000
0.000000 0.296454 0.000000
0.041159 0.293820 0.000000
0.101459 0.289985 0.000000
0.181297 0.284907 0.000000
0.278711 0.278711 0.000000
0.389725 0.271650 0.000000
0.508963 0.264066 0.000000
0.630247 0.256352 0.000000
0.747207 0.248913 0.000000
0.853884 0.242128 0.000000
0.945336 0.236311 0.000000
1.000000 0.231674 0.000000
1.000000 0.228286 0.000000
1.000000 0.226036 0.000000
1.000000 0.224595 0.000000
0.000000 0.403180 0.000000
0.000000 0.402346 0.000000
0.000000 0.400667 0.000000
0.027296 0.398033 0.000000
0.087596 0.394198 0.000000
0.167435 0.389120 0.000000
0.264849 0.382924 0.000000
0.375863 0.375863 0.000000
0.495101 0.368279 0.000000
0.616385 0.360565 0.000000
0.733344 0.353126 0.000000
0.840022 0.346341 0.000000
0.931474 0.340524 0.000000
1.000000 0.335887 0.000000
1.000000 0.332499 0.000000
1.000000 0.330249 0.000000
1.000000 0.328808 0.000000
0.000000 0.515113 0.000000
0.000000 0.514278 0.000000
0.000000 0.512600 0.000000
0.012408 0.509966 0.000000
0.072708 0.506130 0.000000
0.152547 0.501052 0.000000
0.249960 0.494857 0.000000
0.360974 0.487796 0.000000
0.480212 0.480212 0.000000
0.601496 0.472498 0.000000
0.718456 0.465059 0.000000
0.825133 0.458274 0.000000
0.916585 0.452457 0.000000
0.989493 0.447820 0.000000
1.000000 0.444432 0.000000
1.000000 0.442182 0.000000
1.000000 0.440741 0.000000
0.000000 0.628967 0.000000
0.000000 0.628132 0.000000
0.000000 0.626453 0.000000
0.000000 0.623819 0.000000
0.057563 0.619984 0.000000
0.137402 0.614906 0.000000
0.234816 0.608710 0.000000
0.345830 0.601649 0.000000
0.465067 0.594065 0.000000
0.586351 0.586351 0.000000
0.703311 0.578912 0.000000
0.809988 0.572127 0.000000
0.901441 0.566311 0.000000
0.974348 0.561673 0.000000
1.000000 0.558285 0.000000
1.000000 0.556035 0.000000
1.000000 0.554595 0.000000
0.000000 0.738761 0.000000
0.000000 0.737927 0.000000
0.000000 0.736248 0.000000
0.000000 0.733614 0.000000
0.042959 0.729779 0.000000
0.122798 0.724701 0.000000
0.220211 0.718505 0.000000
0.331225 0.711444 0.000000
0.450463 0.703860 0.000000
0.571747 0.696146 0.000000
0.688707 0.688707 0.000000
0.795384 0.681922 0.000000
0.886836 0.676105 0.000000
0.959744 0.671468 0.000000
1.000000 0.668080 0.000000
1.000000 0.665830 0.000000
1.000000 0.664389 0.000000
0.000000 0.838903 0.000000
0.000000 0.838068 0.000000
0.000000 0.836390 0.000000
0.000000 0.833756 0.000000
0.029638 0.829920 0.000000
0.109477 0.824842 0.000000
0.206891 0.818647 0.000000
0.317905 0.811586 0.000000
0.437143 0.804002 0.000000
0.558426 0.796288 0.000000
0.675386 0.788849 0.000000
0.782064 0.782064 0.000000
0.873516 0.776247 0.000000
0.946423 0.771610 0.000000
0.999693 0.768222 0.000000
1.000000 0.765972 0.000000
1.000000 0.764531 0.000000
0.000000 0.924753 0.000000
0.000000 0.923918 0.000000
0.000000 0.922239 0.000000
0.000000 0.919605 0.000000
0.018219 0.915770 0.000000
0.098058 0.910692 0.000000
0.195471 0.904496 0.000000
0.306486 0.897435 0.000000
0.425723 0.889851 0.000000
0.547007 0.882137 0.000000
0.663967 0.874698 0.000000
0.770644 0.867913 0.000000
0.862097 0.862097 0.000000
0.935004 0.857459 0.000000
0.988274 0.854071 0.000000
1.000000 0.851821 0.000000
1.000000 0.850381 0.000000
0.000000 0.993194 0.000000
0.000000 0.992359 0.000000
0.000000 0.990680 0.000000
0.000000 0.988046 0.000000
0.009115 0.984211 0.000000
0.088954 0.979133 0.000000
0.186368 0.972937 0.000000
0.297382 0.965876 0.000000
0.416619 0.958292 0.000000
0.537903 0.950578 0.000000
0.654863 0.943139 0.000000
0.761540 0.936354 0.000000
0.852993 0.930538 0.000000
0.925900 0.925900 0.000000
0.979170 0.922512 0.000000
1.000000 0.920262 0.000000
1.000000 0.918822 0.000000
0.000000 1.000000 0.000000
0.000000 1.000000 0.000000
0.000000 1.000000 0.000000
0.000000 1.000000 0.000000
0.002464 1.000000 0.000000
0.082302 1.000000 0.000000
0.179716 1.000000 0.000000
0.290730 1.000000 0.000000
0.409968 1.000000 0.000000
0.531252 1.000000 0.000000
0.648212 0.993146 0.000000
0.754889 0.986361 0.000000
0.846341 0.980544 0.000000
0.919249 0.975907 0.000000
0.972519 0.972519 0.000000
1.000000 0.970269 0.000000
1.000000 0.968828 0.000000
0.000000 1.000000 0.000000
0.000000 1.000000 0.000000
0.000000 1.000000 0.000000
0.000000 1.000000 0.000000
0.000000 1.000000 0.000000
0.077886 1.000000 0.000000
0.175299 1.000000 0.000000
0.286313 1.000000 0.000000
0.405551 1.000000 0.000000
0.526835 1.000000 0.000000
0.643795 1.000000 0.000000
0.750472 1.000000 0.000000
0.841924 1.000000 0.000000
0.914832 1.000000 0.000000
0.968102 1.000000 0.000000
1.000000 1.000000 0.000000
1.000000 1.000000 0.000000
0.000000 1.000000 0.000000
0.000000 1.000000 0.000000
0.000000 1.000000 0.000000
0.000000 1.000000 0.000000
0.000000 1.000000 0.000000
0.075057 1.000000 0.000000
0.172471 1.000000 0.000000
0.283485 1.000000 0.000000
0.402722 1.000000 0.000000
0.524006 1.000000 0.000000
0.640966 1.000000 0.000000
0.747643 1.000000 0.000000
0.839096 1.000000 0.000000
0.912003 1.000000 0.000000
0.965273 1.000000 0.000000
1.000000 1.000000 0.000000
1.000000 1.000000 0.000000
0.000000 0.000000 0.013638
0.012803 0.000000 0.012803
0.039196 0.000000 0.011124
0.080608 0.000000 0.008490
0.140908 0.000000 0.004655
0.220747 0.000000 0.000000
0.318160 0.000000 0.000000
0.429174 0.000000 0.000000
0.548412 0.000000 0.000000
0.669696 0.000000 0.000000
0.786656 0.000000 0.000000
0.893333 0.000000 0.000000
0.984785 0.000000 0.000000
1.000000 0.000000 0.000000
1.000000 0.000000 0.000000
1.000000 0.000000 0.000000
1.000000 0.000000 0.000000
0.000000 0.011999 0.011999
0.011165 0.011165 0.011165
0.037558 0.009486 0.009486
0.078969 0.006852 0.006852
0.139269 0.003017 0.003017
0.219108 0.000000 0.000000
0.316522 0.000000 0.000000
0.427536 0.000000 0.000000
0.546773 0.000000 0.000000
0.668057 0.000000 0.000000
0.785017 0.000000 0.000000
0.891695 0.000000 0.000000
0.983147 0.000000 0.000000
1.000000 0.000000 0.000000
1.000000 0.000000 0.000000
1.000000 0.000000 0.000000
1.000000 0.000000 0.000000
0.000000 0.036775 0.008704
0.007869 0.035941 0.007869
0.034262 0.034262 0.006190
0.075674 0.031628 0.003556
0.135974 0.027793 0.000000
0.215813 0.022715 0.000000
0.313226 0.016519 0.000000
0.424240 0.009458 0.000000
0.543478 0.001874 0.000000
0.664762 0.000000 0.000000
0.781722 0.000000 0.000000
0.888399 0.000000 0.000000
0.979851 0.000000 0.000000
1.000000 0.000000 0.000000
1.000000 0.000000 0.000000
1.000000 0.000000 0.000000
1.000000 0.000000 0.000000
0.000000 0.075650 0.003533
0.002698 0.074815 0.002698
0.029091 0.073137 0.001019
0.070503 0.070503 0.000000
0.130803 0.066667 0.000000
0.210642 0.061589 0.000000
0.308055 0.055394 0.000000
0.419069 0.048333 0.000000
0.538307 0.040749 0.000000
0.659591 0.033035 0.000000
0.776551 0.025596 0.000000
0.883228 0.018811 0.000000
0.974680 0.012994 0.000000
1.000000 0.008357 0.000000
1.000000 0.004969 0.000000
1.000000 0.002719 0.000000
1.000000 0.001278 0.000000
0.000000 0.132256 0.000000
0.000000 0.131421 0.000000
0.021562 0.129743 0.000000
0.062973 0.127109 0.000000
0.123273 0.123273 0.000000
0.203112 0.118195 0.000000
0.300526 0.111999 0.000000
0.411540 0.104939 0.000000
0.530777 0.097355 0.000000
0.652061 0.089641 0.000000
0.769021 0.082201 0.000000
0.875698 0.075416 0.000000
0.967151 0.069600 0.000000
1.000000 0.064963 0.000000
1.000000 0.061574 0.000000
1.000000 0.059325 0.000000
1.000000 0.057884 0.000000
0.000000 0.207203 0.000000
0.000000 0.206369 0.000000
0.011593 0.204690 0.000000
0.053004 0.202056 0.000000
0.113304 0.198221 0.000000
0.193143 0.193143 0.000000
0.290556 0.186947 0.000000
0.401571 0.179886 0.000000
0.520808 0.172302 0.000000
0.642092 0.164588 0.000000
0.759052 0.157149 0.000000
0.865729 0.150364 0.000000
0.957182 0.144547 0.000000
1.000000 0.139910 0.000000
1.000000 0.136522 0.000000
1.000000 0.134272 0.000000
1.000000 0.132832 0.000000
0.000000 0.298649 0.000000
0.000000 0.297814 0.000000
0.000000 0.296136 0.000000
0.040840 0.293502 0.000000
0.101140 0.289666 0.000000
0.180979 0.284588 0.000000
0.278393 0.278393 0.000000
0.389407 0.271332 0.000000
0.508644 0.263748 0.000000
0.629928 0.256034 0.000000
0.746888 0.248595 0.000000
0.853565 0.241810 0.000000
0.945018 0.235993 0.000000
1.000000 0.231356 0.000000
1.000000 0.227968 0.000000
1.000000 0.225718 0.000000
1.000000 0.224277 0.000000
0.000000 0.402862 0.000000
0.000000 0.402028 0.000000
0.000000 0.400349 0.000000
0.026978 0.397715 0.000000
0.087278 0.393880 0.000000
0.167117 0.388802 0.000000
0.264531 0.382606 0.000000
0.375545 0.375545 0.000000
0.494782 0.367961 0.000000
0.616066 0.360247 0.000000
0.733026 0.352808 0.000000
0.839703 0.346023 0.000000
0.931156 0.340206 0.000000
1.000000 0.335569 0.000000
1.000000 0.332181 0.000000
1.000000 0.329931 0.000000
1.000000 0.328490 0.000000
0.000000 0.514795 0.000000
0.000000 0.513960 0.000000
0.000000 0.512281 0.000000
0.012089 0.509648 0.000000
0.072389 0.505812 0.000000
0.152228 0.500734 0.000000
0.249642 0.494538 0.000000
0.360656 0.487478 0.000000
0.479894 0.479894 0.000000
0.601177 0.472180 0.000000
0.718137 0.464740 0.000000
0.824815 0.457955 0.000000
0.916267 0.452139 0.000000
0.989175 0.447502 0.000000
1.000000 0.444113 0.000000
1.000000 0.441864 0.000000
1.000000 0.440423 0.000000
0.000000 0.628648 0.000000
0.000000 0.627814 0.000000
0.000000 0.626135 0.000000
0.000000 0.623501 0.000000
0.057245 0.619666 0.000000
0.137084 0.614588 0.000000
0.234497 0.608392 0.000000
0.345512 0.601331 0.000000
0.464749 0.593747 0.000000
0.586033 0.586033 0.000000
0.702993 0.578594 0.000000
0.809670 0.571809 0.000000
0.901123 0.565992 0.000000
0.974030 0.561355 0.000000
1.000000 0.557967 0.000000
1.000000 0.555717 0.000000
1.000000 0.554276 0.000000
0.000000 0.738443 0.000000
0.000000 0.737608 0.000000
0.000000 0.735930 0.000000
0.000000 0.733296 0.000000
0.042641 0.729460 0.000000
0.122480 0.724382 0.000000
0.219893 0.718187 0.000000
0.330907 0.711126 0.000000
0.450145 0.703542 0.000000
0.571429 0.695828 0.000000
0.688389 0.688389 0.000000
0.795066 0.681604 0.000000
0.886518 0.675787 0.000000
0.959426 0.671150 0.000000
1.000000 0.667762 0.000000
1.000000 0.665512 0.000000
1.000000 0.664071 0.000000
0.000000 0.838585 0.000000
0.000000 0.837750 0.000000
0.000000 0.836071 0.000000
0.000000 0.833438 0.000000
0.029320 0.829602 0.000000
0.109159 0.824524 0.000000
0.206572 0.818328 0.000000
0.317587 0.811267 0.000000
0.436824 0.803684 0.000000
0.558108 0.795969 0.000000
0.675068 0.788530 0.000000
0.781745 0.781745 0.000000
0.873198 0.775929 0.000000
0.946105 0.771291 0.000000
0.999375 0.767903 0.000000
1.000000 0.765654 0.000000
1.000000 0.764213 0.000000
0.000000 0.924434 0.000000
0.000000 0.923600 0.000000
0.000000 0.921921 0.000000
0.000000 0.919287 0.000000
0.017901 0.915452 0.000000
0.097740 0.910374 0.000000
0.195153 0.904178 0.000000
0.306167 0.897117 0.000000
0.425405 0.889533 0.000000
0.546689 0.881819 0.000000
0.663649 0.874380 0.000000
0.770326 0.867595 0.000000
0.861778 0.861778 0.000000
0.934686 0.857141 0.000000
0.987956 0.853753 0.000000
1.000000 0.851503 0.000000
1.000000 0.850062 0.000000
0.000000 0.992875 0.000000
0.000000 0.992041 0.000000
0.000000 0.990362 0.000000
0.000000 0.987728 0.000000
0.008797 0.983893 0.000000
0.088636 0.978815 0.000000
0.186049 0.972619 0.000000
0.297064 0.965558 0.000000
0.416301 0.957974 0.000000
0.537585 0.950260 0.000000
0.654545 0.942821 0.000000
0.761222 0.936036 0.000000
0.852675 0.930219 0.000000
0.925582 0.925582 0.000000
0.978852 0.922194 0.000000
1.000000 0.919944 0.000000
1.000000 0.918503 0.000000
0.000000 1.000000 0.000000
0.000000 1.000000 0.000000
0.000000 1.000000 0.000000
0.000000 1.000000 0.000000
0.002145 1.000000 0.000000
0.081984 1.000000 0.000000
0.179398 1.000000 0.000000
0.290412 1.000000 0.000000
0.409650 1.000000 0.000000
0.530933 1.000000 0.000000
0.647893 0.992828 0.000000
0.754571 0.986043 0.000000
0.846023 0.980226 0.000000
0.918930 0.975589 0.000000
0.972200 0.972200 0.000000
1.000000 0.969951 0.000000
1.000000 0.968510 0.000000
0.000000 1.000000 0.000000
0.000000 1.000000 0.000000
0.000000 1.000000 0.000000
0.000000 1.000000 0.000000
0.000000 1.000000 0.000000
0.077567 1.000000 0.000000
0.174981 1.000000 0.000000
0.285995 1.000000 0.000000
0.405233 1.000000 0.000000
0.526517 1.000000 0.000000
0.643477 1.000000 0.000000
0.750154 1.000000 0.000000
0.841606 1.000000 0.000000
0.914514 1.000000 0.000000
0.967784 1.000000 0.000000
1.000000 1.000000 0.000000
1.000000 1.000000 0.000000
0.000000 1.000000 0.000000
0.000000 1.000000 0.000000
0.000000 1.000000 0.000000
0.000000 1.000000 0.000000
0.000000 1.000000 0.000000
0.074739 1.000000 0.000000
0.172152 1.000000 0.000000
0.283167 1.000000 0.000000
0.402404 1.000000 0.000000
0.523688 1.000000 0.000000
0.640648 1.000000 0.000000
0.747325 1.000000 0.000000
0.838778 1.000000 0.000000
0.911685 1.000000 0.000000
0.964955 1.000000 0.000000
1.000000 1.000000 0.000000
1.000000 1.000000 0.000000
0.000000 0.000000 0.041069
0.012163 0.000000 0.040235
0.038556 0.000000 0.038556
0.079968 0.000000 0.035922
0.140268 0.000000 0.032087
0.220107 0.000000 0.027009
0.317520 0.000000 0.020813
0.428534 0.000000 0.013752
0.547772 0.000000 0.006168
0.669056 0.000000 0.000000
0.786016 0.000000 0.000000
0.892693 0.000000 0.000000
0.984145 0.000000 0.000000
1.000000 0.000000 0.000000
1.000000 0.000000 0.000000
1.000000 0.000000 0.000000
1.000000 0.000000 0.000000
0.000000 0.011359 0.039431
0.010525 0.010525 0.038597
0.036918 0.008846 0.036918
0.078329 0.006212 0.034284
0.138629 0.002377 0.030449
0.218468 0.000000 0.025371
0.315882 0.000000 0.019175
0.426896 0.000000 0.012114
0.546133 0.000000 0.004530
0.667417 0.000000 0.000000
0.784377 0.000000 0.000000
0.891054 0.000000 0.000000
0.982507 0.000000 0.000000
1.000000 0.000000 0.000000
1.000000 0.000000 0.000000
1.000000 0.000000 0.000000
1.000000 0.000000 0.000000
0.000000 0.036135 0.036135
0.007229 0.035301 0.035301
0.033622 0.033622 0.033622
0.075034 0.030988 0.030988
0.135334 0.027153 0.027153
0.215173 0.022075 0.022075
0.312586 0.015879 0.015879
0.423600 0.008818 0.008818
0.542838 0.001234 0.001234
0.664122 0.000000 0.000000
0.781082 0.000000 0.000000
0.887759 0.000000 0.000000
0.979211 0.000000 0.000000
1.000000 0.000000 0.000000
1.000000 0.000000 0.000000
1.000000 0.000000 0.000000
1.000000 0.000000 0.000000
0.000000 0.075010 0.030965
0.002058 0.074175 0.030130
0.028451 0.072497 0.028451
0.069863 0.069863 0.025817
0.130163 0.066027 0.021982
0.210002 0.060949 0.016904
0.307415 0.054754 0.010708
0.418429 0.047693 0.003647
0.537667 0.040109 0.000000
0.658951 0.032395 0.000000
0.775911 0.024956 0.000000
0.882588 0.018171 0.000000
0.974040 0.012354 0.000000
1.000000 0.007717 0.000000
1.000000 0.004329 0.000000
1.000000 0.002079 0.000000
1.000000 0.000638 0.000000
0.000000 0.131616 0.023435
0.000000 0.130781 0.022600
0.020922 0.129102 0.020922
0.062333 0.126469 0.018288
0.122633 0.122633 0.014453
0.202472 0.117555 0.009375
0.299886 0.111359 0.003179
0.410900 0.104298 0.000000
0.530137 0.096715 0.000000
0.651421 0.089000 0.000000
0.768381 0.081561 0.000000
0.875058 0.074776 0.000000
0.966511 0.068960 0.000000
1.000000 0.064323 0.000000
1.000000 0.060934 0.000000
1.000000 0.058685 0.000000
1.000000 0.057244 0.000000
0.000000 0.206563 0.013466
0.000000 0.205729 0.012631
0.010953 0.204050 0.010953
0.052364 0.201416 0.008319
0.112664 0.197581 0.004483
0.192503 0.192503 0.000000
0.289916 0.186307 0.000000
0.400931 0.179246 0.000000
0.520168 0.171662 0.000000
0.641452 0.163948 0.000000
0.758412 0.156509 0.000000
0.865089 0.149724 0.000000
0.956542 0.143907 0.000000
1.000000 0.139270 0.000000
1.000000 0.135882 0.000000
1.000000 0.133632 0.000000
1.000000 0.132191 0.000000
0.000000 0.298009 0.001302
0.000000 0.297174 0.000467
0.000000 0.295496 0.000000
0.040200 0.292862 0.000000
0.100500 0.289026 0.000000
0.180339 0.283948 0.000000
0.277753 0.277753 0.000000
0.388767 0.270692 0.000000
0.508004 0.263108 0.000000
0.629288 0.255394 0.000000
0.746248 0.247955 0.000000
0.852925 0.241170 0.000000
0.944378 0.235353 0.000000
1.000000 0.230716 0.000000
1.000000 0.227328 0.000000
1.000000 0.225078 0.000000
1.000000 0.223637 0.000000
0.000000 0.402222 0.000000
0.000000 0.401388 0.000000
0.000000 0.399709 0.000000
0.026338 0.397075 0.000000
0.086638 0.393240 0.000000
0.166477 0.388162 0.000000
0.263891 0.381966 0.000000
0.374905 0.374905 0.000000
0.494142 0.367321 0.000000
0.615426 0.359607 0.000000
0.732386 0.352168 0.000000
0.839063 0.345383 0.000000
0.930516 0.339566 0.000000
1.000000 0.334929 0.000000
1.000000 0.331541 0.000000
1.000000 0.329291 0.000000
1.000000 0.327850 0.000000
0.000000 0.514155 0.000000
0.000000 0.513320 0.000000
0.000000 0.511641 0.000000
0.011449 0.509008 0.000000
0.071749 0.505172 0.000000
0.151588 0.500094 0.000000
0.249002 0.493898 0.000000
0.360016 0.486837 0.000000
0.479254 0.479254 0.000000
0.600537 0.471539 0.000000
0.717497 0.464100 0.000000
0.824175 0.457315 0.000000
0.915627 0.451499 0.000000
0.988535 0.446861 0.000000
1.000000 0.443473 0.000000
1.000000 0.441224 0.000000
1.000000 0.439783 0.000000
0.000000 0.628008 0.000000
0.000000 0.627174 0.000000
0.000000 0.625495 0.000000
0.000000 0.622861 0.000000
0.056605 0.619026 0.000000
0.136444 0.613948 0.000000
0.233857 0.607752 0.000000
0.344872 0.600691 0.000000
0.464109 0.593107 0.000000
0.585393 0.585393 0.000000
0.702353 0.577954 0.000000
0.809030 0.571169 0.000000
0.900483 0.565352 0.000000
0.973390 0.560715 0.000000
1.000000 0.557327 0.000000
1.000000 0.555077 0.000000
1.000000 0.553636 0.000000
0.000000 0.737803 0.000000
0.000000 0.736968 0.000000
0.000000 0.735290 0.000000
0.000000 0.732656 0.000000
0.042001 0.728820 0.000000
0.121839 0.723742 0.000000
0.219253 0.717547 0.000000
0.330267 0.710486 0.000000
0.449505 0.702902 0.000000
0.570789 0.695188 0.000000
0.687749 0.687749 0.000000
0.794426 0.680964 0.000000
0.885878 0.675147 0.000000
0.958786 0.670510 0.000000
1.000000 0.667122 0.000000
1.000000 0.664872 0.000000
1.000000 0.663431 0.000000
0.000000 0.837945 0.000000
0.000000 0.837110 0.000000
0.000000 0.835431 0.000000
0.000000 0.832797 0.000000
0.028680 0.828962 0.000000
0.108519 0.823884 0.000000
0.205932 0.817688 0.000000
0.316947 0.810627 0.000000
0.436184 0.803043 0.000000
0.557468 0.795329 0.000000
0.674428 0.787890 0.000000
0.781105 0.781105 0.000000
0.872558 0.775289 0.000000
0.945465 0.770651 0.000000
0.998735 0.767263 0.000000
1.000000 0.765013 0.000000
1.000000 0.763573 0.000000
0.000000 0.923794 0.000000
0.000000 0.922960 0.000000
0.000000 0.921281 0.000000
0.000000 0.918647 0.000000
0.017261 0.914812 0.000000
0.097100 0.909734 0.000000
0.194513 0.903538 0.000000
0.305527 0.896477 0.000000
0.424765 0.888893 0.000000
0.546049 0.881179 0.000000
0.663009 0.873740 0.000000
0.769686 0.866955 0.000000
0.861138 0.861138 0.000000
0.934046 0.856501 0.000000
0.987316 0.853113 0.000000
1.000000 0.850863 0.000000
1.000000 0.849422 0.000000
0.000000 0.992235 0.000000
0.000000 0.991401 0.000000
0.000000 0.989722 0.000000
0.000000 0.987088 0.000000
0.008157 0.983253 0.000000
0.087996 0.978175 0.000000
0.185409 0.971979 0.000000
0.296424 0.964918 0.000000
0.415661 0.957334 0.000000
0.536945 0.949620 0.000000
0.653905 0.942181 0.000000
0.760582 0.935396 0.000000
0.852035 0.929579 0.000000
0.924942 0.924942 0.000000
0.978212 0.921554 0.000000
1.000000 0.919304 0.000000
1.000000 0.917863 0.000000
0.000000 1.000000 0.000000
0.000000 1.000000 0.000000
0.000000 1.000000 0.000000
0.000000 1.000000 0.000000
0.001505 1.000000 0.000000
0.081344 1.000000 0.000000
0.178758 1.000000 0.000000
0.289772 1.000000 0.000000
0.409009 1.000000 0.000000
0.530293 0.999627 0.000000
0.647253 0.992188 0.000000
0.753930 0.985402 0.000000
0.845383 0.979586 0.000000
0.918290 0.974949 0.000000
0.971560 0.971560 0.000000
1.000000 0.969311 0.000000
1.000000 0.967870 0.000000
0.000000 1.000000 0.000000
0.000000 1.000000 0.000000
0.000000 1.000000 0.000000
0.000000 1.000000 0.000000
0.000000 1.000000 0.000000
0.076927 1.000000 0.000000
0.174341 1.000000 0.000000
0.285355 1.000000 0.000000
0.404593 1.000000 0.000000
0.525877 1.000000 0.000000
0.642836 1.000000 0.000000
0.749514 1.000000 0.000000
0.840966 1.000000 0.000000
0.913874 1.000000 0.000000
0.967144 1.000000 0.000000
1.000000 1.000000 0.000000
1.000000 1.000000 0.000000
0.000000 1.000000 0.000000
0.000000 1.000000 0.000000
0.000000 1.000000 0.000000
0.000000 1.000000 0.000000
0.000000 1.000000 0.000000
0.074099 1.000000 0.000000
0.171512 1.000000 0.000000
0.282527 1.000000 0.000000
0.401764 1.000000 0.000000
0.523048 1.000000 0.000000
0.640008 1.000000 0.000000
0.746685 1.000000 0.000000
0.838138 1.000000 0.000000
0.911045 1.000000 0.000000
0.964315 1.000000 0.000000
0.999687 1.000000 0.000000
1.000000 1.000000 0.000000
0.000000 0.000000 0.084111
0.011159 0.000000 0.083276
0.037552 0.000000 0.081597
0.078963 0.000000 0.078963
0.139263 0.000000 0.075128
0.219102 0.000000 0.070050
0.316516 0.000000 0.063854
0.427530 0.000000 0.056793
0.546768 0.000000 0.049210
0.668052 0.000000 0.041495
0.785011 0.000000 0.034056
0.891689 0.000000 0.027271
0.983141 0.000000 0.021455
1.000000 0.000000 0.016817
1.000000 0.000000 0.013429
1.000000 0.000000 0.011180
1.000000 0.000000 0.009739
0.000000 0.010355 0.082472
